Project 5 - Parkour/Graphics/LUTS Instagram/Clarendon.cube
#Created by: Adobe Photoshop Export Color Lookup Plugin
TITLE "Clarendon"
#LUT size
LUT_3D_SIZE 5
#data domain
#LUT data points
DOMAIN_MIN 0.000000 0.000000 0.000000
DOMAIN_MAX 0.903226 0.903226 0.903226
0.000000 0.000000 0.000000
0.128723 0.000000 0.000000
0.440491 0.000000 0.000000
0.768951 0.000000 0.000000
0.926025 0.000000 0.000000
0.000000 0.182556 0.000000
0.128723 0.182556 0.000000
0.440491 0.182556 0.000000
0.768951 0.182556 0.000000
0.926025 0.182556 0.000000
0.000000 0.528595 0.000000
0.128723 0.528595 0.000000
0.440491 0.528595 0.000000
0.768951 0.528595 0.000000
0.926025 0.528595 0.000000
0.000000 0.771790 0.000000
0.128723 0.771790 0.000000
0.440491 0.771790 0.000000
0.768951 0.771790 0.000000
0.926025 0.771790 0.000000
0.000000 0.936340 0.000000
0.128723 0.936340 0.000000
0.440491 0.936340 0.000000
0.768951 0.936340 0.000000
0.926025 0.936340 0.000000
0.000000 0.000000 0.242767
0.128723 0.000000 0.242767
0.440491 0.000000 0.242767
0.768951 0.000000 0.242767
0.926025 0.000000 0.242767
0.000000 0.182556 0.242767
0.128723 0.182556 0.242767
0.440491 0.182556 0.242767
0.768951 0.182556 0.242767
0.926025 0.182556 0.242767
0.000000 0.528595 0.242767
0.128723 0.528595 0.242767
0.440491 0.528595 0.242767
0.768951 0.528595 0.242767
0.926025 0.528595 0.242767
0.000000 0.771790 0.242767
0.128723 0.771790 0.242767
0.440491 0.771790 0.242767
0.768951 0.771790 0.242767
0.926025 0.771790 0.242767
0.000000 0.936340 0.242767
0.128723 0.936340 0.242767
0.440491 0.936340 0.242767
0.768951 0.936340 0.242767
0.926025 0.936340 0.242767
0.000000 0.000000 0.520447
0.128723 0.000000 0.520447
0.440491 0.000000 0.520447
0.768951 0.000000 0.520447
0.926025 0.000000 0.520447
0.000000 0.182556 0.520447
0.128723 0.182556 0.520447
0.440491 0.182556 0.520447
0.768951 0.182556 0.520447
0.926025 0.182556 0.520447
0.000000 0.528595 0.520447
0.128723 0.528595 0.520447
0.440491 0.528595 0.520447
0.768951 0.528595 0.520447
0.926025 0.528595 0.520447
0.000000 0.771790 0.520447
0.128723 0.771790 0.520447
0.440491 0.771790 0.520447
0.768951 0.771790 0.520447
0.926025 0.771790 0.520447
0.000000 0.936340 0.520447
0.128723 0.936340 0.520447
0.440491 0.936340 0.520447
0.768951 0.936340 0.520447
0.926025 0.936340 0.520447
0.000000 0.000000 0.793121
0.128723 0.000000 0.793121
0.440491 0.000000 0.793121
0.768951 0.000000 0.793121
0.926025 0.000000 0.793121
0.000000 0.182556 0.793121
0.128723 0.182556 0.793121
0.440491 0.182556 0.793121
0.768951 0.182556 0.793121
0.926025 0.182556 0.793121
0.000000 0.528595 0.793121
0.128723 0.528595 0.793121
0.440491 0.528595 0.793121
0.768951 0.528595 0.793121
0.926025 0.528595 0.793121
0.000000 0.771790 0.793121
0.128723 0.771790 0.793121
0.440491 0.771790 0.793121
0.768951 0.771790 0.793121
0.926025 0.771790 0.793121
0.000000 0.936340 0.793121
0.128723 0.936340 0.793121
0.440491 0.936340 0.793121
0.768951 0.936340 0.793121
0.926025 0.936340 0.793121
0.000000 0.000000 0.947815
0.128723 0.000000 0.947815
0.440491 0.000000 0.947815
0.768951 0.000000 0.947815
0.926025 0.000000 0.947815
0.000000 0.182556 0.947815
0.128723 0.182556 0.947815
0.440491 0.182556 0.947815
0.768951 0.182556 0.947815
0.926025 0.182556 0.947815
0.000000 0.528595 0.947815
0.128723 0.528595 0.947815
0.440491 0.528595 0.947815
0.768951 0.528595 0.947815
0.926025 0.528595 0.947815
0.000000 0.771790 0.947815
0.128723 0.771790 0.947815
0.440491 0.771790 0.947815
0.768951 0.771790 0.947815
0.926025 0.771790 0.947815
0.000000 0.936340 0.947815
0.128723 0.936340 0.947815
0.440491 0.936340 0.947815
0.768951 0.936340 0.947815
0.926025 0.936340 0.947815
