Project 5 - Parkour/Graphics/LUTS Instagram/Clarendon.cube
#Created by: Adobe Photoshop Export Color Lookup Plugin
TITLE "Clarendon"
#LUT size
LUT_3D_SIZE 8
#data domain
#LUT data points
DOMAIN_MIN 0.000000 0.000000 0.000000
DOMAIN_MAX 0.903226 0.903226 0.903226
0.000000 0.000000 0.000000
0.067871 0.000000 0.000000
0.151520 0.000000 0.000000
0.318970 0.000000 0.000000
0.548370 0.000000 0.000000
0.732086 0.000000 0.000000
0.851257 0.000000 0.000000
0.926025 0.000000 0.000000
0.000000 0.098328 0.000000
0.067871 0.098328 0.000000
0.151520 0.098328 0.000000
0.318970 0.098328 0.000000
0.548370 0.098328 0.000000
0.732086 0.098328 0.000000
0.851257 0.098328 0.000000
0.926025 0.098328 0.000000
0.000000 0.228149 0.000000
0.067871 0.228149 0.000000
0.151520 0.228149 0.000000
0.318970 0.228149 0.000000
0.548370 0.228149 0.000000
0.732086 0.228149 0.000000
0.851257 0.228149 0.000000
0.926025 0.228149 0.000000
0.000000 0.438538 0.000000
0.067871 0.438538 0.000000
0.151520 0.438538 0.000000
0.318970 0.438538 0.000000
0.548370 0.438538 0.000000
0.732086 0.438538 0.000000
0.851257 0.438538 0.000000
0.926025 0.438538 0.000000
0.000000 0.608002 0.000000
0.067871 0.608002 0.000000
0.151520 0.608002 0.000000
0.318970 0.608002 0.000000
0.548370 0.608002 0.000000
0.732086 0.608002 0.000000
0.851257 0.608002 0.000000
0.926025 0.608002 0.000000
0.000000 0.741333 0.000000
0.067871 0.741333 0.000000
0.151520 0.741333 0.000000
0.318970 0.741333 0.000000
0.548370 0.741333 0.000000
0.732086 0.741333 0.000000
0.851257 0.741333 0.000000
0.926025 0.741333 0.000000
0.000000 0.855560 0.000000
0.067871 0.855560 0.000000
0.151520 0.855560 0.000000
0.318970 0.855560 0.000000
0.548370 0.855560 0.000000
0.732086 0.855560 0.000000
0.851257 0.855560 0.000000
0.926025 0.855560 0.000000
0.000000 0.936340 0.000000
0.067871 0.936340 0.000000
0.151520 0.936340 0.000000
0.318970 0.936340 0.000000
0.548370 0.936340 0.000000
0.732086 0.936340 0.000000
0.851257 0.936340 0.000000
0.926025 0.936340 0.000000
0.000000 0.000000 0.153931
0.067871 0.000000 0.153931
0.151520 0.000000 0.153931
0.318970 0.000000 0.153931
0.548370 0.000000 0.153931
0.732086 0.000000 0.153931
0.851257 0.000000 0.153931
0.926025 0.000000 0.153931
0.000000 0.098328 0.153931
0.067871 0.098328 0.153931
0.151520 0.098328 0.153931
0.318970 0.098328 0.153931
0.548370 0.098328 0.153931
0.732086 0.098328 0.153931
0.851257 0.098328 0.153931
0.926025 0.098328 0.153931
0.000000 0.228149 0.153931
0.067871 0.228149 0.153931
0.151520 0.228149 0.153931
0.318970 0.228149 0.153931
0.548370 0.228149 0.153931
0.732086 0.228149 0.153931
0.851257 0.228149 0.153931
0.926025 0.228149 0.153931
0.000000 0.438538 0.153931
0.067871 0.438538 0.153931
0.151520 0.438538 0.153931
0.318970 0.438538 0.153931
0.548370 0.438538 0.153931
0.732086 0.438538 0.153931
0.851257 0.438538 0.153931
0.926025 0.438538 0.153931
0.000000 0.608002 0.153931
0.067871 0.608002 0.153931
0.151520 0.608002 0.153931
0.318970 0.608002 0.153931
0.548370 0.608002 0.153931
0.732086 0.608002 0.153931
0.851257 0.608002 0.153931
0.926025 0.608002 0.153931
0.000000 0.741333 0.153931
0.067871 0.741333 0.153931
0.151520 0.741333 0.153931
0.318970 0.741333 0.153931
0.548370 0.741333 0.153931
0.732086 0.741333 0.153931
0.851257 0.741333 0.153931
0.926025 0.741333 0.153931
0.000000 0.855560 0.153931
0.067871 0.855560 0.153931
0.151520 0.855560 0.153931
0.318970 0.855560 0.153931
0.548370 0.855560 0.153931
0.732086 0.855560 0.153931
0.851257 0.855560 0.153931
0.926025 0.855560 0.153931
0.000000 0.936340 0.153931
0.067871 0.936340 0.153931
0.151520 0.936340 0.153931
0.318970 0.936340 0.153931
0.548370 0.936340 0.153931
0.732086 0.936340 0.153931
0.851257 0.936340 0.153931
0.926025 0.936340 0.153931
0.000000 0.000000 0.279968
0.067871 0.000000 0.279968
0.151520 0.000000 0.279968
0.318970 0.000000 0.279968
0.548370 0.000000 0.279968
0.732086 0.000000 0.279968
0.851257 0.000000 0.279968
0.926025 0.000000 0.279968
0.000000 0.098328 0.279968
0.067871 0.098328 0.279968
0.151520 0.098328 0.279968
0.318970 0.098328 0.279968
0.548370 0.098328 0.279968
0.732086 0.098328 0.279968
0.851257 0.098328 0.279968
0.926025 0.098328 0.279968
0.000000 0.228149 0.279968
0.067871 0.228149 0.279968
0.151520 0.228149 0.279968
0.318970 0.228149 0.279968
0.548370 0.228149 0.279968
0.732086 0.228149 0.279968
0.851257 0.228149 0.279968
0.926025 0.228149 0.279968
0.000000 0.438538 0.279968
0.067871 0.438538 0.279968
0.151520 0.438538 0.279968
0.318970 0.438538 0.279968
0.548370 0.438538 0.279968
0.732086 0.438538 0.279968
0.851257 0.438538 0.279968
0.926025 0.438538 0.279968
0.000000 0.608002 0.279968
0.067871 0.608002 0.279968
0.151520 0.608002 0.279968
0.318970 0.608002 0.279968
0.548370 0.608002 0.279968
0.732086 0.608002 0.279968
0.851257 0.608002 0.279968
0.926025 0.608002 0.279968
0.000000 0.741333 0.279968
0.067871 0.741333 0.279968
0.151520 0.741333 0.279968
0.318970 0.741333 0.279968
0.548370 0.741333 0.279968
0.732086 0.741333 0.279968
0.851257 0.741333 0.279968
0.926025 0.741333 0.279968
0.000000 0.855560 0.279968
0.067871 0.855560 0.279968
0.151520 0.855560 0.279968
0.318970 0.855560 0.279968
0.548370 0.855560 0.279968
0.732086 0.855560 0.279968
0.851257 0.855560 0.279968
0.926025 0.855560 0.279968
0.000000 0.936340 0.279968
0.067871 0.936340 0.279968
0.151520 0.936340 0.279968
0.318970 0.936340 0.279968
0.548370 0.936340 0.279968
0.732086 0.936340 0.279968
0.851257 0.936340 0.279968
0.926025 0.936340 0.279968
0.000000 0.000000 0.441803
0.067871 0.000000 0.441803
0.151520 0.000000 0.441803
0.318970 0.000000 0.441803
0.548370 0.000000 0.441803
0.732086 0.000000 0.441803
0.851257 0.000000 0.441803
0.926025 0.000000 0.441803
0.000000 0.098328 0.441803
0.067871 0.098328 0.441803
0.151520 0.098328 0.441803
0.318970 0.098328 0.441803
0.548370 0.098328 0.441803
0.732086 0.098328 0.441803
0.851257 0.098328 0.441803
0.926025 0.098328 0.441803
0.000000 0.228149 0.441803
0.067871 0.228149 0.441803
0.151520 0.228149 0.441803
0.318970 0.228149 0.441803
0.548370 0.228149 0.441803
0.732086 0.228149 0.441803
0.851257 0.228149 0.441803
0.926025 0.228149 0.441803
0.000000 0.438538 0.441803
0.067871 0.438538 0.441803
0.151520 0.438538 0.441803
0.318970 0.438538 0.441803
0.548370 0.438538 0.441803
0.732086 0.438538 0.441803
0.851257 0.438538 0.441803
0.926025 0.438538 0.441803
0.000000 0.608002 0.441803
0.067871 0.608002 0.441803
0.151520 0.608002 0.441803
0.318970 0.608002 0.441803
0.548370 0.608002 0.441803
0.732086 0.608002 0.441803
0.851257 0.608002 0.441803
0.926025 0.608002 0.441803
0.000000 0.741333 0.441803
0.067871 0.741333 0.441803
0.151520 0.741333 0.441803
0.318970 0.741333 0.441803
0.548370 0.741333 0.441803
0.732086 0.741333 0.441803
0.851257 0.741333 0.441803
0.926025 0.741333 0.441803
0.000000 0.855560 0.441803
0.067871 0.855560 0.441803
0.151520 0.855560 0.441803
0.318970 0.855560 0.441803
0.548370 0.855560 0.441803
0.732086 0.855560 0.441803
0.851257 0.855560 0.441803
0.926025 0.855560 0.441803
0.000000 0.936340 0.441803
0.067871 0.936340 0.441803
0.151520 0.936340 0.441803
0.318970 0.936340 0.441803
0.548370 0.936340 0.441803
0.732086 0.936340 0.441803
0.851257 0.936340 0.441803
0.926025 0.936340 0.441803
0.000000 0.000000 0.604980
0.067871 0.000000 0.604980
0.151520 0.000000 0.604980
0.318970 0.000000 0.604980
0.548370 0.000000 0.604980
0.732086 0.000000 0.604980
0.851257 0.000000 0.604980
0.926025 0.000000 0.604980
0.000000 0.098328 0.604980
0.067871 0.098328 0.604980
0.151520 0.098328 0.604980
0.318970 0.098328 0.604980
0.548370 0.098328 0.604980
0.732086 0.098328 0.604980
0.851257 0.098328 0.604980
0.926025 0.098328 0.604980
0.000000 0.228149 0.604980
0.067871 0.228149 0.604980
0.151520 0.228149 0.604980
0.318970 0.228149 0.604980
0.548370 0.228149 0.604980
0.732086 0.228149 0.604980
0.851257 0.228149 0.604980
0.926025 0.228149 0.604980
0.000000 0.438538 0.604980
0.067871 0.438538 0.604980
0.151520 0.438538 0.604980
0.318970 0.438538 0.604980
0.548370 0.438538 0.604980
0.732086 0.438538 0.604980
0.851257 0.438538 0.604980
0.926025 0.438538 0.604980
0.000000 0.608002 0.604980
0.067871 0.608002 0.604980
0.151520 0.608002 0.604980
0.318970 0.608002 0.604980
0.548370 0.608002 0.604980
0.732086 0.608002 0.604980
0.851257 0.608002 0.604980
0.926025 0.608002 0.604980
0.000000 0.741333 0.604980
0.067871 0.741333 0.604980
0.151520 0.741333 0.604980
0.318970 0.741333 0.604980
0.548370 0.741333 0.604980
0.732086 0.741333 0.604980
0.851257 0.741333 0.604980
0.926025 0.741333 0.604980
0.000000 0.855560 0.604980
0.067871 0.855560 0.604980
0.151520 0.855560 0.604980
0.318970 0.855560 0.604980
0.548370 0.855560 0.604980
0.732086 0.855560 0.604980
0.851257 0.855560 0.604980
0.926025 0.855560 0.604980
0.000000 0.936340 0.604980
0.067871 0.936340 0.604980
0.151520 0.936340 0.604980
0.318970 0.936340 0.604980
0.548370 0.936340 0.604980
0.732086 0.936340 0.604980
0.851257 0.936340 0.604980
0.926025 0.936340 0.604980
0.000000 0.000000 0.761414
0.067871 0.000000 0.761414
0.151520 0.000000 0.761414
0.318970 0.000000 0.761414
0.548370 0.000000 0.761414
0.732086 0.000000 0.761414
0.851257 0.000000 0.761414
0.926025 0.000000 0.761414
0.000000 0.098328 0.761414
0.067871 0.098328 0.761414
0.151520 0.098328 0.761414
0.318970 0.098328 0.761414
0.548370 0.098328 0.761414
0.732086 0.098328 0.761414
0.851257 0.098328 0.761414
0.926025 0.098328 0.761414
0.000000 0.228149 0.761414
0.067871 0.228149 0.761414
0.151520 0.228149 0.761414
0.318970 0.228149 0.761414
0.548370 0.228149 0.761414
0.732086 0.228149 0.761414
0.851257 0.228149 0.761414
0.926025 0.228149 0.761414
0.000000 0.438538 0.761414
0.067871 0.438538 0.761414
0.151520 0.438538 0.761414
0.318970 0.438538 0.761414
0.548370 0.438538 0.761414
0.732086 0.438538 0.761414
0.851257 0.438538 0.761414
0.926025 0.438538 0.761414
0.000000 0.608002 0.761414
0.067871 0.608002 0.761414
0.151520 0.608002 0.761414
0.318970 0.608002 0.761414
0.548370 0.608002 0.761414
0.732086 0.608002 0.761414
0.851257 0.608002 0.761414
0.926025 0.608002 0.761414
0.000000 0.741333 0.761414
0.067871 0.741333 0.761414
0.151520 0.741333 0.761414
0.318970 0.741333 0.761414
0.548370 0.741333 0.761414
0.732086 0.741333 0.761414
0.851257 0.741333 0.761414
0.926025 0.741333 0.761414
0.000000 0.855560 0.761414
0.067871 0.855560 0.761414
0.151520 0.855560 0.761414
0.318970 0.855560 0.761414
0.548370 0.855560 0.761414
0.732086 0.855560 0.761414
0.851257 0.855560 0.761414
0.926025 0.855560 0.761414
0.000000 0.936340 0.761414
0.067871 0.936340 0.761414
0.151520 0.936340 0.761414
0.318970 0.936340 0.761414
0.548370 0.936340 0.761414
0.732086 0.936340 0.761414
0.851257 0.936340 0.761414
0.926025 0.936340 0.761414
0.000000 0.000000 0.868988
0.067871 0.000000 0.868958
0.151520 0.000000 0.868958
0.318970 0.000000 0.868958
0.548370 0.000000 0.868988
0.732086 0.000000 0.868988
0.851257 0.000000 0.868988
0.926025 0.000000 0.868988
0.000000 0.098328 0.868958
0.067871 0.098328 0.868958
0.151520 0.098328 0.868958
0.318970 0.098328 0.868958
0.548370 0.098328 0.868988
0.732086 0.098328 0.868988
0.851257 0.098328 0.868958
0.926025 0.098328 0.868958
0.000000 0.228149 0.868958
0.067871 0.228149 0.868958
0.151520 0.228149 0.868958
0.318970 0.228149 0.868958
0.548370 0.228149 0.868988
0.732086 0.228149 0.868988
0.851257 0.228149 0.868958
0.926025 0.228149 0.868958
0.000000 0.438538 0.868958
0.067871 0.438538 0.868958
0.151520 0.438538 0.868958
0.318970 0.438538 0.868958
0.548370 0.438538 0.868958
0.732086 0.438538 0.868988
0.851257 0.438538 0.868958
0.926025 0.438538 0.868958
0.000000 0.608002 0.868988
0.067871 0.608002 0.868988
0.151520 0.608002 0.868988
0.318970 0.608002 0.868958
0.548370 0.608002 0.868988
0.732086 0.608002 0.868988
0.851257 0.608002 0.868988
0.926025 0.608002 0.868988
0.000000 0.741333 0.868988
0.067871 0.741333 0.868988
0.151520 0.741333 0.868988
0.318970 0.741333 0.868988
0.548370 0.741333 0.868988
0.732086 0.741333 0.868988
0.851257 0.741333 0.868988
0.926025 0.741333 0.868988
0.000000 0.855560 0.868988
0.067871 0.855560 0.868958
0.151520 0.855560 0.868958
0.318970 0.855560 0.868958
0.548370 0.855560 0.868988
0.732086 0.855560 0.868988
0.851257 0.855560 0.868988
0.926025 0.855560 0.868988
0.000000 0.936340 0.868988
0.067871 0.936340 0.868958
0.151520 0.936340 0.868958
0.318970 0.936340 0.868958
0.548370 0.936340 0.868988
0.732086 0.936340 0.868988
0.851257 0.936340 0.868988
0.926025 0.936340 0.868988
0.000000 0.000000 0.947815
0.067871 0.000000 0.947815
0.151520 0.000000 0.947815
0.318970 0.000000 0.947815
0.548370 0.000000 0.947815
0.732086 0.000000 0.947815
0.851257 0.000000 0.947815
0.926025 0.000000 0.947815
0.000000 0.098328 0.947815
0.067871 0.098328 0.947815
0.151520 0.098328 0.947815
0.318970 0.098328 0.947815
0.548370 0.098328 0.947815
0.732086 0.098328 0.947815
0.851257 0.098328 0.947815
0.926025 0.098328 0.947815
0.000000 0.228149 0.947815
0.067871 0.228149 0.947815
0.151520 0.228149 0.947815
0.318970 0.228149 0.947815
0.548370 0.228149 0.947815
0.732086 0.228149 0.947815
0.851257 0.228149 0.947815
0.926025 0.228149 0.947815
0.000000 0.438538 0.947815
0.067871 0.438538 0.947815
0.151520 0.438538 0.947815
0.318970 0.438538 0.947815
0.548370 0.438538 0.947815
0.732086 0.438538 0.947815
0.851257 0.438538 0.947815
0.926025 0.438538 0.947815
0.000000 0.608002 0.947815
0.067871 0.608002 0.947815
0.151520 0.608002 0.947815
0.318970 0.608002 0.947815
0.548370 0.608002 0.947815
0.732086 0.608002 0.947815
0.851257 0.608002 0.947815
0.926025 0.608002 0.947815
0.000000 0.741333 0.947815
0.067871 0.741333 0.947815
0.151520 0.741333 0.947815
0.318970 0.741333 0.947815
0.548370 0.741333 0.947815
0.732086 0.741333 0.947815
0.851257 0.741333 0.947815
0.926025 0.741333 0.947815
0.000000 0.855560 0.947815
0.067871 0.855560 0.947815
0.151520 0.855560 0.947815
0.318970 0.855560 0.947815
0.548370 0.855560 0.947815
0.732086 0.855560 0.947815
0.851257 0.855560 0.947815
0.926025 0.855560 0.947815
0.000000 0.936340 0.947815
0.067871 0.936340 0.947815
0.151520 0.936340 0.947815
0.318970 0.936340 0.947815
0.548370 0.936340 0.947815
0.732086 0.936340 0.947815
0.851257 0.936340 0.947815
0.926025 0.936340 0.947815
