Project 5 - Parkour/Graphics/LUTS Instagram/Clarendon.cube
#Created by: Adobe Photoshop Export Color Lookup Plugin
TITLE "Clarendon"
#LUT size
LUT_3D_SIZE 32
#data domain
DOMAIN_MIN 0.0 0.0 0.0
DOMAIN_MAX 1.0 1.0 1.0
#LUT data points
0.000000 0.000000 0.000000
0.016052 0.000000 0.000000
0.032501 0.000000 0.000000
0.049652 0.000000 0.000000
0.067871 0.000000 0.000000
0.087219 0.000000 0.000000
0.107605 0.000000 0.000000
0.128723 0.000000 0.000000
0.151520 0.000000 0.000000
0.179108 0.000000 0.000000
0.215027 0.000000 0.000000
0.262207 0.000000 0.000000
0.318970 0.000000 0.000000
0.380188 0.000000 0.000000
0.440491 0.000000 0.000000
0.496338 0.000000 0.000000
0.548370 0.000000 0.000000
0.597656 0.000000 0.000000
0.645203 0.000000 0.000000
0.690399 0.000000 0.000000
0.732086 0.000000 0.000000
0.768951 0.000000 0.000000
0.800568 0.000000 0.000000
0.827667 0.000000 0.000000
0.851257 0.000000 0.000000
0.872375 0.000000 0.000000
0.891602 0.000000 0.000000
0.909332 0.000000 0.000000
0.926025 0.000000 0.000000
0.942078 0.000000 0.000000
0.957703 0.000000 0.000000
0.973083 0.000000 0.000000
0.000000 0.026337 0.000000
0.016052 0.026337 0.000000
0.032501 0.026337 0.000000
0.049652 0.026337 0.000000
0.067871 0.026337 0.000000
0.087219 0.026337 0.000000
0.107605 0.026337 0.000000
0.128723 0.026337 0.000000
0.151520 0.026337 0.000000
0.179108 0.026337 0.000000
0.215027 0.026337 0.000000
0.262207 0.026337 0.000000
0.318970 0.026337 0.000000
0.380188 0.026337 0.000000
0.440491 0.026337 0.000000
0.496338 0.026337 0.000000
0.548370 0.026337 0.000000
0.597656 0.026337 0.000000
0.645203 0.026337 0.000000
0.690399 0.026337 0.000000
0.732086 0.026337 0.000000
0.768951 0.026337 0.000000
0.800568 0.026337 0.000000
0.827667 0.026337 0.000000
0.851257 0.026337 0.000000
0.872375 0.026337 0.000000
0.891602 0.026337 0.000000
0.909332 0.026337 0.000000
0.926025 0.026337 0.000000
0.942078 0.026337 0.000000
0.957703 0.026337 0.000000
0.973083 0.026337 0.000000
0.000000 0.051941 0.000000
0.016052 0.051941 0.000000
0.032501 0.051941 0.000000
0.049652 0.051941 0.000000
0.067871 0.051941 0.000000
0.087219 0.051941 0.000000
0.107605 0.051941 0.000000
0.128723 0.051941 0.000000
0.151520 0.051941 0.000000
0.179108 0.051941 0.000000
0.215027 0.051941 0.000000
0.262207 0.051941 0.000000
0.318970 0.051941 0.000000
0.380188 0.051941 0.000000
0.440491 0.051941 0.000000
0.496338 0.051941 0.000000
0.548370 0.051941 0.000000
0.597656 0.051941 0.000000
0.645203 0.051941 0.000000
0.690399 0.051941 0.000000
0.732086 0.051941 0.000000
0.768951 0.051941 0.000000
0.800568 0.051941 0.000000
0.827667 0.051941 0.000000
0.851257 0.051941 0.000000
0.872375 0.051941 0.000000
0.891602 0.051941 0.000000
0.909332 0.051941 0.000000
0.926025 0.051941 0.000000
0.942078 0.051941 0.000000
0.957703 0.051941 0.000000
0.973083 0.051941 0.000000
0.000000 0.076111 0.000000
0.016052 0.076111 0.000000
0.032501 0.076111 0.000000
0.049652 0.076111 0.000000
0.067871 0.076111 0.000000
0.087219 0.076111 0.000000
0.107605 0.076111 0.000000
0.128723 0.076111 0.000000
0.151520 0.076111 0.000000
0.179108 0.076111 0.000000
0.215027 0.076111 0.000000
0.262207 0.076111 0.000000
0.318970 0.076111 0.000000
0.380188 0.076111 0.000000
0.440491 0.076111 0.000000
0.496338 0.076111 0.000000
0.548370 0.076111 0.000000
0.597656 0.076111 0.000000
0.645203 0.076111 0.000000
0.690399 0.076111 0.000000
0.732086 0.076111 0.000000
0.768951 0.076111 0.000000
0.800568 0.076111 0.000000
0.827667 0.076111 0.000000
0.851257 0.076111 0.000000
0.872375 0.076111 0.000000
0.891602 0.076111 0.000000
0.909332 0.076111 0.000000
0.926025 0.076111 0.000000
0.942078 0.076111 0.000000
0.957703 0.076111 0.000000
0.973083 0.076111 0.000000
0.000000 0.098328 0.000000
0.016052 0.098328 0.000000
0.032501 0.098328 0.000000
0.049652 0.098328 0.000000
0.067871 0.098328 0.000000
0.087219 0.098328 0.000000
0.107605 0.098328 0.000000
0.128723 0.098328 0.000000
0.151520 0.098328 0.000000
0.179108 0.098328 0.000000
0.215027 0.098328 0.000000
0.262207 0.098328 0.000000
0.318970 0.098328 0.000000
0.380188 0.098328 0.000000
0.440491 0.098328 0.000000
0.496338 0.098328 0.000000
0.548370 0.098328 0.000000
0.597656 0.098328 0.000000
0.645203 0.098328 0.000000
0.690399 0.098328 0.000000
0.732086 0.098328 0.000000
0.768951 0.098328 0.000000
0.800568 0.098328 0.000000
0.827667 0.098328 0.000000
0.851257 0.098328 0.000000
0.872375 0.098328 0.000000
0.891602 0.098328 0.000000
0.909332 0.098328 0.000000
0.926025 0.098328 0.000000
0.942078 0.098328 0.000000
0.957703 0.098328 0.000000
0.973083 0.098328 0.000000
0.000000 0.120667 0.000000
0.016052 0.120667 0.000000
0.032501 0.120667 0.000000
0.049652 0.120667 0.000000
0.067871 0.120667 0.000000
0.087219 0.120667 0.000000
0.107605 0.120667 0.000000
0.128723 0.120667 0.000000
0.151520 0.120667 0.000000
0.179108 0.120667 0.000000
0.215027 0.120667 0.000000
0.262207 0.120667 0.000000
0.318970 0.120667 0.000000
0.380188 0.120667 0.000000
0.440491 0.120667 0.000000
0.496338 0.120667 0.000000
0.548370 0.120667 0.000000
0.597656 0.120667 0.000000
0.645203 0.120667 0.000000
0.690399 0.120667 0.000000
0.732086 0.120667 0.000000
0.768951 0.120667 0.000000
0.800568 0.120667 0.000000
0.827667 0.120667 0.000000
0.851257 0.120667 0.000000
0.872375 0.120667 0.000000
0.891602 0.120667 0.000000
0.909332 0.120667 0.000000
0.926025 0.120667 0.000000
0.942078 0.120667 0.000000
0.957703 0.120667 0.000000
0.973083 0.120667 0.000000
0.000000 0.147308 0.000000
0.016052 0.147308 0.000000
0.032501 0.147308 0.000000
0.049652 0.147308 0.000000
0.067871 0.147308 0.000000
0.087219 0.147308 0.000000
0.107605 0.147308 0.000000
0.128723 0.147308 0.000000
0.151520 0.147308 0.000000
0.179108 0.147308 0.000000
0.215027 0.147308 0.000000
0.262207 0.147308 0.000000
0.318970 0.147308 0.000000
0.380188 0.147308 0.000000
0.440491 0.147308 0.000000
0.496338 0.147308 0.000000
0.548370 0.147308 0.000000
0.597656 0.147308 0.000000
0.645203 0.147308 0.000000
0.690399 0.147308 0.000000
0.732086 0.147308 0.000000
0.768951 0.147308 0.000000
0.800568 0.147308 0.000000
0.827667 0.147308 0.000000
0.851257 0.147308 0.000000
0.872375 0.147308 0.000000
0.891602 0.147308 0.000000
0.909332 0.147308 0.000000
0.926025 0.147308 0.000000
0.942078 0.147308 0.000000
0.957703 0.147308 0.000000
0.973083 0.147308 0.000000
0.000000 0.182556 0.000000
0.016052 0.182556 0.000000
0.032501 0.182556 0.000000
0.049652 0.182556 0.000000
0.067871 0.182556 0.000000
0.087219 0.182556 0.000000
0.107605 0.182556 0.000000
0.128723 0.182556 0.000000
0.151520 0.182556 0.000000
0.179108 0.182556 0.000000
0.215027 0.182556 0.000000
0.262207 0.182556 0.000000
0.318970 0.182556 0.000000
0.380188 0.182556 0.000000
0.440491 0.182556 0.000000
0.496338 0.182556 0.000000
0.548370 0.182556 0.000000
0.597656 0.182556 0.000000
0.645203 0.182556 0.000000
0.690399 0.182556 0.000000
0.732086 0.182556 0.000000
0.768951 0.182556 0.000000
0.800568 0.182556 0.000000
0.827667 0.182556 0.000000
0.851257 0.182556 0.000000
0.872375 0.182556 0.000000
0.891602 0.182556 0.000000
0.909332 0.182556 0.000000
0.926025 0.182556 0.000000
0.942078 0.182556 0.000000
0.957703 0.182556 0.000000
0.973083 0.182556 0.000000
0.000000 0.228149 0.000000
0.016052 0.228149 0.000000
0.032501 0.228149 0.000000
0.049652 0.228149 0.000000
0.067871 0.228149 0.000000
0.087219 0.228149 0.000000
0.107605 0.228149 0.000000
0.128723 0.228149 0.000000
0.151520 0.228149 0.000000
0.179108 0.228149 0.000000
0.215027 0.228149 0.000000
0.262207 0.228149 0.000000
0.318970 0.228149 0.000000
0.380188 0.228149 0.000000
0.440491 0.228149 0.000000
0.496338 0.228149 0.000000
0.548370 0.228149 0.000000
0.597656 0.228149 0.000000
0.645203 0.228149 0.000000
0.690399 0.228149 0.000000
0.732086 0.228149 0.000000
0.768951 0.228149 0.000000
0.800568 0.228149 0.000000
0.827667 0.228149 0.000000
0.851257 0.228149 0.000000
0.872375 0.228149 0.000000
0.891602 0.228149 0.000000
0.909332 0.228149 0.000000
0.926025 0.228149 0.000000
0.942078 0.228149 0.000000
0.957703 0.228149 0.000000
0.973083 0.228149 0.000000
0.000000 0.280670 0.000000
0.016052 0.280670 0.000000
0.032501 0.280670 0.000000
0.049652 0.280670 0.000000
0.067871 0.280670 0.000000
0.087219 0.280670 0.000000
0.107605 0.280670 0.000000
0.128723 0.280670 0.000000
0.151520 0.280670 0.000000
0.179108 0.280670 0.000000
0.215027 0.280670 0.000000
0.262207 0.280670 0.000000
0.318970 0.280670 0.000000
0.380188 0.280670 0.000000
0.440491 0.280670 0.000000
0.496338 0.280670 0.000000
0.548370 0.280670 0.000000
0.597656 0.280670 0.000000
0.645203 0.280670 0.000000
0.690399 0.280670 0.000000
0.732086 0.280670 0.000000
0.768951 0.280670 0.000000
0.800568 0.280670 0.000000
0.827667 0.280670 0.000000
0.851257 0.280670 0.000000
0.872375 0.280670 0.000000
0.891602 0.280670 0.000000
0.909332 0.280670 0.000000
0.926025 0.280670 0.000000
0.942078 0.280670 0.000000
0.957703 0.280670 0.000000
0.973083 0.280670 0.000000
0.000000 0.335693 0.000000
0.016052 0.335693 0.000000
0.032501 0.335693 0.000000
0.049652 0.335693 0.000000
0.067871 0.335693 0.000000
0.087219 0.335693 0.000000
0.107605 0.335693 0.000000
0.128723 0.335693 0.000000
0.151520 0.335693 0.000000
0.179108 0.335693 0.000000
0.215027 0.335693 0.000000
0.262207 0.335693 0.000000
0.318970 0.335693 0.000000
0.380188 0.335693 0.000000
0.440491 0.335693 0.000000
0.496338 0.335693 0.000000
0.548370 0.335693 0.000000
0.597656 0.335693 0.000000
0.645203 0.335693 0.000000
0.690399 0.335693 0.000000
0.732086 0.335693 0.000000
0.768951 0.335693 0.000000
0.800568 0.335693 0.000000
0.827667 0.335693 0.000000
0.851257 0.335693 0.000000
0.872375 0.335693 0.000000
0.891602 0.335693 0.000000
0.909332 0.335693 0.000000
0.926025 0.335693 0.000000
0.942078 0.335693 0.000000
0.957703 0.335693 0.000000
0.973083 0.335693 0.000000
0.000000 0.388855 0.000000
0.016052 0.388855 0.000000
0.032501 0.388855 0.000000
0.049652 0.388855 0.000000
0.067871 0.388855 0.000000
0.087219 0.388855 0.000000
0.107605 0.388855 0.000000
0.128723 0.388855 0.000000
0.151520 0.388855 0.000000
0.179108 0.388855 0.000000
0.215027 0.388855 0.000000
0.262207 0.388855 0.000000
0.318970 0.388855 0.000000
0.380188 0.388855 0.000000
0.440491 0.388855 0.000000
0.496338 0.388855 0.000000
0.548370 0.388855 0.000000
0.597656 0.388855 0.000000
0.645203 0.388855 0.000000
0.690399 0.388855 0.000000
0.732086 0.388855 0.000000
0.768951 0.388855 0.000000
0.800568 0.388855 0.000000
0.827667 0.388855 0.000000
0.851257 0.388855 0.000000
0.872375 0.388855 0.000000
0.891602 0.388855 0.000000
0.909332 0.388855 0.000000
0.926025 0.388855 0.000000
0.942078 0.388855 0.000000
0.957703 0.388855 0.000000
0.973083 0.388855 0.000000
0.000000 0.438538 0.000000
0.016052 0.438538 0.000000
0.032501 0.438538 0.000000
0.049652 0.438538 0.000000
0.067871 0.438538 0.000000
0.087219 0.438538 0.000000
0.107605 0.438538 0.000000
0.128723 0.438538 0.000000
0.151520 0.438538 0.000000
0.179108 0.438538 0.000000
0.215027 0.438538 0.000000
0.262207 0.438538 0.000000
0.318970 0.438538 0.000000
0.380188 0.438538 0.000000
0.440491 0.438538 0.000000
0.496338 0.438538 0.000000
0.548370 0.438538 0.000000
0.597656 0.438538 0.000000
0.645203 0.438538 0.000000
0.690399 0.438538 0.000000
0.732086 0.438538 0.000000
0.768951 0.438538 0.000000
0.800568 0.438538 0.000000
0.827667 0.438538 0.000000
0.851257 0.438538 0.000000
0.872375 0.438538 0.000000
0.891602 0.438538 0.000000
0.909332 0.438538 0.000000
0.926025 0.438538 0.000000
0.942078 0.438538 0.000000
0.957703 0.438538 0.000000
0.973083 0.438538 0.000000
0.000000 0.485016 0.000000
0.016052 0.485016 0.000000
0.032501 0.485016 0.000000
0.049652 0.485016 0.000000
0.067871 0.485016 0.000000
0.087219 0.485016 0.000000
0.107605 0.485016 0.000000
0.128723 0.485016 0.000000
0.151520 0.485016 0.000000
0.179108 0.485016 0.000000
0.215027 0.485016 0.000000
0.262207 0.485016 0.000000
0.318970 0.485016 0.000000
0.380188 0.485016 0.000000
0.440491 0.485016 0.000000
0.496338 0.485016 0.000000
0.548370 0.485016 0.000000
0.597656 0.485016 0.000000
0.645203 0.485016 0.000000
0.690399 0.485016 0.000000
0.732086 0.485016 0.000000
0.768951 0.485016 0.000000
0.800568 0.485016 0.000000
0.827667 0.485016 0.000000
0.851257 0.485016 0.000000
0.872375 0.485016 0.000000
0.891602 0.485016 0.000000
0.909332 0.485016 0.000000
0.926025 0.485016 0.000000
0.942078 0.485016 0.000000
0.957703 0.485016 0.000000
0.973083 0.485016 0.000000
0.000000 0.528595 0.000000
0.016052 0.528595 0.000000
0.032501 0.528595 0.000000
0.049652 0.528595 0.000000
0.067871 0.528595 0.000000
0.087219 0.528595 0.000000
0.107605 0.528595 0.000000
0.128723 0.528595 0.000000
0.151520 0.528595 0.000000
0.179108 0.528595 0.000000
0.215027 0.528595 0.000000
0.262207 0.528595 0.000000
0.318970 0.528595 0.000000
0.380188 0.528595 0.000000
0.440491 0.528595 0.000000
0.496338 0.528595 0.000000
0.548370 0.528595 0.000000
0.597656 0.528595 0.000000
0.645203 0.528595 0.000000
0.690399 0.528595 0.000000
0.732086 0.528595 0.000000
0.768951 0.528595 0.000000
0.800568 0.528595 0.000000
0.827667 0.528595 0.000000
0.851257 0.528595 0.000000
0.872375 0.528595 0.000000
0.891602 0.528595 0.000000
0.909332 0.528595 0.000000
0.926025 0.528595 0.000000
0.942078 0.528595 0.000000
0.957703 0.528595 0.000000
0.973083 0.528595 0.000000
0.000000 0.569519 0.000000
0.016052 0.569519 0.000000
0.032501 0.569519 0.000000
0.049652 0.569519 0.000000
0.067871 0.569519 0.000000
0.087219 0.569519 0.000000
0.107605 0.569519 0.000000
0.128723 0.569519 0.000000
0.151520 0.569519 0.000000
0.179108 0.569519 0.000000
0.215027 0.569519 0.000000
0.262207 0.569519 0.000000
0.318970 0.569519 0.000000
0.380188 0.569519 0.000000
0.440491 0.569519 0.000000
0.496338 0.569519 0.000000
0.548370 0.569519 0.000000
0.597656 0.569519 0.000000
0.645203 0.569519 0.000000
0.690399 0.569519 0.000000
0.732086 0.569519 0.000000
0.768951 0.569519 0.000000
0.800568 0.569519 0.000000
0.827667 0.569519 0.000000
0.851257 0.569519 0.000000
0.872375 0.569519 0.000000
0.891602 0.569519 0.000000
0.909332 0.569519 0.000000
0.926025 0.569519 0.000000
0.942078 0.569519 0.000000
0.957703 0.569519 0.000000
0.973083 0.569519 0.000000
0.000000 0.608002 0.000000
0.016052 0.608002 0.000000
0.032501 0.608002 0.000000
0.049652 0.608002 0.000000
0.067871 0.608002 0.000000
0.087219 0.608002 0.000000
0.107605 0.608002 0.000000
0.128723 0.608002 0.000000
0.151520 0.608002 0.000000
0.179108 0.608002 0.000000
0.215027 0.608002 0.000000
0.262207 0.608002 0.000000
0.318970 0.608002 0.000000
0.380188 0.608002 0.000000
0.440491 0.608002 0.000000
0.496338 0.608002 0.000000
0.548370 0.608002 0.000000
0.597656 0.608002 0.000000
0.645203 0.608002 0.000000
0.690399 0.608002 0.000000
0.732086 0.608002 0.000000
0.768951 0.608002 0.000000
0.800568 0.608002 0.000000
0.827667 0.608002 0.000000
0.851257 0.608002 0.000000
0.872375 0.608002 0.000000
0.891602 0.608002 0.000000
0.909332 0.608002 0.000000
0.926025 0.608002 0.000000
0.942078 0.608002 0.000000
0.957703 0.608002 0.000000
0.973083 0.608002 0.000000
0.000000 0.644135 0.000000
0.016052 0.644135 0.000000
0.032501 0.644135 0.000000
0.049652 0.644135 0.000000
0.067871 0.644135 0.000000
0.087219 0.644135 0.000000
0.107605 0.644135 0.000000
0.128723 0.644135 0.000000
0.151520 0.644135 0.000000
0.179108 0.644135 0.000000
0.215027 0.644135 0.000000
0.262207 0.644135 0.000000
0.318970 0.644135 0.000000
0.380188 0.644135 0.000000
0.440491 0.644135 0.000000
0.496338 0.644135 0.000000
0.548370 0.644135 0.000000
0.597656 0.644135 0.000000
0.645203 0.644135 0.000000
0.690399 0.644135 0.000000
0.732086 0.644135 0.000000
0.768951 0.644135 0.000000
0.800568 0.644135 0.000000
0.827667 0.644135 0.000000
0.851257 0.644135 0.000000
0.872375 0.644135 0.000000
0.891602 0.644135 0.000000
0.909332 0.644135 0.000000
0.926025 0.644135 0.000000
0.942078 0.644135 0.000000
0.957703 0.644135 0.000000
0.973083 0.644135 0.000000
0.000000 0.678101 0.000000
0.016052 0.678101 0.000000
0.032501 0.678101 0.000000
0.049652 0.678101 0.000000
0.067871 0.678101 0.000000
0.087219 0.678101 0.000000
0.107605 0.678101 0.000000
0.128723 0.678101 0.000000
0.151520 0.678101 0.000000
0.179108 0.678101 0.000000
0.215027 0.678101 0.000000
0.262207 0.678101 0.000000
0.318970 0.678101 0.000000
0.380188 0.678101 0.000000
0.440491 0.678101 0.000000
0.496338 0.678101 0.000000
0.548370 0.678101 0.000000
0.597656 0.678101 0.000000
0.645203 0.678101 0.000000
0.690399 0.678101 0.000000
0.732086 0.678101 0.000000
0.768951 0.678101 0.000000
0.800568 0.678101 0.000000
0.827667 0.678101 0.000000
0.851257 0.678101 0.000000
0.872375 0.678101 0.000000
0.891602 0.678101 0.000000
0.909332 0.678101 0.000000
0.926025 0.678101 0.000000
0.942078 0.678101 0.000000
0.957703 0.678101 0.000000
0.973083 0.678101 0.000000
0.000000 0.710297 0.000000
0.016052 0.710297 0.000000
0.032501 0.710297 0.000000
0.049652 0.710297 0.000000
0.067871 0.710297 0.000000
0.087219 0.710297 0.000000
0.107605 0.710297 0.000000
0.128723 0.710297 0.000000
0.151520 0.710297 0.000000
0.179108 0.710297 0.000000
0.215027 0.710297 0.000000
0.262207 0.710297 0.000000
0.318970 0.710297 0.000000
0.380188 0.710297 0.000000
0.440491 0.710297 0.000000
0.496338 0.710297 0.000000
0.548370 0.710297 0.000000
0.597656 0.710297 0.000000
0.645203 0.710297 0.000000
0.690399 0.710297 0.000000
0.732086 0.710297 0.000000
0.768951 0.710297 0.000000
0.800568 0.710297 0.000000
0.827667 0.710297 0.000000
0.851257 0.710297 0.000000
0.872375 0.710297 0.000000
0.891602 0.710297 0.000000
0.909332 0.710297 0.000000
0.926025 0.710297 0.000000
0.942078 0.710297 0.000000
0.957703 0.710297 0.000000
0.973083 0.710297 0.000000
0.000000 0.741333 0.000000
0.016052 0.741333 0.000000
0.032501 0.741333 0.000000
0.049652 0.741333 0.000000
0.067871 0.741333 0.000000
0.087219 0.741333 0.000000
0.107605 0.741333 0.000000
0.128723 0.741333 0.000000
0.151520 0.741333 0.000000
0.179108 0.741333 0.000000
0.215027 0.741333 0.000000
0.262207 0.741333 0.000000
0.318970 0.741333 0.000000
0.380188 0.741333 0.000000
0.440491 0.741333 0.000000
0.496338 0.741333 0.000000
0.548370 0.741333 0.000000
0.597656 0.741333 0.000000
0.645203 0.741333 0.000000
0.690399 0.741333 0.000000
0.732086 0.741333 0.000000
0.768951 0.741333 0.000000
0.800568 0.741333 0.000000
0.827667 0.741333 0.000000
0.851257 0.741333 0.000000
0.872375 0.741333 0.000000
0.891602 0.741333 0.000000
0.909332 0.741333 0.000000
0.926025 0.741333 0.000000
0.942078 0.741333 0.000000
0.957703 0.741333 0.000000
0.973083 0.741333 0.000000
0.000000 0.771790 0.000000
0.016052 0.771790 0.000000
0.032501 0.771790 0.000000
0.049652 0.771790 0.000000
0.067871 0.771790 0.000000
0.087219 0.771790 0.000000
0.107605 0.771790 0.000000
0.128723 0.771790 0.000000
0.151520 0.771790 0.000000
0.179108 0.771790 0.000000
0.215027 0.771790 0.000000
0.262207 0.771790 0.000000
0.318970 0.771790 0.000000
0.380188 0.771790 0.000000
0.440491 0.771790 0.000000
0.496338 0.771790 0.000000
0.548370 0.771790 0.000000
0.597656 0.771790 0.000000
0.645203 0.771790 0.000000
0.690399 0.771790 0.000000
0.732086 0.771790 0.000000
0.768951 0.771790 0.000000
0.800568 0.771790 0.000000
0.827667 0.771790 0.000000
0.851257 0.771790 0.000000
0.872375 0.771790 0.000000
0.891602 0.771790 0.000000
0.909332 0.771790 0.000000
0.926025 0.771790 0.000000
0.942078 0.771790 0.000000
0.957703 0.771790 0.000000
0.973083 0.771790 0.000000
0.000000 0.801605 0.000000
0.016052 0.801605 0.000000
0.032501 0.801605 0.000000
0.049652 0.801605 0.000000
0.067871 0.801605 0.000000
0.087219 0.801605 0.000000
0.107605 0.801605 0.000000
0.128723 0.801605 0.000000
0.151520 0.801605 0.000000
0.179108 0.801605 0.000000
0.215027 0.801605 0.000000
0.262207 0.801605 0.000000
0.318970 0.801605 0.000000
0.380188 0.801605 0.000000
0.440491 0.801605 0.000000
0.496338 0.801605 0.000000
0.548370 0.801605 0.000000
0.597656 0.801605 0.000000
0.645203 0.801605 0.000000
0.690399 0.801605 0.000000
0.732086 0.801605 0.000000
0.768951 0.801605 0.000000
0.800568 0.801605 0.000000
0.827667 0.801605 0.000000
0.851257 0.801605 0.000000
0.872375 0.801605 0.000000
0.891602 0.801605 0.000000
0.909332 0.801605 0.000000
0.926025 0.801605 0.000000
0.942078 0.801605 0.000000
0.957703 0.801605 0.000000
0.973083 0.801605 0.000000
0.000000 0.829865 0.000000
0.016052 0.829865 0.000000
0.032501 0.829865 0.000000
0.049652 0.829865 0.000000
0.067871 0.829865 0.000000
0.087219 0.829865 0.000000
0.107605 0.829865 0.000000
0.128723 0.829865 0.000000
0.151520 0.829865 0.000000
0.179108 0.829865 0.000000
0.215027 0.829865 0.000000
0.262207 0.829865 0.000000
0.318970 0.829865 0.000000
0.380188 0.829865 0.000000
0.440491 0.829865 0.000000
0.496338 0.829865 0.000000
0.548370 0.829865 0.000000
0.597656 0.829865 0.000000
0.645203 0.829865 0.000000
0.690399 0.829865 0.000000
0.732086 0.829865 0.000000
0.768951 0.829865 0.000000
0.800568 0.829865 0.000000
0.827667 0.829865 0.000000
0.851257 0.829865 0.000000
0.872375 0.829865 0.000000
0.891602 0.829865 0.000000
0.909332 0.829865 0.000000
0.926025 0.829865 0.000000
0.942078 0.829865 0.000000
0.957703 0.829865 0.000000
0.973083 0.829865 0.000000
0.000000 0.855560 0.000000
0.016052 0.855560 0.000000
0.032501 0.855560 0.000000
0.049652 0.855560 0.000000
0.067871 0.855560 0.000000
0.087219 0.855560 0.000000
0.107605 0.855560 0.000000
0.128723 0.855560 0.000000
0.151520 0.855560 0.000000
0.179108 0.855560 0.000000
0.215027 0.855560 0.000000
0.262207 0.855560 0.000000
0.318970 0.855560 0.000000
0.380188 0.855560 0.000000
0.440491 0.855560 0.000000
0.496338 0.855560 0.000000
0.548370 0.855560 0.000000
0.597656 0.855560 0.000000
0.645203 0.855560 0.000000
0.690399 0.855560 0.000000
0.732086 0.855560 0.000000
0.768951 0.855560 0.000000
0.800568 0.855560 0.000000
0.827667 0.855560 0.000000
0.851257 0.855560 0.000000
0.872375 0.855560 0.000000
0.891602 0.855560 0.000000
0.909332 0.855560 0.000000
0.926025 0.855560 0.000000
0.942078 0.855560 0.000000
0.957703 0.855560 0.000000
0.973083 0.855560 0.000000
0.000000 0.877930 0.000000
0.016052 0.877930 0.000000
0.032501 0.877930 0.000000
0.049652 0.877930 0.000000
0.067871 0.877930 0.000000
0.087219 0.877930 0.000000
0.107605 0.877930 0.000000
0.128723 0.877930 0.000000
0.151520 0.877930 0.000000
0.179108 0.877930 0.000000
0.215027 0.877930 0.000000
0.262207 0.877930 0.000000
0.318970 0.877930 0.000000
0.380188 0.877930 0.000000
0.440491 0.877930 0.000000
0.496338 0.877930 0.000000
0.548370 0.877930 0.000000
0.597656 0.877930 0.000000
0.645203 0.877930 0.000000
0.690399 0.877930 0.000000
0.732086 0.877930 0.000000
0.768951 0.877930 0.000000
0.800568 0.877930 0.000000
0.827667 0.877930 0.000000
0.851257 0.877930 0.000000
0.872375 0.877930 0.000000
0.891602 0.877930 0.000000
0.909332 0.877930 0.000000
0.926025 0.877930 0.000000
0.942078 0.877930 0.000000
0.957703 0.877930 0.000000
0.973083 0.877930 0.000000
0.000000 0.897949 0.000000
0.016052 0.897949 0.000000
0.032501 0.897949 0.000000
0.049652 0.897949 0.000000
0.067871 0.897949 0.000000
0.087219 0.897949 0.000000
0.107605 0.897949 0.000000
0.128723 0.897949 0.000000
0.151520 0.897949 0.000000
0.179108 0.897949 0.000000
0.215027 0.897949 0.000000
0.262207 0.897949 0.000000
0.318970 0.897949 0.000000
0.380188 0.897949 0.000000
0.440491 0.897949 0.000000
0.496338 0.897949 0.000000
0.548370 0.897949 0.000000
0.597656 0.897949 0.000000
0.645203 0.897949 0.000000
0.690399 0.897949 0.000000
0.732086 0.897949 0.000000
0.768951 0.897949 0.000000
0.800568 0.897949 0.000000
0.827667 0.897949 0.000000
0.851257 0.897949 0.000000
0.872375 0.897949 0.000000
0.891602 0.897949 0.000000
0.909332 0.897949 0.000000
0.926025 0.897949 0.000000
0.942078 0.897949 0.000000
0.957703 0.897949 0.000000
0.973083 0.897949 0.000000
0.000000 0.916901 0.000000
0.016052 0.916901 0.000000
0.032501 0.916901 0.000000
0.049652 0.916901 0.000000
0.067871 0.916901 0.000000
0.087219 0.916901 0.000000
0.107605 0.916901 0.000000
0.128723 0.916901 0.000000
0.151520 0.916901 0.000000
0.179108 0.916901 0.000000
0.215027 0.916901 0.000000
0.262207 0.916901 0.000000
0.318970 0.916901 0.000000
0.380188 0.916901 0.000000
0.440491 0.916901 0.000000
0.496338 0.916901 0.000000
0.548370 0.916901 0.000000
0.597656 0.916901 0.000000
