Project 5 - Parkour/Graphics/LUTS Instagram/Crema.cube
#Created by: Adobe Photoshop Export Color Lookup Plugin
TITLE "Crema"
#LUT size
LUT_3D_SIZE 8
#data domain
#LUT data points
DOMAIN_MIN 0.000000 0.000000 0.000000
DOMAIN_MAX 0.903226 0.903226 0.903226
0.003906 0.024719 0.099030
0.132935 0.032196 0.106506
0.260437 0.040833 0.115173
0.382843 0.050018 0.124390
0.495972 0.059265 0.133636
0.596954 0.068054 0.142456
0.688202 0.076385 0.150787
0.772797 0.084473 0.158905
0.016602 0.136597 0.111755
0.147827 0.146271 0.121399
0.277283 0.156769 0.131897
0.401367 0.167542 0.142670
0.515717 0.178040 0.153137
0.617645 0.187805 0.162903
0.709412 0.196869 0.171967
0.794373 0.205536 0.180634
0.032501 0.251617 0.127686
0.165558 0.263123 0.139099
0.296600 0.275146 0.151062
0.422028 0.287201 0.163025
0.537262 0.298615 0.174408
0.639648 0.309052 0.184753
0.731689 0.318634 0.194275
0.816742 0.327728 0.203278
0.050903 0.368805 0.146088
0.185333 0.381714 0.158844
0.317596 0.394928 0.171906
0.443909 0.407867 0.184631
0.559692 0.419891 0.196533
0.662292 0.430725 0.207214
0.754242 0.440521 0.216919
0.839111 0.449707 0.225983
0.070923 0.486725 0.166199
0.206390 0.500610 0.179901
0.339447 0.514465 0.193573
0.466309 0.527740 0.206726
0.582153 0.539948 0.218811
0.684631 0.550812 0.229553
0.776276 0.560455 0.239166
0.860748 0.569458 0.248047
0.091797 0.603333 0.187164
0.227936 0.617706 0.201385
0.361481 0.631775 0.215393
0.488403 0.645050 0.228607
0.604126 0.657074 0.240601
0.706177 0.667603 0.251068
0.797241 0.676849 0.260345
0.881073 0.685303 0.268799
0.113098 0.718018 0.208496
0.249481 0.732361 0.222900
0.383148 0.746246 0.236847
0.509857 0.759094 0.249817
0.625031 0.770538 0.261353
0.726288 0.780365 0.271301
0.816620 0.788971 0.280029
0.899628 0.796661 0.287842
0.134308 0.830231 0.229797
0.270630 0.844208 0.244019
0.404053 0.857483 0.257599
0.530151 0.869659 0.269958
0.644440 0.880219 0.280792
0.744812 0.889191 0.289948
0.834137 0.896942 0.297913
0.916229 0.903687 0.304840
0.005493 0.026306 0.178345
0.134888 0.034149 0.186218
0.262695 0.043060 0.195160
0.385406 0.052521 0.204681
0.498749 0.061981 0.214203
0.599823 0.070862 0.223145
0.691223 0.079376 0.231689
0.775848 0.087555 0.239868
0.018707 0.138733 0.191650
0.150269 0.148651 0.201599
0.279968 0.159424 0.212402
0.404297 0.170441 0.223389
0.518860 0.181091 0.234070
0.620758 0.190887 0.243896
0.712646 0.200104 0.253143
0.797577 0.208801 0.261871
0.035126 0.254211 0.208069
0.168365 0.265961 0.219757
0.299561 0.278137 0.231934
0.425201 0.290314 0.244080
0.540527 0.301849 0.255585
0.642975 0.312378 0.266052
0.735016 0.321991 0.275665
0.820007 0.331085 0.284698
0.053802 0.371826 0.226929
0.188446 0.384918 0.239899
0.320831 0.398193 0.253052
0.447266 0.411163 0.265930
0.563019 0.423248 0.277924
0.665649 0.434113 0.288696
0.757599 0.443909 0.298431
0.842377 0.453064 0.307526
0.074066 0.489899 0.247314
0.209625 0.503845 0.261139
0.342865 0.517822 0.274994
0.469727 0.531158 0.288239
0.585602 0.543365 0.300354
0.687988 0.554169 0.311096
0.779602 0.563873 0.320770
0.863922 0.572693 0.329590
0.095123 0.606659 0.268494
0.231293 0.621094 0.282837
0.364868 0.635132 0.296906
0.491821 0.648438 0.310211
0.607452 0.660370 0.322144
0.709351 0.670807 0.332611
0.800354 0.680054 0.341888
0.884094 0.688385 0.350311
0.116455 0.721405 0.290039
0.252808 0.735687 0.304443
0.386475 0.749542 0.318420
0.513092 0.762329 0.331390
0.628204 0.773651 0.342957
0.729370 0.783417 0.352875
0.819458 0.791870 0.361481
0.902435 0.799438 0.369232
0.137634 0.833496 0.311340
0.273895 0.847443 0.325623
0.407227 0.860626 0.339111
0.533234 0.872620 0.351440
0.647430 0.883118 0.362244
0.747589 0.891937 0.371307
0.836670 0.899475 0.379089
0.918640 0.906097 0.385925
0.007233 0.028015 0.258179
0.136932 0.036163 0.266388
0.265015 0.045349 0.275665
0.388000 0.055084 0.285461
0.501495 0.064728 0.295227
0.602814 0.073822 0.304413
0.694214 0.082397 0.313049
0.778961 0.090668 0.321442
0.020935 0.140991 0.272003
0.152771 0.151184 0.282318
0.282684 0.162140 0.293335
0.407227 0.173340 0.304596
0.521912 0.184113 0.315460
0.623962 0.194092 0.325531
0.715851 0.203308 0.334839
0.800842 0.212128 0.343719
0.037720 0.256866 0.288940
0.171234 0.268829 0.300903
0.302673 0.281219 0.313354
0.428406 0.293518 0.325653
0.543823 0.305145 0.337311
0.646271 0.315704 0.347870
0.738373 0.325409 0.357666
0.823334 0.334473 0.366699
0.056763 0.374817 0.308197
0.191559 0.388031 0.321381
0.324097 0.401489 0.334778
0.450623 0.414581 0.347809
0.566437 0.426636 0.359863
0.668976 0.437500 0.370697
0.760956 0.447357 0.380524
0.845673 0.456421 0.389587
0.077271 0.493134 0.328918
0.212921 0.507202 0.342926
0.346191 0.521179 0.356903
0.473114 0.534546 0.370239
0.589020 0.546783 0.382477
0.691345 0.557556 0.393250
0.782837 0.567169 0.402863
0.867126 0.575989 0.411682
0.098480 0.610016 0.350403
0.234619 0.624451 0.364807
0.368256 0.638550 0.378998
0.495178 0.651794 0.392273
0.610779 0.663696 0.404266
0.712585 0.674042 0.414734
0.803467 0.683167 0.423889
0.887085 0.691437 0.432251
0.119812 0.724762 0.372070
0.256226 0.739105 0.386566
0.389801 0.752838 0.400543
0.516418 0.765564 0.413483
0.631287 0.776764 0.424927
0.732330 0.786407 0.434753
0.822327 0.794708 0.443298
0.905151 0.802185 0.450897
0.140991 0.836823 0.393494
0.277191 0.850647 0.407715
0.410461 0.863739 0.421173
0.536285 0.875610 0.433411
0.650330 0.885925 0.444031
0.750305 0.894592 0.453003
0.839203 0.902008 0.460602
0.920990 0.908478 0.467316
0.009003 0.029785 0.338593
0.139069 0.038269 0.347229
0.267426 0.047791 0.356842
0.390686 0.057739 0.366974
0.504333 0.067535 0.376862
0.605774 0.076752 0.386261
0.697296 0.085449 0.395111
0.782043 0.093811 0.403564
0.023224 0.143280 0.353058
0.155304 0.153748 0.363708
0.285522 0.164948 0.375031
0.410278 0.176331 0.386536
0.525024 0.187225 0.397552
0.627167 0.197266 0.407715
0.719147 0.206604 0.417175
0.804108 0.215424 0.426086
0.040436 0.259613 0.370514
0.174133 0.271729 0.382721
0.305756 0.284271 0.395386
0.431610 0.296722 0.407898
0.547150 0.308441 0.419678
0.649689 0.319061 0.430359
0.741699 0.328766 0.440063
0.826660 0.337921 0.449219
0.059784 0.377869 0.390167
0.194702 0.391235 0.403564
0.327423 0.404785 0.417114
0.453949 0.417877 0.430206
0.569855 0.430084 0.442383
0.672424 0.440948 0.453278
0.764282 0.450745 0.463043
0.848969 0.459839 0.472168
0.080444 0.496399 0.411194
0.216278 0.510559 0.425354
0.349640 0.524628 0.439392
0.476563 0.538025 0.452789
0.592377 0.550140 0.464966
0.694641 0.560913 0.475708
0.786072 0.570465 0.485321
0.870270 0.579224 0.494080
0.101776 0.613373 0.432800
0.238037 0.627869 0.447357
0.371704 0.641937 0.461517
0.498566 0.655151 0.474823
0.614044 0.666962 0.486725
0.715759 0.677246 0.497101
0.806488 0.686279 0.506226
0.890015 0.694427 0.514465
0.123169 0.728088 0.454559
0.259552 0.742401 0.469086
0.393158 0.756104 0.483002
0.519623 0.768677 0.495880
0.634430 0.779846 0.507263
0.735321 0.789337 0.516937
0.825165 0.797577 0.525330
0.907806 0.804871 0.532837
0.144287 0.840088 0.475983
0.280457 0.853821 0.490143
0.413635 0.866821 0.503510
0.539337 0.878540 0.515564
0.653168 0.888702 0.526093
0.752930 0.897217 0.534851
0.841675 0.904449 0.542328
0.923279 0.910706 0.548798
0.010895 0.031677 0.419891
0.141266 0.040466 0.428833
0.269928 0.050262 0.438751
0.393402 0.060425 0.449097
0.507294 0.070374 0.459259
0.608856 0.079773 0.468781
0.700409 0.088562 0.477722
0.785278 0.097015 0.486328
0.025635 0.145630 0.434875
0.157928 0.156372 0.445770
0.288391 0.167786 0.457336
0.413300 0.179321 0.469025
0.528229 0.190369 0.480194
0.630463 0.200531 0.490479
0.722412 0.209900 0.500000
0.807434 0.218811 0.508972
0.043182 0.262390 0.452728
0.177094 0.274719 0.465149
0.308899 0.287445 0.477997
0.434906 0.299988 0.490631
0.550507 0.311768 0.502533
0.653015 0.322418 0.513184
0.745087 0.332214 0.523010
0.830017 0.341309 0.532135
0.062805 0.380920 0.472717
0.197906 0.394470 0.486267
0.330719 0.408112 0.499878
0.457397 0.421295 0.513123
0.573303 0.433533 0.525299
0.675781 0.444336 0.536133
0.767639 0.454193 0.545959
0.852264 0.463196 0.554962
0.083740 0.499695 0.493988
0.219604 0.513947 0.508209
0.352997 0.527985 0.522247
0.479950 0.541382 0.535675
0.595795 0.553589 0.547882
0.697998 0.564301 0.558563
0.789307 0.573761 0.568054
0.873444 0.582520 0.576752
0.105133 0.616791 0.515717
0.241425 0.631256 0.530243
0.375122 0.645386 0.544403
0.501923 0.658478 0.557617
0.617340 0.670227 0.569458
0.718933 0.680450 0.579742
0.809570 0.689423 0.588745
0.892914 0.697418 0.596802
0.126556 0.731476 0.537476
0.262939 0.745758 0.551941
0.396484 0.759369 0.565796
0.522858 0.771912 0.578522
0.637512 0.782867 0.589691
0.738251 0.792236 0.599243
0.827911 0.800323 0.607513
0.910400 0.807495 0.614807
0.147614 0.843384 0.558807
0.283722 0.857056 0.572845
0.416748 0.869843 0.586029
0.542328 0.881470 0.597961
0.655975 0.891418 0.608185
0.755585 0.899811 0.616791
0.844086 0.906860 0.624054
0.925537 0.912994 0.630371
0.012848 0.033661 0.501678
0.143524 0.042755 0.510895
0.272491 0.052765 0.521118
0.396149 0.063141 0.531647
0.510254 0.073334 0.541992
0.611938 0.082825 0.551636
0.703644 0.091736 0.560699
0.788483 0.100250 0.569336
0.028046 0.148071 0.517120
0.160645 0.159058 0.528290
0.291290 0.170715 0.540039
0.416382 0.182373 0.551849
0.531464 0.193573 0.563171
0.633759 0.203796 0.573517
0.725769 0.213257 0.583069
0.810791 0.222198 0.592102
0.045990 0.265228 0.535370
0.180115 0.277740 0.548004
0.312134 0.290649 0.560974
0.438232 0.303284 0.573639
0.553864 0.315125 0.585571
0.656433 0.325867 0.596313
0.748474 0.335632 0.606049
0.833344 0.344757 0.615204
0.065918 0.384064 0.555634
0.201172 0.397766 0.569275
0.334106 0.411499 0.583008
0.460815 0.424774 0.596222
0.576691 0.436920 0.608368
0.679199 0.447815 0.619171
0.770996 0.457581 0.628906
0.855560 0.466614 0.637878
0.087006 0.503021 0.577026
0.222931 0.517334 0.591278
0.356445 0.531464 0.605347
0.483398 0.544830 0.618713
0.599182 0.557007 0.630798
0.701355 0.567657 0.641418
0.792542 0.577087 0.650818
0.876587 0.585724 0.659424
0.108551 0.620209 0.598816
0.244843 0.634705 0.613312
0.378510 0.648743 0.627380
0.505310 0.661835 0.640472
0.620636 0.673523 0.652161
0.722107 0.683594 0.662292
0.812531 0.692413 0.671112
0.895844 0.700348 0.679108
0.129974 0.734894 0.620514
0.266327 0.749115 0.634857
0.399811 0.762665 0.648560
0.526093 0.775024 0.661133
0.640594 0.785889 0.672119
0.741180 0.795135 0.681488
0.830688 0.803070 0.689545
0.912994 0.810089 0.696655
0.150940 0.846649 0.641663
0.286926 0.860199 0.655518
0.419891 0.872894 0.668488
0.545319 0.884338 0.680176
0.658752 0.894165 0.690247
0.758148 0.902344 0.698578
0.846466 0.909210 0.705627
0.927734 0.915161 0.711670
0.014893 0.035706 0.583710
0.145844 0.045074 0.593201
0.275116 0.055359 0.603668
0.399017 0.065979 0.614380
0.513275 0.076324 0.624878
0.615082 0.085968 0.634583
0.706818 0.094910 0.643646
0.791718 0.103546 0.652344
0.030548 0.150604 0.599609
0.163391 0.161804 0.610962
0.294250 0.173645 0.622894
0.419556 0.185486 0.634796
0.534729 0.196777 0.646179
0.637085 0.207092 0.656586
0.729126 0.216614 0.666107
0.814148 0.225586 0.675110
0.048859 0.268097 0.618164
0.183197 0.280853 0.630890
0.315338 0.293854 0.643951
0.441589 0.306610 0.656708
0.557281 0.318512 0.668579
0.659882 0.329285 0.679321
0.751862 0.339050 0.689026
0.836731 0.348175 0.698059
0.069061 0.387268 0.638580
0.204437 0.401062 0.652283
0.337494 0.414917 0.666016
0.464294 0.428192 0.679230
0.580170 0.440399 0.691284
0.682617 0.451233 0.702026
0.774353 0.460999 0.711670
0.858826 0.469971 0.720490
0.090302 0.506378 0.660034
0.226379 0.520752 0.674286
0.359894 0.534912 0.688293
0.486847 0.548279 0.701569
0.602600 0.560394 0.713531
0.704651 0.570984 0.723999
0.795776 0.580383 0.733246
0.879669 0.588898 0.741699
0.111938 0.623627 0.681793
0.248291 0.638153 0.696198
0.381927 0.652130 0.710144
0.508667 0.665192 0.723114
0.623840 0.676727 0.734589
0.725250 0.686737 0.744507
0.815552 0.695465 0.753174
0.898682 0.703308 0.760956
0.133362 0.738281 0.703339
0.269684 0.752441 0.717560
0.403137 0.765900 0.731049
0.529266 0.778137 0.743347
0.643616 0.788849 0.754120
0.744019 0.797943 0.763275
0.833313 0.805786 0.771118
0.915527 0.812653 0.777985
0.154236 0.849884 0.724274
0.290192 0.863373 0.737915
0.422974 0.875885 0.750610
0.548248 0.887177 0.762024
0.661469 0.896820 0.771790
0.760681 0.904816 0.779907
0.848816 0.911530 0.786682
0.929840 0.917297 0.792511
0.017029 0.037811 0.665649
0.148315 0.047516 0.675415
0.277802 0.058014 0.685974
0.401947 0.068878 0.696899
0.516388 0.079315 0.707428
0.618256 0.089081 0.717224
0.710052 0.098175 0.726318
0.794983 0.106812 0.734955
0.033142 0.153198 0.681915
0.166260 0.164673 0.693420
0.297272 0.176666 0.705444
0.422760 0.188660 0.717438
0.538025 0.200043 0.728851
0.640442 0.210480 0.739197
0.732452 0.219971 0.748688
0.817505 0.229034 0.757629
0.051819 0.271088 0.700684
0.186310 0.283936 0.713501
0.318604 0.297119 0.726593
0.444946 0.309967 0.739349
0.560730 0.321960 0.751190
0.663269 0.332733 0.761810
0.755310 0.342529 0.771454
0.840088 0.351624 0.780396
0.072235 0.390503 0.721222
0.207733 0.404388 0.734924
0.340881 0.418335 0.748627
0.467773 0.431641 0.761719
0.583618 0.443878 0.773682
0.686005 0.454681 0.784302
0.777679 0.464417 0.793823
0.862061 0.473328 0.802521
0.093689 0.509827 0.742676
0.229767 0.524200 0.756836
0.363373 0.538391 0.770721
0.490326 0.551758 0.783844
0.605957 0.563812 0.795624
0.707947 0.574341 0.805939
0.798950 0.583618 0.815033
0.882751 0.592102 0.823334
0.115326 0.627106 0.764252
0.251678 0.641571 0.778534
0.385345 0.655548 0.792297
0.512024 0.668488 0.805054
0.627136 0.679993 0.816406
0.728333 0.689880 0.826080
0.818542 0.698486 0.834564
0.901489 0.706146 0.842133
0.136749 0.741699 0.785583
0.273041 0.755768 0.799591
0.406403 0.769104 0.812866
0.532410 0.781250 0.824951
0.646606 0.791809 0.835449
0.746826 0.800751 0.844391
0.835968 0.808411 0.851990
0.917969 0.815125 0.858673
0.157532 0.853149 0.806183
0.293365 0.866486 0.819580
0.426086 0.878906 0.832062
0.551117 0.889954 0.843170
0.664154 0.899414 0.852661
0.763123 0.907227 0.860504
0.851044 0.913757 0.867004
0.931885 0.919342 0.872620
