Project 5 - Parkour/Graphics/LUTS Instagram/Crema.cube
#Created by: Adobe Photoshop Export Color Lookup Plugin
TITLE "Crema"
#LUT size
LUT_3D_SIZE 5
#data domain
#LUT data points
DOMAIN_MIN 0.000000 0.000000 0.000000
DOMAIN_MAX 0.903226 0.903226 0.903226
0.003906 0.024719 0.099030
0.228882 0.038544 0.112885
0.440918 0.054718 0.129059
0.620575 0.070190 0.144592
0.772797 0.084473 0.158905
0.028259 0.222626 0.123444
0.259308 0.242462 0.143188
0.475800 0.262848 0.163483
0.657867 0.281097 0.181610
0.811066 0.297119 0.197540
0.060730 0.427826 0.156006
0.295715 0.451477 0.179352
0.514648 0.474243 0.201813
0.697327 0.493591 0.220947
0.850037 0.509949 0.237122
0.097137 0.632233 0.192474
0.333984 0.657166 0.217316
0.553345 0.680023 0.240112
0.734924 0.698517 0.258636
0.885895 0.713531 0.273682
0.134308 0.830231 0.229797
0.371155 0.854248 0.254242
0.589081 0.875153 0.275604
0.768036 0.891235 0.292084
0.916229 0.903687 0.304840
0.006775 0.027588 0.238159
0.232788 0.042480 0.253113
0.445557 0.059296 0.270111
0.625702 0.075256 0.286224
0.778168 0.089844 0.300964
0.032654 0.227081 0.264252
0.264404 0.247559 0.284760
0.481354 0.268372 0.305664
0.663635 0.286865 0.324188
0.816864 0.303009 0.340424
0.066132 0.433258 0.298004
0.301483 0.457306 0.321899
0.520599 0.480225 0.344727
0.703247 0.499542 0.364014
0.855713 0.515808 0.380249
0.102936 0.638062 0.335266
0.339935 0.663116 0.360382
0.559174 0.685822 0.383270
0.740417 0.704071 0.401672
0.891052 0.718781 0.416595
0.140106 0.835968 0.372894
0.376862 0.859772 0.397369
0.594330 0.880249 0.418427
0.772766 0.895874 0.434570
0.920410 0.907867 0.446930
0.009949 0.030762 0.379150
0.236877 0.046509 0.395203
0.450439 0.064087 0.413055
0.631012 0.080505 0.429749
0.783661 0.095398 0.444855
0.037201 0.231628 0.406891
0.269623 0.252747 0.428223
0.487091 0.274017 0.449707
0.669495 0.292725 0.468506
0.822723 0.308990 0.484894
0.071564 0.438812 0.441803
0.307312 0.463165 0.466187
0.526611 0.486237 0.489258
0.709106 0.505524 0.508514
0.861359 0.521637 0.524628
0.108826 0.643982 0.479675
0.345917 0.669037 0.504913
0.564972 0.691559 0.527649
0.745880 0.709564 0.545807
0.896057 0.723938 0.560333
0.145935 0.841705 0.517365
0.382446 0.865173 0.541504
0.599457 0.885254 0.562164
0.777283 0.900421 0.577789
0.924408 0.911865 0.589600
0.013306 0.034149 0.522125
0.241272 0.050873 0.539124
0.455475 0.069061 0.557587
0.636444 0.085876 0.574677
0.789246 0.101013 0.590057
0.041992 0.236420 0.551270
0.275055 0.258148 0.573151
0.492859 0.279755 0.594910
0.675446 0.298645 0.613892
0.828613 0.314972 0.630188
0.077209 0.444519 0.587006
0.313232 0.469116 0.611511
0.532593 0.492249 0.634491
0.714996 0.511444 0.653595
0.867035 0.527435 0.669464
0.114716 0.649994 0.625000
0.351868 0.674988 0.650085
0.570709 0.697235 0.672394
0.751251 0.714935 0.690125
0.901001 0.728943 0.704163
0.151733 0.847443 0.662323
0.387970 0.870575 0.685944
0.604492 0.890137 0.705902
0.781708 0.904785 0.720825
0.928253 0.915710 0.731934
0.017029 0.037811 0.665649
0.245758 0.055359 0.683319
0.460663 0.074188 0.702271
0.641998 0.091370 0.719513
0.794983 0.106812 0.734955
0.046936 0.241425 0.695801
0.280548 0.263672 0.717957
0.498779 0.285675 0.739807
0.681427 0.304657 0.758606
0.834473 0.321014 0.774719
0.082886 0.450348 0.731873
0.319214 0.475159 0.756287
0.538666 0.498291 0.778961
0.720856 0.517426 0.797699
0.872620 0.533203 0.813110
0.120728 0.656036 0.769653
0.357819 0.680908 0.794220
0.576416 0.702911 0.815948
0.756531 0.720245 0.833038
0.905853 0.733887 0.846497
0.157532 0.853149 0.806183
0.393402 0.875885 0.829010
0.609375 0.894928 0.848114
0.785980 0.908966 0.862244
0.931885 0.919342 0.872620
