Project 5 - Parkour/Graphics/LUTS Instagram/Crema.cube
#Created by: Adobe Photoshop Export Color Lookup Plugin
TITLE "Crema"
#LUT size
LUT_3D_SIZE 32
#data domain
DOMAIN_MIN 0.0 0.0 0.0
DOMAIN_MAX 1.0 1.0 1.0
#LUT data points
0.003906 0.024719 0.099030
0.036133 0.026459 0.100769
0.068420 0.028259 0.102570
0.100677 0.030182 0.104523
0.132935 0.032196 0.106506
0.165100 0.034271 0.108582
0.197083 0.036377 0.110718
0.228882 0.038544 0.112885
0.260437 0.040833 0.115173
0.291626 0.043060 0.117401
0.322510 0.045380 0.119751
0.352936 0.047699 0.122070
0.382843 0.050018 0.124390
0.412201 0.052368 0.126740
0.440918 0.054718 0.129059
0.468842 0.057007 0.131378
0.495972 0.059265 0.133636
0.522278 0.061493 0.135895
0.547913 0.063690 0.138092
0.572784 0.065918 0.140320
0.596954 0.068054 0.142456
0.620575 0.070190 0.144592
0.643616 0.072296 0.146667
0.666168 0.074371 0.148743
0.688202 0.076385 0.150787
0.709839 0.078430 0.152832
0.731110 0.080444 0.154877
0.752045 0.082458 0.156891
0.772797 0.084473 0.158905
0.793274 0.086517 0.160919
0.813660 0.088501 0.162933
0.833954 0.090515 0.164978
0.006744 0.052307 0.101868
0.039093 0.054199 0.103729
0.071564 0.056213 0.105743
0.103973 0.058228 0.107758
0.136353 0.060394 0.109955
0.168610 0.062561 0.112091
0.200806 0.064850 0.114380
0.232697 0.067169 0.116699
0.264343 0.069519 0.119049
0.295715 0.071869 0.121460
0.326691 0.074310 0.123871
0.357208 0.076752 0.126282
0.387238 0.079193 0.128723
0.416656 0.081604 0.131165
0.445465 0.083984 0.133575
0.473511 0.086426 0.135986
0.500702 0.088776 0.138336
0.527100 0.091064 0.140656
0.552765 0.093323 0.142944
0.577698 0.095581 0.145142
0.601959 0.097809 0.147369
0.625641 0.100006 0.149567
0.648682 0.102112 0.151703
0.671265 0.104279 0.153870
0.693329 0.106323 0.155945
0.715057 0.108429 0.158020
0.736359 0.110504 0.160126
0.757355 0.112518 0.162170
0.778046 0.114594 0.164246
0.798584 0.116669 0.166290
0.819000 0.118683 0.168304
0.839233 0.120728 0.170349
0.009796 0.080200 0.104919
0.042328 0.082214 0.106964
0.074921 0.084381 0.109100
0.107483 0.086548 0.111267
0.139984 0.088837 0.113525
0.172363 0.091125 0.115845
0.204681 0.093536 0.118286
0.236725 0.095978 0.120697
0.268463 0.098450 0.123169
0.299957 0.100891 0.125702
0.331055 0.103424 0.128143
0.361694 0.105957 0.130707
0.391785 0.108490 0.133209
0.421326 0.111023 0.135742
0.450226 0.113495 0.138245
0.478302 0.115936 0.140717
0.505615 0.118408 0.143158
0.532043 0.120758 0.145508
0.557800 0.123138 0.147858
0.582794 0.125427 0.150177
0.607117 0.127686 0.152466
0.630737 0.129883 0.154663
0.653900 0.132111 0.156860
0.676483 0.134247 0.159027
0.698608 0.136444 0.161194
0.720337 0.138550 0.163330
0.741699 0.140686 0.165466
0.762695 0.142761 0.167542
0.783447 0.144836 0.169647
0.803925 0.146881 0.171692
0.824402 0.149017 0.173798
0.844666 0.151062 0.175873
0.013031 0.108276 0.108185
0.045746 0.110504 0.110413
0.078491 0.112732 0.112640
0.111176 0.115051 0.114990
0.143799 0.117432 0.117340
0.176361 0.119904 0.119843
0.208771 0.122406 0.122345
0.240936 0.124969 0.124908
0.272797 0.127502 0.127441
0.304382 0.130096 0.130035
0.335571 0.132721 0.132660
0.366302 0.135315 0.135254
0.396515 0.137939 0.137878
0.426086 0.140533 0.140472
0.455078 0.143127 0.143066
0.483215 0.145630 0.145569
0.510620 0.148163 0.148102
0.537140 0.150604 0.150513
0.562927 0.153015 0.152954
0.587921 0.155365 0.155273
0.612274 0.157654 0.157593
0.636017 0.159943 0.159882
0.659210 0.162231 0.162140
0.681824 0.164398 0.164337
0.704010 0.166626 0.166565
0.725739 0.168762 0.168732
0.747040 0.170898 0.170837
0.768127 0.173096 0.173004
0.788818 0.175140 0.175079
0.809387 0.177277 0.177216
0.829865 0.179413 0.179321
0.850159 0.181519 0.181427
0.016602 0.136597 0.111755
0.049408 0.138947 0.114044
0.082214 0.141266 0.116425
0.115082 0.143768 0.118896
0.147827 0.146271 0.121399
0.180481 0.148834 0.123993
0.213013 0.151428 0.126556
0.245270 0.154083 0.129181
0.277283 0.156769 0.131897
0.308929 0.159424 0.134583
0.340271 0.162170 0.137329
0.371094 0.164856 0.140015
0.401367 0.167542 0.142670
0.431061 0.170227 0.145355
0.460114 0.172913 0.148010
0.488373 0.175507 0.150604
0.515717 0.178040 0.153137
0.542328 0.180573 0.155640
0.568146 0.183014 0.158112
0.593231 0.185425 0.160522
0.617645 0.187805 0.162903
0.641418 0.190125 0.165222
0.664612 0.192413 0.167511
0.687225 0.194672 0.169769
0.709412 0.196869 0.171967
0.731110 0.199066 0.174133
0.752533 0.201263 0.176361
0.773560 0.203400 0.178467
0.794373 0.205536 0.180634
0.814911 0.207703 0.182800
0.835358 0.209778 0.184906
0.855682 0.212006 0.187073
0.020294 0.165100 0.115448
0.053223 0.167542 0.117889
0.086212 0.170074 0.120392
0.119141 0.172607 0.122955
0.152008 0.175232 0.125580
0.184814 0.177917 0.128235
0.217468 0.180695 0.130981
0.249817 0.183411 0.133728
0.281891 0.186157 0.136475
0.313690 0.188965 0.139282
0.345062 0.191772 0.142059
0.376007 0.194550 0.144836
0.406372 0.197296 0.147583
0.436157 0.200043 0.150330
0.465210 0.202759 0.153046
0.493530 0.205444 0.155731
0.521027 0.208038 0.158325
0.547607 0.210632 0.160889
0.573517 0.213165 0.163391
0.598633 0.215607 0.165863
0.623047 0.218018 0.168243
0.646820 0.220367 0.170624
0.670044 0.222687 0.172943
0.692688 0.224945 0.175201
0.714905 0.227234 0.177460
0.736694 0.229492 0.179718
0.758057 0.231689 0.181885
0.779144 0.233887 0.184082
0.799927 0.236023 0.186249
0.820435 0.238190 0.188385
0.840942 0.240387 0.190582
0.861267 0.242493 0.192688
0.024200 0.193787 0.119385
0.057251 0.196350 0.121918
0.090332 0.198944 0.124542
0.123413 0.201660 0.127228
0.156372 0.204407 0.129944
0.189270 0.207184 0.132721
0.221985 0.209991 0.135498
0.254456 0.212830 0.138367
0.286682 0.215729 0.141266
0.318573 0.218628 0.144135
0.350067 0.221466 0.146973
0.381042 0.224304 0.149811
0.411469 0.227173 0.152618
0.441315 0.229980 0.155457
0.470490 0.232788 0.158234
0.498810 0.235474 0.160950
0.526337 0.238190 0.163605
0.553009 0.240784 0.166199
0.578888 0.243317 0.168732
0.604095 0.245819 0.171265
0.628510 0.248291 0.173676
0.652313 0.250702 0.176086
0.675568 0.253052 0.178436
0.698273 0.255402 0.180756
0.720459 0.257660 0.183014
0.742279 0.259949 0.185303
0.763611 0.262177 0.187500
0.784668 0.264343 0.189667
0.805481 0.266571 0.191864
0.826080 0.268768 0.194061
0.846497 0.270905 0.196228
0.866852 0.273102 0.198395
0.028259 0.222626 0.123444
0.061432 0.225311 0.126129
0.094666 0.228088 0.128845
0.127808 0.230865 0.131622
0.160919 0.233704 0.134460
0.193878 0.236572 0.137360
0.226776 0.239532 0.140259
0.259308 0.242462 0.143188
0.291595 0.245392 0.146088
0.323547 0.248352 0.149048
0.355133 0.251312 0.151978
0.386169 0.254211 0.154877
0.416718 0.257172 0.157806
0.446564 0.259979 0.160645
0.475800 0.262848 0.163483
0.504181 0.265625 0.166229
0.531799 0.268372 0.168976
0.558472 0.271027 0.171631
0.584442 0.273621 0.174225
0.609589 0.276154 0.176727
0.634033 0.278625 0.179169
0.657867 0.281097 0.181610
0.681183 0.283508 0.184021
0.703857 0.285858 0.186340
0.726074 0.288147 0.188660
0.747864 0.290436 0.190918
0.769196 0.292664 0.193115
0.790314 0.294922 0.195404
0.811066 0.297119 0.197540
0.831635 0.299316 0.199768
0.852142 0.301544 0.201935
0.872467 0.303711 0.204102
0.032501 0.251617 0.127686
0.065796 0.254395 0.130463
0.099121 0.257294 0.133331
0.132385 0.260162 0.136200
0.165558 0.263123 0.139099
0.198639 0.266083 0.142090
0.231598 0.269135 0.145081
0.264252 0.272125 0.148041
0.296600 0.275146 0.151062
0.328644 0.278198 0.154083
0.360291 0.281219 0.157074
0.391418 0.284210 0.160065
0.422028 0.287201 0.163025
0.451965 0.290070 0.165924
0.481201 0.292999 0.168823
0.509644 0.295837 0.171631
0.537262 0.298615 0.174408
0.564026 0.301331 0.177094
0.589996 0.303955 0.179688
0.615143 0.306519 0.182220
0.639648 0.309052 0.184753
0.663483 0.311493 0.187195
0.686798 0.313934 0.189606
0.709473 0.316315 0.191956
0.731689 0.318634 0.194275
0.753448 0.320953 0.196533
0.774841 0.323212 0.198792
0.795929 0.325470 0.201050
0.816742 0.327728 0.203278
0.837280 0.329926 0.205444
0.857758 0.332123 0.207642
0.878082 0.334320 0.209808
0.036896 0.280762 0.132111
0.070282 0.283661 0.134979
0.103668 0.286591 0.137878
0.137054 0.289581 0.140900
0.170349 0.292633 0.143890
0.203522 0.295715 0.146912
0.236481 0.298737 0.149963
0.269257 0.301849 0.153046
0.301727 0.305023 0.156158
0.333862 0.308136 0.159241
0.365540 0.311218 0.162323
0.396759 0.314240 0.165344
0.427429 0.317322 0.168365
0.457397 0.320282 0.171326
0.486725 0.323242 0.174225
0.515137 0.326080 0.177063
0.542816 0.328888 0.179840
0.569550 0.331604 0.182556
0.595581 0.334320 0.185211
0.620758 0.336914 0.187805
0.645264 0.339447 0.190338
0.669128 0.341949 0.192780
0.692444 0.344421 0.195221
0.715118 0.346802 0.197601
0.737335 0.349182 0.199951
0.759094 0.351471 0.202209
0.780487 0.353760 0.204468
0.801514 0.356018 0.206696
0.822296 0.358246 0.208923
0.842865 0.360504 0.211151
0.863373 0.362701 0.213379
0.883667 0.364899 0.215515
0.041473 0.310059 0.136658
0.074951 0.313080 0.139648
0.108429 0.316101 0.142639
0.141907 0.319183 0.145691
0.175262 0.322296 0.148773
0.208496 0.325439 0.151917
0.241608 0.328583 0.155029
0.274384 0.331787 0.158173
0.306946 0.334991 0.161346
0.339142 0.338165 0.164490
0.370911 0.341278 0.167603
0.402161 0.344391 0.170654
0.432831 0.347443 0.173706
0.462891 0.350525 0.176758
0.492249 0.353516 0.179688
0.520752 0.356415 0.182587
0.548401 0.359253 0.185394
0.575195 0.362030 0.188110
0.601196 0.364716 0.190765
0.626434 0.367371 0.193420
0.650909 0.369934 0.195953
0.674774 0.372467 0.198456
0.698059 0.374939 0.200867
0.720795 0.377350 0.203247
0.743011 0.379700 0.205597
0.764740 0.382019 0.207886
0.786133 0.384308 0.210175
0.807129 0.386566 0.212402
0.827911 0.388824 0.214630
0.848511 0.391083 0.216858
0.868927 0.393280 0.219025
0.889282 0.395508 0.221222
0.046082 0.339386 0.141327
0.079651 0.342468 0.144379
0.113281 0.345642 0.147491
0.146790 0.348785 0.150604
0.180237 0.352020 0.153748
0.213593 0.355255 0.156982
0.246765 0.358490 0.160187
0.279633 0.361755 0.163391
0.312256 0.364960 0.166595
0.344513 0.368195 0.169800
0.376312 0.371368 0.172943
0.407623 0.374542 0.176056
0.438385 0.377686 0.179169
0.468414 0.380737 0.182190
0.497803 0.383759 0.185181
0.526337 0.386688 0.188080
0.554047 0.389587 0.190948
0.580811 0.392395 0.193695
0.606842 0.395142 0.196411
0.632111 0.397797 0.199036
0.656586 0.400360 0.201569
0.680420 0.402863 0.204041
0.703735 0.405365 0.206512
0.726440 0.407776 0.208893
0.748657 0.410156 0.211273
0.770386 0.412506 0.213593
0.791718 0.414795 0.215851
0.812775 0.417114 0.218140
0.833527 0.419342 0.220337
0.854034 0.421509 0.222504
0.874512 0.423737 0.224701
0.894775 0.425934 0.226898
0.050903 0.368805 0.146088
0.084534 0.372009 0.149231
0.118225 0.375275 0.152435
0.151794 0.378479 0.155640
0.185333 0.381714 0.158844
0.218750 0.385040 0.162109
0.251984 0.388367 0.165405
0.284943 0.391663 0.168671
0.317596 0.394928 0.171906
0.349915 0.398224 0.175140
0.381775 0.401459 0.178345
0.413147 0.404694 0.181519
0.443909 0.407867 0.184631
0.474030 0.410950 0.187714
0.503387 0.413971 0.190704
0.531952 0.416962 0.193665
0.559692 0.419891 0.196533
0.586487 0.422699 0.199280
0.612518 0.425446 0.202026
0.637756 0.428101 0.204620
0.662292 0.430725 0.207214
0.686096 0.433197 0.209686
0.709381 0.435669 0.212158
0.732025 0.438141 0.214539
0.754242 0.440521 0.216919
0.776001 0.442871 0.219238
0.797333 0.445160 0.221497
0.818359 0.447449 0.223755
0.839111 0.449707 0.225983
0.859558 0.451843 0.228149
0.880035 0.454071 0.230347
0.900299 0.456238 0.232483
0.055786 0.398315 0.151001
0.089508 0.401581 0.154236
0.123260 0.404846 0.157471
0.156921 0.408173 0.160736
0.190521 0.411499 0.164032
0.223969 0.414886 0.167358
0.257294 0.418243 0.170685
0.290314 0.421600 0.174011
0.323029 0.424957 0.177277
0.355377 0.428253 0.180573
0.387268 0.431549 0.183807
0.418671 0.434753 0.186981
0.449493 0.437958 0.190155
0.479614 0.441101 0.193237
0.509003 0.444153 0.196259
0.537567 0.447144 0.199219
0.565308 0.450104 0.202087
0.592163 0.452942 0.204895
0.618164 0.455658 0.207611
0.643372 0.458344 0.210236
0.667877 0.460907 0.212830
0.691742 0.463501 0.215332
0.715027 0.466003 0.217804
0.737640 0.468384 0.220184
0.759857 0.470795 0.222565
0.781555 0.473114 0.224854
0.802856 0.475372 0.227112
0.823883 0.477661 0.229370
0.844543 0.479858 0.231537
0.865082 0.482086 0.233734
0.885498 0.484314 0.235901
0.905762 0.486481 0.238098
0.060730 0.427826 0.156006
0.094513 0.431152 0.159271
0.128357 0.434509 0.162567
0.162079 0.437866 0.165924
0.195770 0.441284 0.169281
0.229309 0.444702 0.172668
0.262665 0.448120 0.176025
0.295715 0.451477 0.179352
0.328491 0.454895 0.182709
0.360870 0.458221 0.186005
0.392853 0.461548 0.189270
0.424255 0.464813 0.192505
0.455078 0.468018 0.195648
0.485229 0.471191 0.198792
0.514648 0.474243 0.201813
0.543243 0.477295 0.204803
0.570953 0.480194 0.207672
0.597778 0.483032 0.210510
0.623779 0.485779 0.213226
0.649048 0.488495 0.215881
0.673523 0.491089 0.218475
0.697327 0.493591 0.220947
0.720581 0.496094 0.223389
0.743225 0.498505 0.225769
0.765381 0.500885 0.228149
0.787079 0.503204 0.230438
0.808411 0.505524 0.232727
0.829346 0.507751 0.234924
0.850037 0.509949 0.237122
0.870514 0.512177 0.239319
0.890900 0.514343 0.241455
0.911163 0.516510 0.243591
0.065796 0.457275 0.161072
0.099670 0.460663 0.164398
0.133514 0.464081 0.167786
0.167328 0.467499 0.171173
0.201019 0.470947 0.174561
0.234619 0.474396 0.177979
0.268005 0.477875 0.181366
0.301147 0.481293 0.184753
0.333984 0.484711 0.188141
0.366394 0.488068 0.191437
0.398407 0.491425 0.194763
0.429840 0.494690 0.197998
0.460663 0.497925 0.201172
0.490845 0.501099 0.204315
0.520294 0.504211 0.207367
0.548859 0.507233 0.210388
0.576569 0.510162 0.213257
0.603363 0.512970 0.216064
0.629425 0.515747 0.218811
0.654633 0.518402 0.221436
0.679108 0.521057 0.224030
0.702911 0.523529 0.226501
0.726135 0.526031 0.228973
0.748749 0.528412 0.231354
0.770874 0.530792 0.233673
0.792542 0.533081 0.235962
0.813812 0.535339 0.238220
0.834747 0.537567 0.240417
0.855438 0.539795 0.242615
0.875854 0.541962 0.244751
0.896210 0.544128 0.246918
0.916443 0.546295 0.249054
0.070923 0.486725 0.166199
0.104828 0.490112 0.169586
0.138763 0.493591 0.173004
0.172607 0.497070 0.176422
0.206390 0.500610 0.179901
0.239990 0.504028 0.183319
0.273438 0.507538 0.186768
0.306610 0.510956 0.190155
0.339447 0.514465 0.193573
0.371948 0.517822 0.196930
0.403961 0.521210 0.200256
0.435425 0.524506 0.203522
0.466309 0.527740 0.206726
0.496460 0.530945 0.209869
0.525909 0.533997 0.212952
0.554504 0.537048 0.215942
0.582153 0.539948 0.218811
0.609009 0.542816 0.221619
0.634979 0.545532 0.224335
0.660217 0.548218 0.227020
0.684631 0.550812 0.229553
0.708435 0.553345 0.232056
0.731598 0.555786 0.234467
0.754242 0.558197 0.236847
0.776276 0.560455 0.239166
0.797913 0.562775 0.241425
0.819214 0.565033 0.243652
0.840088 0.567261 0.245850
0.860748 0.569458 0.248047
0.881134 0.571594 0.250183
0.901489 0.573700 0.252258
0.921661 0.575836 0.254364
0.076111 0.515991 0.171387
0.110077 0.519531 0.174866
0.144012 0.522980 0.178284
0.177948 0.526550 0.181793
0.211761 0.530029 0.185242
0.245422 0.533600 0.188751
0.278870 0.537079 0.192169
0.312103 0.540558 0.195618
0.345001 0.544037 0.199066
0.377502 0.547424 0.202423
0.409515 0.550812 0.205750
0.441010 0.554108 0.209015
0.471893 0.557373 0.212280
0.502014 0.560547 0.215393
0.531494 0.563660 0.218475
0.560028 0.566650 0.221436
0.587708 0.569550 0.224304
0.614502 0.572388 0.227142
0.640503 0.575104 0.229797
0.665710 0.577789 0.232483
0.690094 0.580353 0.234985
0.713867 0.582855 0.237488
0.737030 0.585297 0.239929
0.759583 0.587646 0.242279
0.781677 0.589996 0.244598
0.803284 0.592285 0.246857
0.824463 0.594482 0.249054
0.845337 0.596619 0.251190
0.865936 0.598785 0.253326
0.886353 0.600952 0.255493
0.906616 0.603027 0.257538
0.926849 0.605133 0.259644
0.081299 0.545258 0.176636
0.115356 0.548828 0.180115
0.149292 0.552277 0.183594
0.183289 0.555908 0.187134
0.217133 0.559418 0.190643
0.250824 0.562958 0.194122
0.284332 0.566498 0.197601
0.317566 0.569977 0.201050
0.350525 0.573456 0.204498
0.382996 0.576904 0.207886
0.415100 0.580292 0.211273
0.446564 0.583557 0.214539
0.477448 0.586823 0.217743
0.507599 0.589966 0.220886
0.537018 0.593079 0.223969
0.565582 0.596069 0.226929
0.593231 0.598969 0.229797
0.620026 0.601776 0.232574
0.645966 0.604492 0.235260
0.671112 0.607147 0.237915
0.695496 0.609650 0.240448
0.719269 0.612152 0.242889
0.742401 0.614594 0.245300
0.764923 0.616913 0.247650
0.786926 0.619202 0.249908
0.808502 0.621460 0.252136
0.829681 0.623657 0.254333
0.850494 0.625793 0.256470
0.871094 0.627930 0.258606
0.891479 0.630035 0.260681
0.911682 0.632080 0.262726
0.931854 0.634155 0.264801
0.086578 0.574371 0.181885
0.120605 0.577911 0.185394
0.154663 0.581512 0.188934
0.188629 0.585022 0.192444
0.222473 0.588593 0.195984
0.256256 0.592163 0.199493
0.289825 0.595734 0.203033
0.323090 0.599243 0.206543
0.355988 0.602692 0.209930
0.388519 0.606110 0.213348
0.420563 0.609467 0.216675
0.452087 0.612793 0.219971
0.482941 0.616028 0.223175
0.513092 0.619171 0.226349
0.542480 0.622253 0.229370
0.571045 0.625275 0.232361
0.598755 0.628174 0.235229
0.625458 0.630920 0.238007
0.651398 0.633636 0.240692
0.676483 0.636230 0.243256
0.700836 0.638733 0.245758
0.724579 0.641205 0.248230
0.747650 0.643585 0.250610
0.770142 0.645905 0.252930
0.792114 0.648163 0.255188
0.813660 0.650391 0.257385
0.834778 0.652527 0.259521
0.855591 0.654694 0.261658
0.876099 0.656738 0.263733
0.896454 0.658783 0.265778
0.916687 0.660858 0.267822
0.936768 0.662842 0.269836
0.091797 0.603333 0.187164
0.125946 0.606934 0.190735
0.160004 0.610535 0.194305
0.194000 0.614136 0.197845
0.227936 0.617706 0.201385
0.261688 0.621277 0.204926
0.295288 0.624817 0.208435
0.328522 0.628326 0.211945
0.361481 0.631775 0.215393
0.394012 0.635162 0.218781
0.426056 0.638550 0.222107
0.457550 0.641846 0.225372
0.488403 0.645050 0.228607
0.518555 0.648163 0.231720
0.547943 0.651245 0.234741
0.576477 0.654236 0.237762
0.604126 0.657074 0.240601
0.630798 0.659851 0.243317
0.656738 0.662506 0.246002
0.681793 0.665100 0.248566
0.706177 0.667603 0.251068
0.729797 0.669983 0.253448
0.752808 0.672363 0.255829
0.775269 0.674622 0.258118
0.797241 0.676849 0.260345
0.818695 0.679047 0.262543
0.839783 0.681152 0.264618
0.860565 0.683258 0.266754
0.881073 0.685303 0.268799
0.901337 0.687317 0.270813
0.921539 0.689331 0.272797
0.941589 0.691284 0.274811
0.097137 0.632233 0.192474
0.131226 0.635834 0.196075
0.165344 0.639374 0.199615
0.199371 0.642975 0.203186
0.233307 0.646606 0.206787
0.267090 0.650208 0.210388
0.300690 0.653656 0.213837
0.333984 0.657166 0.217316
0.366974 0.660706 0.220825
0.399445 0.664063 0.224182
0.431580 0.667419 0.227539
0.463013 0.670685 0.230804
0.493866 0.673889 0.233978
0.523956 0.677002 0.237091
0.553345 0.680023 0.240112
0.581848 0.682953 0.243042
0.609467 0.685791 0.245880
0.636139 0.688507 0.248596
0.661957 0.691132 0.251221
0.687012 0.693695 0.253815
0.711304 0.696136 0.256256
0.734924 0.698517 0.258636
0.757965 0.700836 0.260956
0.780334 0.703125 0.263245
0.802246 0.705322 0.265442
0.823669 0.707428 0.267548
0.844696 0.709503 0.269653
0.865387 0.711548 0.271698
0.885895 0.713531 0.273682
0.906158 0.715546 0.275726
0.926270 0.717468 0.277649
0.946289 0.719421 0.279602
0.102448 0.661011 0.197815
0.136566 0.664551 0.201385
0.170746 0.668213 0.205017
0.204742 0.671783 0.208557
0.238739 0.675385 0.212189
0.272522 0.678986 0.215729
0.306152 0.682495 0.219269
0.339386 0.685944 0.222748
0.372406 0.689423 0.226196
0.404877 0.692780 0.229553
0.436981 0.696136 0.232880
0.468445 0.699371 0.236145
0.499237 0.702545 0.239349
0.529358 0.705658 0.242432
0.558685 0.708618 0.245392
0.587158 0.711548 0.248352
0.614716 0.714294 0.251129
0.641357 0.717010 0.253845
0.667175 0.719604 0.256439
0.692200 0.722137 0.258972
0.716431 0.724548 0.261383
0.739990 0.726898 0.263763
0.762970 0.729187 0.266052
0.785278 0.731323 0.268219
0.807098 0.733459 0.270386
0.828522 0.735565 0.272491
0.849518 0.737640 0.274567
0.870209 0.739624 0.276581
0.890625 0.741608 0.278564
0.910797 0.743500 0.280548
0.930908 0.745392 0.282410
0.950867 0.747284 0.284302
0.107788 0.689575 0.203156
0.141968 0.693207 0.206787
0.176056 0.696777 0.210388
0.210144 0.700378 0.213989
0.244110 0.703979 0.217560
0.277924 0.707520 0.221100
0.311493 0.711029 0.224609
0.344788 0.714508 0.228119
0.377777 0.717926 0.231537
0.410309 0.721283 0.234894
0.442352 0.724609 0.238251
0.473785 0.727814 0.241455
0.504608 0.730927 0.244598
0.534637 0.733978 0.247681
0.563965 0.736938 0.250641
0.592377 0.739807 0.253510
0.619873 0.742523 0.256256
0.646484 0.745178 0.258942
0.672272 0.747711 0.261505
0.697235 0.750214 0.264008
0.721405 0.752563 0.266388
0.744904 0.754883 0.268738
0.767853 0.757111 0.270966
0.790131 0.759247 0.273132
0.811920 0.761383 0.275299
0.833282 0.763458 0.277374
0.854187 0.765381 0.279327
0.874817 0.767334 0.281311
0.895203 0.769226 0.283234
0.915344 0.771149 0.285156
0.935394 0.772949 0.287018
0.955292 0.774811 0.288879
0.113098 0.718018 0.208496
0.147247 0.721649 0.212158
0.181396 0.725220 0.215729
0.215515 0.728821 0.219330
0.249481 0.732361 0.222900
0.283295 0.735901 0.226471
0.316925 0.739410 0.230011
0.350159 0.742859 0.233429
0.383148 0.746246 0.236847
0.415649 0.749573 0.240204
0.447662 0.752838 0.243469
0.479034 0.755981 0.246643
0.509857 0.759094 0.249817
0.539856 0.762115 0.252838
0.569153 0.765045 0.255798
0.597534 0.767853 0.258606
0.625031 0.770538 0.261353
0.651520 0.773102 0.263977
0.677277 0.775665 0.266541
0.702179 0.778046 0.268982
0.726288 0.780365 0.271301
0.749756 0.782623 0.273590
0.772644 0.784821 0.275848
0.794830 0.786926 0.277954
0.816620 0.788971 0.280029
0.837891 0.790985 0.282074
0.858795 0.792908 0.283997
0.879333 0.794769 0.285950
0.899628 0.796661 0.287842
0.919739 0.798462 0.289673
0.939789 0.800323 0.291565
0.959625 0.802063 0.293304
0.118408 0.746307 0.213837
0.152588 0.749908 0.217468
0.186737 0.753448 0.221039
0.220825 0.757080 0.224670
0.254791 0.760590 0.228241
0.288605 0.764099 0.231781
0.322205 0.767548 0.235260
0.355499 0.770966 0.238708
0.388458 0.774353 0.242126
0.420929 0.777618 0.245422
0.452942 0.780884 0.248688
0.484283 0.783966 0.251862
0.515045 0.787048 0.255005
0.544983 0.790009 0.257935
0.574280 0.792877 0.260864
0.602570 0.795624 0.263672
0.630005 0.798279 0.266357
0.656525 0.800812 0.268951
0.682159 0.803284 0.271423
0.707031 0.805664 0.273834
0.731079 0.807922 0.276154
0.754486 0.810120 0.278381
0.777283 0.812256 0.280609
0.799469 0.814301 0.282654
0.821198 0.816345 0.284698
0.842407 0.818268 0.286682
0.863251 0.820129 0.288574
0.883759 0.821960 0.290436
0.903992 0.823792 0.292297
0.924042 0.825562 0.294098
0.943970 0.827271 0.295868
0.963806 0.828979 0.297638
0.123749 0.774445 0.219177
0.157959 0.778046 0.222809
0.192078 0.781586 0.226410
0.226166 0.785156 0.230011
0.260132 0.788666 0.233551
0.293915 0.792175 0.237061
0.327515 0.795563 0.240540
0.360809 0.798920 0.243958
0.393738 0.802277 0.247345
0.426178 0.805542 0.250641
0.458130 0.808716 0.253845
0.489471 0.811768 0.256989
0.520142 0.814789 0.260040
0.550079 0.817688 0.263000
0.579285 0.820526 0.265900
0.607574 0.823242 0.268616
0.634918 0.825836 0.271271
0.661377 0.828339 0.273804
0.686981 0.830750 0.276245
0.711792 0.833069 0.278625
0.735779 0.835297 0.280914
0.759125 0.837433 0.283081
0.781891 0.839539 0.285187
0.803986 0.841492 0.287262
0.825623 0.843414 0.289215
0.846771 0.845306 0.291138
0.867554 0.847137 0.292999
0.888031 0.848938 0.294800
0.908234 0.850677 0.296600
0.928223 0.852386 0.298370
0.948090 0.854034 0.300079
0.967834 0.855713 0.301819
0.129059 0.802460 0.224518
0.163208 0.805969 0.228119
0.197388 0.809540 0.231720
0.231415 0.813019 0.235260
0.265350 0.816498 0.238800
0.299133 0.819916 0.242279
0.332764 0.823364 0.245758
0.365997 0.826691 0.249146
0.398865 0.829956 0.252441
0.431335 0.833191 0.255768
0.463226 0.836304 0.258911
0.494537 0.839355 0.261993
0.525177 0.842285 0.265015
0.555115 0.845184 0.267975
0.584229 0.847931 0.270782
0.612457 0.850586 0.273468
0.639771 0.853149 0.276093
0.666138 0.855560 0.278564
