Project 5 - Parkour/Graphics/LUTS Instagram/Hefe.cube
#Created by: Adobe Photoshop Export Color Lookup Plugin
TITLE "Hefe"
#LUT size
LUT_3D_SIZE 5
#data domain
#LUT data points
DOMAIN_MIN 0.000000 0.000000 0.000000
DOMAIN_MAX 0.903226 0.903226 0.903226
0.000000 0.000000 0.000000
0.222900 0.000000 0.000000
0.510803 0.000000 0.000000
0.748718 0.000000 0.000000
0.929321 0.000000 0.000000
0.000000 0.173706 0.000000
0.222900 0.173706 0.000000
0.510803 0.173706 0.000000
0.748718 0.173706 0.000000
0.929321 0.173706 0.000000
0.000000 0.448517 0.000000
0.222900 0.448517 0.000000
0.510803 0.448517 0.000000
0.748718 0.448517 0.000000
0.929321 0.448517 0.000000
0.000000 0.706360 0.000000
0.222900 0.706360 0.000000
0.510803 0.706360 0.000000
0.748718 0.706360 0.000000
0.929321 0.706360 0.000000
0.000000 0.915924 0.000000
0.222900 0.915924 0.000000
0.510803 0.915924 0.000000
0.748718 0.915924 0.000000
0.929321 0.915924 0.000000
0.000000 0.000000 0.154663
0.222900 0.000000 0.154663
0.510803 0.000000 0.154663
0.748718 0.000000 0.154663
0.929321 0.000000 0.154663
0.000000 0.173706 0.154663
0.222900 0.173706 0.154663
0.510803 0.173706 0.154663
0.748718 0.173706 0.154663
0.929321 0.173706 0.154663
0.000000 0.448517 0.154663
0.222900 0.448517 0.154663
0.510803 0.448517 0.154663
0.748718 0.448517 0.154663
0.929321 0.448517 0.154663
0.000000 0.706360 0.154663
0.222900 0.706360 0.154663
0.510803 0.706360 0.154663
0.748718 0.706360 0.154663
0.929321 0.706360 0.154663
0.000000 0.915924 0.154663
0.222900 0.915924 0.154663
0.510803 0.915924 0.154663
0.748718 0.915924 0.154663
0.929321 0.915924 0.154663
0.000000 0.000000 0.397797
0.222900 0.000000 0.397797
0.510803 0.000000 0.397797
0.748718 0.000000 0.397797
0.929321 0.000000 0.397797
0.000000 0.173706 0.397797
0.222900 0.173706 0.397797
0.510803 0.173706 0.397797
0.748718 0.173706 0.397797
0.929321 0.173706 0.397797
0.000000 0.448517 0.397797
0.222900 0.448517 0.397797
0.510803 0.448517 0.397797
0.748718 0.448517 0.397797
0.929321 0.448517 0.397797
0.000000 0.706360 0.397797
0.222900 0.706360 0.397797
0.510803 0.706360 0.397797
0.748718 0.706360 0.397797
0.929321 0.706360 0.397797
0.000000 0.915924 0.397797
0.222900 0.915924 0.397797
0.510803 0.915924 0.397797
0.748718 0.915924 0.397797
0.929321 0.915924 0.397797
0.000000 0.000000 0.668182
0.222900 0.000000 0.668182
0.510803 0.000000 0.668182
0.748718 0.000000 0.668182
0.929321 0.000000 0.668182
0.000000 0.173706 0.668182
0.222900 0.173706 0.668182
0.510803 0.173706 0.668182
0.748718 0.173706 0.668182
0.929321 0.173706 0.668182
0.000000 0.448517 0.668182
0.222900 0.448517 0.668182
0.510803 0.448517 0.668182
0.748718 0.448517 0.668182
0.929321 0.448517 0.668182
0.000000 0.706360 0.668182
0.222900 0.706360 0.668182
0.510803 0.706360 0.668182
0.748718 0.706360 0.668182
0.929321 0.706360 0.668182
0.000000 0.915924 0.668182
0.222900 0.915924 0.668182
0.510803 0.915924 0.668182
0.748718 0.915924 0.668182
0.929321 0.915924 0.668182
0.000000 0.000000 0.881958
0.222900 0.000000 0.881958
0.510803 0.000000 0.881958
0.748718 0.000000 0.881958
0.929321 0.000000 0.881958
0.000000 0.173706 0.881958
0.222900 0.173706 0.881958
0.510803 0.173706 0.881958
0.748718 0.173706 0.881958
0.929321 0.173706 0.881958
0.000000 0.448517 0.881958
0.222900 0.448517 0.881958
0.510803 0.448517 0.881958
0.748718 0.448517 0.881958
0.929321 0.448517 0.881958
0.000000 0.706360 0.881958
0.222900 0.706360 0.881958
0.510803 0.706360 0.881958
0.748718 0.706360 0.881958
0.929321 0.706360 0.881958
0.000000 0.915924 0.881958
0.222900 0.915924 0.881958
0.510803 0.915924 0.881958
0.748718 0.915924 0.881958
0.929321 0.915924 0.881958
