Project 5 - Parkour/Graphics/LUTS Instagram/Hefe.cube
#Created by: Adobe Photoshop Export Color Lookup Plugin
TITLE "Hefe"
#LUT size
LUT_3D_SIZE 32
#data domain
DOMAIN_MIN 0.0 0.0 0.0
DOMAIN_MAX 1.0 1.0 1.0
#LUT data points
0.000000 0.000000 0.000000
0.029419 0.000000 0.000000
0.059174 0.000000 0.000000
0.089478 0.000000 0.000000
0.120697 0.000000 0.000000
0.153107 0.000000 0.000000
0.187073 0.000000 0.000000
0.222900 0.000000 0.000000
0.260956 0.000000 0.000000
0.301025 0.000000 0.000000
0.342590 0.000000 0.000000
0.384979 0.000000 0.000000
0.427551 0.000000 0.000000
0.469666 0.000000 0.000000
0.510803 0.000000 0.000000
0.550323 0.000000 0.000000
0.587799 0.000000 0.000000
0.623230 0.000000 0.000000
0.656891 0.000000 0.000000
0.688873 0.000000 0.000000
0.719482 0.000000 0.000000
0.748718 0.000000 0.000000
0.776886 0.000000 0.000000
0.804077 0.000000 0.000000
0.830353 0.000000 0.000000
0.855896 0.000000 0.000000
0.880829 0.000000 0.000000
0.905273 0.000000 0.000000
0.929321 0.000000 0.000000
0.953003 0.000000 0.000000
0.976593 0.000000 0.000000
1.000000 0.000000 0.000000
0.000000 0.022125 0.000000
0.029419 0.022125 0.000000
0.059174 0.022125 0.000000
0.089478 0.022125 0.000000
0.120697 0.022125 0.000000
0.153107 0.022125 0.000000
0.187073 0.022125 0.000000
0.222900 0.022125 0.000000
0.260956 0.022125 0.000000
0.301025 0.022125 0.000000
0.342590 0.022125 0.000000
0.384979 0.022125 0.000000
0.427551 0.022125 0.000000
0.469666 0.022125 0.000000
0.510803 0.022125 0.000000
0.550323 0.022125 0.000000
0.587799 0.022125 0.000000
0.623230 0.022125 0.000000
0.656891 0.022125 0.000000
0.688873 0.022125 0.000000
0.719482 0.022125 0.000000
0.748718 0.022125 0.000000
0.776886 0.022125 0.000000
0.804077 0.022125 0.000000
0.830353 0.022125 0.000000
0.855896 0.022125 0.000000
0.880829 0.022125 0.000000
0.905273 0.022125 0.000000
0.929321 0.022125 0.000000
0.953003 0.022125 0.000000
0.976593 0.022125 0.000000
1.000000 0.022125 0.000000
0.000000 0.044556 0.000000
0.029419 0.044556 0.000000
0.059174 0.044556 0.000000
0.089478 0.044556 0.000000
0.120697 0.044556 0.000000
0.153107 0.044556 0.000000
0.187073 0.044556 0.000000
0.222900 0.044556 0.000000
0.260956 0.044556 0.000000
0.301025 0.044556 0.000000
0.342590 0.044556 0.000000
0.384979 0.044556 0.000000
0.427551 0.044556 0.000000
0.469666 0.044556 0.000000
0.510803 0.044556 0.000000
0.550323 0.044556 0.000000
0.587799 0.044556 0.000000
0.623230 0.044556 0.000000
0.656891 0.044556 0.000000
0.688873 0.044556 0.000000
0.719482 0.044556 0.000000
0.748718 0.044556 0.000000
0.776886 0.044556 0.000000
0.804077 0.044556 0.000000
0.830353 0.044556 0.000000
0.855896 0.044556 0.000000
0.880829 0.044556 0.000000
0.905273 0.044556 0.000000
0.929321 0.044556 0.000000
0.953003 0.044556 0.000000
0.976593 0.044556 0.000000
1.000000 0.044556 0.000000
0.000000 0.067657 0.000000
0.029419 0.067657 0.000000
0.059174 0.067657 0.000000
0.089478 0.067657 0.000000
0.120697 0.067657 0.000000
0.153107 0.067657 0.000000
0.187073 0.067657 0.000000
0.222900 0.067657 0.000000
0.260956 0.067657 0.000000
0.301025 0.067657 0.000000
0.342590 0.067657 0.000000
0.384979 0.067657 0.000000
0.427551 0.067657 0.000000
0.469666 0.067657 0.000000
0.510803 0.067657 0.000000
0.550323 0.067657 0.000000
0.587799 0.067657 0.000000
0.623230 0.067657 0.000000
0.656891 0.067657 0.000000
0.688873 0.067657 0.000000
0.719482 0.067657 0.000000
0.748718 0.067657 0.000000
0.776886 0.067657 0.000000
0.804077 0.067657 0.000000
0.830353 0.067657 0.000000
0.855896 0.067657 0.000000
0.880829 0.067657 0.000000
0.905273 0.067657 0.000000
0.929321 0.067657 0.000000
0.953003 0.067657 0.000000
0.976593 0.067657 0.000000
1.000000 0.067657 0.000000
0.000000 0.091705 0.000000
0.029419 0.091705 0.000000
0.059174 0.091705 0.000000
0.089478 0.091705 0.000000
0.120697 0.091705 0.000000
0.153107 0.091705 0.000000
0.187073 0.091705 0.000000
0.222900 0.091705 0.000000
0.260956 0.091705 0.000000
0.301025 0.091705 0.000000
0.342590 0.091705 0.000000
0.384979 0.091705 0.000000
0.427551 0.091705 0.000000
0.469666 0.091705 0.000000
0.510803 0.091705 0.000000
0.550323 0.091705 0.000000
0.587799 0.091705 0.000000
0.623230 0.091705 0.000000
0.656891 0.091705 0.000000
0.688873 0.091705 0.000000
0.719482 0.091705 0.000000
0.748718 0.091705 0.000000
0.776886 0.091705 0.000000
0.804077 0.091705 0.000000
0.830353 0.091705 0.000000
0.855896 0.091705 0.000000
0.880829 0.091705 0.000000
0.905273 0.091705 0.000000
0.929321 0.091705 0.000000
0.953003 0.091705 0.000000
0.976593 0.091705 0.000000
1.000000 0.091705 0.000000
0.000000 0.117096 0.000000
0.029419 0.117096 0.000000
0.059174 0.117096 0.000000
0.089478 0.117096 0.000000
0.120697 0.117096 0.000000
0.153107 0.117096 0.000000
0.187073 0.117096 0.000000
0.222900 0.117096 0.000000
0.260956 0.117096 0.000000
0.301025 0.117096 0.000000
0.342590 0.117096 0.000000
0.384979 0.117096 0.000000
0.427551 0.117096 0.000000
0.469666 0.117096 0.000000
0.510803 0.117096 0.000000
0.550323 0.117096 0.000000
0.587799 0.117096 0.000000
0.623230 0.117096 0.000000
0.656891 0.117096 0.000000
0.688873 0.117096 0.000000
0.719482 0.117096 0.000000
0.748718 0.117096 0.000000
0.776886 0.117096 0.000000
0.804077 0.117096 0.000000
0.830353 0.117096 0.000000
0.855896 0.117096 0.000000
0.880829 0.117096 0.000000
0.905273 0.117096 0.000000
0.929321 0.117096 0.000000
0.953003 0.117096 0.000000
0.976593 0.117096 0.000000
1.000000 0.117096 0.000000
0.000000 0.144318 0.000000
0.029419 0.144318 0.000000
0.059174 0.144318 0.000000
0.089478 0.144318 0.000000
0.120697 0.144318 0.000000
0.153107 0.144318 0.000000
0.187073 0.144318 0.000000
0.222900 0.144318 0.000000
0.260956 0.144318 0.000000
0.301025 0.144318 0.000000
0.342590 0.144318 0.000000
0.384979 0.144318 0.000000
0.427551 0.144318 0.000000
0.469666 0.144318 0.000000
0.510803 0.144318 0.000000
0.550323 0.144318 0.000000
0.587799 0.144318 0.000000
0.623230 0.144318 0.000000
0.656891 0.144318 0.000000
0.688873 0.144318 0.000000
0.719482 0.144318 0.000000
0.748718 0.144318 0.000000
0.776886 0.144318 0.000000
0.804077 0.144318 0.000000
0.830353 0.144318 0.000000
0.855896 0.144318 0.000000
0.880829 0.144318 0.000000
0.905273 0.144318 0.000000
0.929321 0.144318 0.000000
0.953003 0.144318 0.000000
0.976593 0.144318 0.000000
1.000000 0.144318 0.000000
0.000000 0.173706 0.000000
0.029419 0.173706 0.000000
0.059174 0.173706 0.000000
0.089478 0.173706 0.000000
0.120697 0.173706 0.000000
0.153107 0.173706 0.000000
0.187073 0.173706 0.000000
0.222900 0.173706 0.000000
0.260956 0.173706 0.000000
0.301025 0.173706 0.000000
0.342590 0.173706 0.000000
0.384979 0.173706 0.000000
0.427551 0.173706 0.000000
0.469666 0.173706 0.000000
0.510803 0.173706 0.000000
0.550323 0.173706 0.000000
0.587799 0.173706 0.000000
0.623230 0.173706 0.000000
0.656891 0.173706 0.000000
0.688873 0.173706 0.000000
0.719482 0.173706 0.000000
0.748718 0.173706 0.000000
0.776886 0.173706 0.000000
0.804077 0.173706 0.000000
0.830353 0.173706 0.000000
0.855896 0.173706 0.000000
0.880829 0.173706 0.000000
0.905273 0.173706 0.000000
0.929321 0.173706 0.000000
0.953003 0.173706 0.000000
0.976593 0.173706 0.000000
1.000000 0.173706 0.000000
0.000000 0.205902 0.000000
0.029419 0.205902 0.000000
0.059174 0.205902 0.000000
0.089478 0.205902 0.000000
0.120697 0.205902 0.000000
0.153107 0.205902 0.000000
0.187073 0.205902 0.000000
0.222900 0.205902 0.000000
0.260956 0.205902 0.000000
0.301025 0.205902 0.000000
0.342590 0.205902 0.000000
0.384979 0.205902 0.000000
0.427551 0.205902 0.000000
0.469666 0.205902 0.000000
0.510803 0.205902 0.000000
0.550323 0.205902 0.000000
0.587799 0.205902 0.000000
0.623230 0.205902 0.000000
0.656891 0.205902 0.000000
0.688873 0.205902 0.000000
0.719482 0.205902 0.000000
0.748718 0.205902 0.000000
0.776886 0.205902 0.000000
0.804077 0.205902 0.000000
0.830353 0.205902 0.000000
0.855896 0.205902 0.000000
0.880829 0.205902 0.000000
0.905273 0.205902 0.000000
0.929321 0.205902 0.000000
0.953003 0.205902 0.000000
0.976593 0.205902 0.000000
1.000000 0.205902 0.000000
0.000000 0.241241 0.000000
0.029419 0.241241 0.000000
0.059174 0.241241 0.000000
0.089478 0.241241 0.000000
0.120697 0.241241 0.000000
0.153107 0.241241 0.000000
0.187073 0.241241 0.000000
0.222900 0.241241 0.000000
0.260956 0.241241 0.000000
0.301025 0.241241 0.000000
0.342590 0.241241 0.000000
0.384979 0.241241 0.000000
0.427551 0.241241 0.000000
0.469666 0.241241 0.000000
0.510803 0.241241 0.000000
0.550323 0.241241 0.000000
0.587799 0.241241 0.000000
0.623230 0.241241 0.000000
0.656891 0.241241 0.000000
0.688873 0.241241 0.000000
0.719482 0.241241 0.000000
0.748718 0.241241 0.000000
0.776886 0.241241 0.000000
0.804077 0.241241 0.000000
0.830353 0.241241 0.000000
0.855896 0.241241 0.000000
0.880829 0.241241 0.000000
0.905273 0.241241 0.000000
0.929321 0.241241 0.000000
0.953003 0.241241 0.000000
0.976593 0.241241 0.000000
1.000000 0.241241 0.000000
0.000000 0.279724 0.000000
0.029419 0.279724 0.000000
0.059174 0.279724 0.000000
0.089478 0.279724 0.000000
0.120697 0.279724 0.000000
0.153107 0.279724 0.000000
0.187073 0.279724 0.000000
0.222900 0.279724 0.000000
0.260956 0.279724 0.000000
0.301025 0.279724 0.000000
0.342590 0.279724 0.000000
0.384979 0.279724 0.000000
0.427551 0.279724 0.000000
0.469666 0.279724 0.000000
0.510803 0.279724 0.000000
0.550323 0.279724 0.000000
0.587799 0.279724 0.000000
0.623230 0.279724 0.000000
0.656891 0.279724 0.000000
0.688873 0.279724 0.000000
0.719482 0.279724 0.000000
0.748718 0.279724 0.000000
0.776886 0.279724 0.000000
0.804077 0.279724 0.000000
0.830353 0.279724 0.000000
0.855896 0.279724 0.000000
0.880829 0.279724 0.000000
0.905273 0.279724 0.000000
0.929321 0.279724 0.000000
0.953003 0.279724 0.000000
0.976593 0.279724 0.000000
1.000000 0.279724 0.000000
0.000000 0.320496 0.000000
0.029419 0.320496 0.000000
0.059174 0.320496 0.000000
0.089478 0.320496 0.000000
0.120697 0.320496 0.000000
0.153107 0.320496 0.000000
0.187073 0.320496 0.000000
0.222900 0.320496 0.000000
0.260956 0.320496 0.000000
0.301025 0.320496 0.000000
0.342590 0.320496 0.000000
0.384979 0.320496 0.000000
0.427551 0.320496 0.000000
0.469666 0.320496 0.000000
0.510803 0.320496 0.000000
0.550323 0.320496 0.000000
0.587799 0.320496 0.000000
0.623230 0.320496 0.000000
0.656891 0.320496 0.000000
0.688873 0.320496 0.000000
0.719482 0.320496 0.000000
0.748718 0.320496 0.000000
0.776886 0.320496 0.000000
0.804077 0.320496 0.000000
0.830353 0.320496 0.000000
0.855896 0.320496 0.000000
0.880829 0.320496 0.000000
0.905273 0.320496 0.000000
0.929321 0.320496 0.000000
0.953003 0.320496 0.000000
0.976593 0.320496 0.000000
1.000000 0.320496 0.000000
0.000000 0.362823 0.000000
0.029419 0.362823 0.000000
0.059174 0.362823 0.000000
0.089478 0.362823 0.000000
0.120697 0.362823 0.000000
0.153107 0.362823 0.000000
0.187073 0.362823 0.000000
0.222900 0.362823 0.000000
0.260956 0.362823 0.000000
0.301025 0.362823 0.000000
0.342590 0.362823 0.000000
0.384979 0.362823 0.000000
0.427551 0.362823 0.000000
0.469666 0.362823 0.000000
0.510803 0.362823 0.000000
0.550323 0.362823 0.000000
0.587799 0.362823 0.000000
0.623230 0.362823 0.000000
0.656891 0.362823 0.000000
0.688873 0.362823 0.000000
0.719482 0.362823 0.000000
0.748718 0.362823 0.000000
0.776886 0.362823 0.000000
0.804077 0.362823 0.000000
0.830353 0.362823 0.000000
0.855896 0.362823 0.000000
0.880829 0.362823 0.000000
0.905273 0.362823 0.000000
0.929321 0.362823 0.000000
0.953003 0.362823 0.000000
0.976593 0.362823 0.000000
1.000000 0.362823 0.000000
0.000000 0.405792 0.000000
0.029419 0.405792 0.000000
0.059174 0.405792 0.000000
0.089478 0.405792 0.000000
0.120697 0.405792 0.000000
0.153107 0.405792 0.000000
0.187073 0.405792 0.000000
0.222900 0.405792 0.000000
0.260956 0.405792 0.000000
0.301025 0.405792 0.000000
0.342590 0.405792 0.000000
0.384979 0.405792 0.000000
0.427551 0.405792 0.000000
0.469666 0.405792 0.000000
0.510803 0.405792 0.000000
0.550323 0.405792 0.000000
0.587799 0.405792 0.000000
0.623230 0.405792 0.000000
0.656891 0.405792 0.000000
0.688873 0.405792 0.000000
0.719482 0.405792 0.000000
0.748718 0.405792 0.000000
0.776886 0.405792 0.000000
0.804077 0.405792 0.000000
0.830353 0.405792 0.000000
0.855896 0.405792 0.000000
0.880829 0.405792 0.000000
0.905273 0.405792 0.000000
0.929321 0.405792 0.000000
0.953003 0.405792 0.000000
0.976593 0.405792 0.000000
1.000000 0.405792 0.000000
0.000000 0.448517 0.000000
0.029419 0.448517 0.000000
0.059174 0.448517 0.000000
0.089478 0.448517 0.000000
0.120697 0.448517 0.000000
0.153107 0.448517 0.000000
0.187073 0.448517 0.000000
0.222900 0.448517 0.000000
0.260956 0.448517 0.000000
0.301025 0.448517 0.000000
0.342590 0.448517 0.000000
0.384979 0.448517 0.000000
0.427551 0.448517 0.000000
0.469666 0.448517 0.000000
0.510803 0.448517 0.000000
0.550323 0.448517 0.000000
0.587799 0.448517 0.000000
0.623230 0.448517 0.000000
0.656891 0.448517 0.000000
0.688873 0.448517 0.000000
0.719482 0.448517 0.000000
0.748718 0.448517 0.000000
0.776886 0.448517 0.000000
0.804077 0.448517 0.000000
0.830353 0.448517 0.000000
0.855896 0.448517 0.000000
0.880829 0.448517 0.000000
0.905273 0.448517 0.000000
0.929321 0.448517 0.000000
0.953003 0.448517 0.000000
0.976593 0.448517 0.000000
1.000000 0.448517 0.000000
0.000000 0.490112 0.000000
0.029419 0.490112 0.000000
0.059174 0.490112 0.000000
0.089478 0.490112 0.000000
0.120697 0.490112 0.000000
0.153107 0.490112 0.000000
0.187073 0.490112 0.000000
0.222900 0.490112 0.000000
0.260956 0.490112 0.000000
0.301025 0.490112 0.000000
0.342590 0.490112 0.000000
0.384979 0.490112 0.000000
0.427551 0.490112 0.000000
0.469666 0.490112 0.000000
0.510803 0.490112 0.000000
0.550323 0.490112 0.000000
0.587799 0.490112 0.000000
0.623230 0.490112 0.000000
0.656891 0.490112 0.000000
0.688873 0.490112 0.000000
0.719482 0.490112 0.000000
0.748718 0.490112 0.000000
0.776886 0.490112 0.000000
0.804077 0.490112 0.000000
0.830353 0.490112 0.000000
0.855896 0.490112 0.000000
0.880829 0.490112 0.000000
0.905273 0.490112 0.000000
0.929321 0.490112 0.000000
0.953003 0.490112 0.000000
0.976593 0.490112 0.000000
1.000000 0.490112 0.000000
0.000000 0.529968 0.000000
0.029419 0.529968 0.000000
0.059174 0.529968 0.000000
0.089478 0.529968 0.000000
0.120697 0.529968 0.000000
0.153107 0.529968 0.000000
0.187073 0.529968 0.000000
0.222900 0.529968 0.000000
0.260956 0.529968 0.000000
0.301025 0.529968 0.000000
0.342590 0.529968 0.000000
0.384979 0.529968 0.000000
0.427551 0.529968 0.000000
0.469666 0.529968 0.000000
0.510803 0.529968 0.000000
0.550323 0.529968 0.000000
0.587799 0.529968 0.000000
0.623230 0.529968 0.000000
0.656891 0.529968 0.000000
0.688873 0.529968 0.000000
0.719482 0.529968 0.000000
0.748718 0.529968 0.000000
0.776886 0.529968 0.000000
0.804077 0.529968 0.000000
0.830353 0.529968 0.000000
0.855896 0.529968 0.000000
0.880829 0.529968 0.000000
0.905273 0.529968 0.000000
0.929321 0.529968 0.000000
0.953003 0.529968 0.000000
0.976593 0.529968 0.000000
1.000000 0.529968 0.000000
0.000000 0.567993 0.000000
0.029419 0.567993 0.000000
0.059174 0.567993 0.000000
0.089478 0.567993 0.000000
0.120697 0.567993 0.000000
0.153107 0.567993 0.000000
0.187073 0.567993 0.000000
0.222900 0.567993 0.000000
0.260956 0.567993 0.000000
0.301025 0.567993 0.000000
0.342590 0.567993 0.000000
0.384979 0.567993 0.000000
0.427551 0.567993 0.000000
0.469666 0.567993 0.000000
0.510803 0.567993 0.000000
0.550323 0.567993 0.000000
0.587799 0.567993 0.000000
0.623230 0.567993 0.000000
0.656891 0.567993 0.000000
0.688873 0.567993 0.000000
0.719482 0.567993 0.000000
0.748718 0.567993 0.000000
0.776886 0.567993 0.000000
0.804077 0.567993 0.000000
0.830353 0.567993 0.000000
0.855896 0.567993 0.000000
0.880829 0.567993 0.000000
0.905273 0.567993 0.000000
0.929321 0.567993 0.000000
0.953003 0.567993 0.000000
0.976593 0.567993 0.000000
1.000000 0.567993 0.000000
0.000000 0.604462 0.000000
0.029419 0.604462 0.000000
0.059174 0.604462 0.000000
0.089478 0.604462 0.000000
0.120697 0.604462 0.000000
0.153107 0.604462 0.000000
0.187073 0.604462 0.000000
0.222900 0.604462 0.000000
0.260956 0.604462 0.000000
0.301025 0.604462 0.000000
0.342590 0.604462 0.000000
0.384979 0.604462 0.000000
0.427551 0.604462 0.000000
0.469666 0.604462 0.000000
0.510803 0.604462 0.000000
0.550323 0.604462 0.000000
0.587799 0.604462 0.000000
0.623230 0.604462 0.000000
0.656891 0.604462 0.000000
0.688873 0.604462 0.000000
0.719482 0.604462 0.000000
0.748718 0.604462 0.000000
0.776886 0.604462 0.000000
0.804077 0.604462 0.000000
0.830353 0.604462 0.000000
0.855896 0.604462 0.000000
0.880829 0.604462 0.000000
0.905273 0.604462 0.000000
0.929321 0.604462 0.000000
0.953003 0.604462 0.000000
0.976593 0.604462 0.000000
1.000000 0.604462 0.000000
0.000000 0.639526 0.000000
0.029419 0.639526 0.000000
0.059174 0.639526 0.000000
0.089478 0.639526 0.000000
0.120697 0.639526 0.000000
0.153107 0.639526 0.000000
0.187073 0.639526 0.000000
0.222900 0.639526 0.000000
0.260956 0.639526 0.000000
0.301025 0.639526 0.000000
0.342590 0.639526 0.000000
0.384979 0.639526 0.000000
0.427551 0.639526 0.000000
0.469666 0.639526 0.000000
0.510803 0.639526 0.000000
0.550323 0.639526 0.000000
0.587799 0.639526 0.000000
0.623230 0.639526 0.000000
0.656891 0.639526 0.000000
0.688873 0.639526 0.000000
0.719482 0.639526 0.000000
0.748718 0.639526 0.000000
0.776886 0.639526 0.000000
0.804077 0.639526 0.000000
0.830353 0.639526 0.000000
0.855896 0.639526 0.000000
0.880829 0.639526 0.000000
0.905273 0.639526 0.000000
0.929321 0.639526 0.000000
0.953003 0.639526 0.000000
0.976593 0.639526 0.000000
1.000000 0.639526 0.000000
0.000000 0.673462 0.000000
0.029419 0.673462 0.000000
0.059174 0.673462 0.000000
0.089478 0.673462 0.000000
0.120697 0.673462 0.000000
0.153107 0.673462 0.000000
0.187073 0.673462 0.000000
0.222900 0.673462 0.000000
0.260956 0.673462 0.000000
0.301025 0.673462 0.000000
0.342590 0.673462 0.000000
0.384979 0.673462 0.000000
0.427551 0.673462 0.000000
0.469666 0.673462 0.000000
0.510803 0.673462 0.000000
0.550323 0.673462 0.000000
0.587799 0.673462 0.000000
0.623230 0.673462 0.000000
0.656891 0.673462 0.000000
0.688873 0.673462 0.000000
0.719482 0.673462 0.000000
0.748718 0.673462 0.000000
0.776886 0.673462 0.000000
0.804077 0.673462 0.000000
0.830353 0.673462 0.000000
0.855896 0.673462 0.000000
0.880829 0.673462 0.000000
0.905273 0.673462 0.000000
0.929321 0.673462 0.000000
0.953003 0.673462 0.000000
0.976593 0.673462 0.000000
1.000000 0.673462 0.000000
0.000000 0.706360 0.000000
0.029419 0.706360 0.000000
0.059174 0.706360 0.000000
0.089478 0.706360 0.000000
0.120697 0.706360 0.000000
0.153107 0.706360 0.000000
0.187073 0.706360 0.000000
0.222900 0.706360 0.000000
0.260956 0.706360 0.000000
0.301025 0.706360 0.000000
0.342590 0.706360 0.000000
0.384979 0.706360 0.000000
0.427551 0.706360 0.000000
0.469666 0.706360 0.000000
0.510803 0.706360 0.000000
0.550323 0.706360 0.000000
0.587799 0.706360 0.000000
0.623230 0.706360 0.000000
0.656891 0.706360 0.000000
0.688873 0.706360 0.000000
0.719482 0.706360 0.000000
0.748718 0.706360 0.000000
0.776886 0.706360 0.000000
0.804077 0.706360 0.000000
0.830353 0.706360 0.000000
0.855896 0.706360 0.000000
0.880829 0.706360 0.000000
0.905273 0.706360 0.000000
0.929321 0.706360 0.000000
0.953003 0.706360 0.000000
0.976593 0.706360 0.000000
1.000000 0.706360 0.000000
0.000000 0.738312 0.000000
0.029419 0.738312 0.000000
0.059174 0.738312 0.000000
0.089478 0.738312 0.000000
0.120697 0.738312 0.000000
0.153107 0.738312 0.000000
0.187073 0.738312 0.000000
0.222900 0.738312 0.000000
0.260956 0.738312 0.000000
0.301025 0.738312 0.000000
0.342590 0.738312 0.000000
0.384979 0.738312 0.000000
0.427551 0.738312 0.000000
0.469666 0.738312 0.000000
0.510803 0.738312 0.000000
0.550323 0.738312 0.000000
0.587799 0.738312 0.000000
0.623230 0.738312 0.000000
0.656891 0.738312 0.000000
0.688873 0.738312 0.000000
0.719482 0.738312 0.000000
0.748718 0.738312 0.000000
0.776886 0.738312 0.000000
0.804077 0.738312 0.000000
0.830353 0.738312 0.000000
0.855896 0.738312 0.000000
0.880829 0.738312 0.000000
0.905273 0.738312 0.000000
0.929321 0.738312 0.000000
0.953003 0.738312 0.000000
0.976593 0.738312 0.000000
1.000000 0.738312 0.000000
0.000000 0.769409 0.000000
0.029419 0.769409 0.000000
0.059174 0.769409 0.000000
0.089478 0.769409 0.000000
0.120697 0.769409 0.000000
0.153107 0.769409 0.000000
0.187073 0.769409 0.000000
0.222900 0.769409 0.000000
0.260956 0.769409 0.000000
0.301025 0.769409 0.000000
0.342590 0.769409 0.000000
0.384979 0.769409 0.000000
0.427551 0.769409 0.000000
0.469666 0.769409 0.000000
0.510803 0.769409 0.000000
0.550323 0.769409 0.000000
0.587799 0.769409 0.000000
0.623230 0.769409 0.000000
0.656891 0.769409 0.000000
0.688873 0.769409 0.000000
0.719482 0.769409 0.000000
0.748718 0.769409 0.000000
0.776886 0.769409 0.000000
0.804077 0.769409 0.000000
0.830353 0.769409 0.000000
0.855896 0.769409 0.000000
0.880829 0.769409 0.000000
0.905273 0.769409 0.000000
0.929321 0.769409 0.000000
0.953003 0.769409 0.000000
0.976593 0.769409 0.000000
1.000000 0.769409 0.000000
0.000000 0.799744 0.000000
0.029419 0.799744 0.000000
0.059174 0.799744 0.000000
0.089478 0.799744 0.000000
0.120697 0.799744 0.000000
0.153107 0.799744 0.000000
0.187073 0.799744 0.000000
0.222900 0.799744 0.000000
0.260956 0.799744 0.000000
0.301025 0.799744 0.000000
0.342590 0.799744 0.000000
0.384979 0.799744 0.000000
0.427551 0.799744 0.000000
0.469666 0.799744 0.000000
0.510803 0.799744 0.000000
0.550323 0.799744 0.000000
0.587799 0.799744 0.000000
0.623230 0.799744 0.000000
0.656891 0.799744 0.000000
0.688873 0.799744 0.000000
0.719482 0.799744 0.000000
0.748718 0.799744 0.000000
0.776886 0.799744 0.000000
0.804077 0.799744 0.000000
0.830353 0.799744 0.000000
0.855896 0.799744 0.000000
0.880829 0.799744 0.000000
0.905273 0.799744 0.000000
0.929321 0.799744 0.000000
0.953003 0.799744 0.000000
0.976593 0.799744 0.000000
1.000000 0.799744 0.000000
0.000000 0.829498 0.000000
0.029419 0.829498 0.000000
0.059174 0.829498 0.000000
0.089478 0.829498 0.000000
0.120697 0.829498 0.000000
0.153107 0.829498 0.000000
0.187073 0.829498 0.000000
0.222900 0.829498 0.000000
0.260956 0.829498 0.000000
0.301025 0.829498 0.000000
0.342590 0.829498 0.000000
0.384979 0.829498 0.000000
0.427551 0.829498 0.000000
0.469666 0.829498 0.000000
0.510803 0.829498 0.000000
0.550323 0.829498 0.000000
0.587799 0.829498 0.000000
0.623230 0.829498 0.000000
0.656891 0.829498 0.000000
0.688873 0.829498 0.000000
0.719482 0.829498 0.000000
0.748718 0.829498 0.000000
0.776886 0.829498 0.000000
0.804077 0.829498 0.000000
0.830353 0.829498 0.000000
0.855896 0.829498 0.000000
0.880829 0.829498 0.000000
0.905273 0.829498 0.000000
0.929321 0.829498 0.000000
0.953003 0.829498 0.000000
0.976593 0.829498 0.000000
1.000000 0.829498 0.000000
0.000000 0.858765 0.000000
0.029419 0.858765 0.000000
0.059174 0.858765 0.000000
0.089478 0.858765 0.000000
0.120697 0.858765 0.000000
0.153107 0.858765 0.000000
0.187073 0.858765 0.000000
0.222900 0.858765 0.000000
0.260956 0.858765 0.000000
0.301025 0.858765 0.000000
0.342590 0.858765 0.000000
0.384979 0.858765 0.000000
0.427551 0.858765 0.000000
0.469666 0.858765 0.000000
0.510803 0.858765 0.000000
0.550323 0.858765 0.000000
0.587799 0.858765 0.000000
0.623230 0.858765 0.000000
0.656891 0.858765 0.000000
0.688873 0.858765 0.000000
0.719482 0.858765 0.000000
0.748718 0.858765 0.000000
0.776886 0.858765 0.000000
0.804077 0.858765 0.000000
0.830353 0.858765 0.000000
0.855896 0.858765 0.000000
0.880829 0.858765 0.000000
0.905273 0.858765 0.000000
0.929321 0.858765 0.000000
0.953003 0.858765 0.000000
0.976593 0.858765 0.000000
1.000000 0.858765 0.000000
0.000000 0.887512 0.000000
0.029419 0.887512 0.000000
0.059174 0.887512 0.000000
0.089478 0.887512 0.000000
0.120697 0.887512 0.000000
0.153107 0.887512 0.000000
0.187073 0.887512 0.000000
0.222900 0.887512 0.000000
0.260956 0.887512 0.000000
0.301025 0.887512 0.000000
0.342590 0.887512 0.000000
0.384979 0.887512 0.000000
0.427551 0.887512 0.000000
0.469666 0.887512 0.000000
0.510803 0.887512 0.000000
0.550323 0.887512 0.000000
0.587799 0.887512 0.000000
0.623230 0.887512 0.000000
