Project 5 - Parkour/Graphics/LUTS Instagram/Hefe.cube
#Created by: Adobe Photoshop Export Color Lookup Plugin
TITLE "Hefe"
#LUT size
LUT_3D_SIZE 8
#data domain
#LUT data points
DOMAIN_MIN 0.000000 0.000000 0.000000
DOMAIN_MAX 0.903226 0.903226 0.903226
0.000000 0.000000 0.000000
0.120697 0.000000 0.000000
0.260956 0.000000 0.000000
0.427551 0.000000 0.000000
0.587799 0.000000 0.000000
0.719482 0.000000 0.000000
0.830353 0.000000 0.000000
0.929321 0.000000 0.000000
0.000000 0.091705 0.000000
0.120697 0.091705 0.000000
0.260956 0.091705 0.000000
0.427551 0.091705 0.000000
0.587799 0.091705 0.000000
0.719482 0.091705 0.000000
0.830353 0.091705 0.000000
0.929321 0.091705 0.000000
0.000000 0.205902 0.000000
0.120697 0.205902 0.000000
0.260956 0.205902 0.000000
0.427551 0.205902 0.000000
0.587799 0.205902 0.000000
0.719482 0.205902 0.000000
0.830353 0.205902 0.000000
0.929321 0.205902 0.000000
0.000000 0.362823 0.000000
0.120697 0.362823 0.000000
0.260956 0.362823 0.000000
0.427551 0.362823 0.000000
0.587799 0.362823 0.000000
0.719482 0.362823 0.000000
0.830353 0.362823 0.000000
0.929321 0.362823 0.000000
0.000000 0.529968 0.000000
0.120697 0.529968 0.000000
0.260956 0.529968 0.000000
0.427551 0.529968 0.000000
0.587799 0.529968 0.000000
0.719482 0.529968 0.000000
0.830353 0.529968 0.000000
0.929321 0.529968 0.000000
0.000000 0.673462 0.000000
0.120697 0.673462 0.000000
0.260956 0.673462 0.000000
0.427551 0.673462 0.000000
0.587799 0.673462 0.000000
0.719482 0.673462 0.000000
0.830353 0.673462 0.000000
0.929321 0.673462 0.000000
0.000000 0.799744 0.000000
0.120697 0.799744 0.000000
0.260956 0.799744 0.000000
0.427551 0.799744 0.000000
0.587799 0.799744 0.000000
0.719482 0.799744 0.000000
0.830353 0.799744 0.000000
0.929321 0.799744 0.000000
0.000000 0.915924 0.000000
0.120697 0.915924 0.000000
0.260956 0.915924 0.000000
0.427551 0.915924 0.000000
0.587799 0.915924 0.000000
0.719482 0.915924 0.000000
0.830353 0.915924 0.000000
0.929321 0.915924 0.000000
0.000000 0.000000 0.082275
0.120697 0.000000 0.082275
0.260956 0.000000 0.082275
0.427551 0.000000 0.082275
0.587799 0.000000 0.082275
0.719482 0.000000 0.082275
0.830353 0.000000 0.082275
0.929321 0.000000 0.082275
0.000000 0.091705 0.082275
0.120697 0.091705 0.082275
0.260956 0.091705 0.082275
0.427551 0.091705 0.082275
0.587799 0.091705 0.082275
0.719482 0.091705 0.082275
0.830353 0.091705 0.082275
0.929321 0.091705 0.082275
0.000000 0.205902 0.082275
0.120697 0.205902 0.082275
0.260956 0.205902 0.082275
0.427551 0.205902 0.082275
0.587799 0.205902 0.082275
0.719482 0.205902 0.082275
0.830353 0.205902 0.082275
0.929321 0.205902 0.082275
0.000000 0.362823 0.082275
0.120697 0.362823 0.082275
0.260956 0.362823 0.082275
0.427551 0.362823 0.082275
0.587799 0.362823 0.082275
0.719482 0.362823 0.082275
0.830353 0.362823 0.082275
0.929321 0.362823 0.082275
0.000000 0.529968 0.082275
0.120697 0.529968 0.082275
0.260956 0.529968 0.082275
0.427551 0.529968 0.082275
0.587799 0.529968 0.082275
0.719482 0.529968 0.082275
0.830353 0.529968 0.082275
0.929321 0.529968 0.082275
0.000000 0.673462 0.082275
0.120697 0.673462 0.082275
0.260956 0.673462 0.082275
0.427551 0.673462 0.082275
0.587799 0.673462 0.082275
0.719482 0.673462 0.082275
0.830353 0.673462 0.082275
0.929321 0.673462 0.082275
0.000000 0.799744 0.082275
0.120697 0.799744 0.082275
0.260956 0.799744 0.082275
0.427551 0.799744 0.082275
0.587799 0.799744 0.082275
0.719482 0.799744 0.082275
0.830353 0.799744 0.082275
0.929321 0.799744 0.082275
0.000000 0.915924 0.082275
0.120697 0.915924 0.082275
0.260956 0.915924 0.082275
0.427551 0.915924 0.082275
0.587799 0.915924 0.082275
0.719482 0.915924 0.082275
0.830353 0.915924 0.082275
0.929321 0.915924 0.082275
0.000000 0.000000 0.182587
0.120697 0.000000 0.182587
0.260956 0.000000 0.182587
0.427551 0.000000 0.182587
0.587799 0.000000 0.182587
0.719482 0.000000 0.182587
0.830353 0.000000 0.182587
0.929321 0.000000 0.182587
0.000000 0.091705 0.182587
0.120697 0.091705 0.182587
0.260956 0.091705 0.182587
0.427551 0.091705 0.182587
0.587799 0.091705 0.182587
0.719482 0.091705 0.182587
0.830353 0.091705 0.182587
0.929321 0.091705 0.182587
0.000000 0.205902 0.182587
0.120697 0.205902 0.182587
0.260956 0.205902 0.182587
0.427551 0.205902 0.182587
0.587799 0.205902 0.182587
0.719482 0.205902 0.182587
0.830353 0.205902 0.182587
0.929321 0.205902 0.182587
0.000000 0.362823 0.182587
0.120697 0.362823 0.182587
0.260956 0.362823 0.182587
0.427551 0.362823 0.182587
0.587799 0.362823 0.182587
0.719482 0.362823 0.182587
0.830353 0.362823 0.182587
0.929321 0.362823 0.182587
0.000000 0.529968 0.182587
0.120697 0.529968 0.182587
0.260956 0.529968 0.182587
0.427551 0.529968 0.182587
0.587799 0.529968 0.182587
0.719482 0.529968 0.182587
0.830353 0.529968 0.182587
0.929321 0.529968 0.182587
0.000000 0.673462 0.182587
0.120697 0.673462 0.182587
0.260956 0.673462 0.182587
0.427551 0.673462 0.182587
0.587799 0.673462 0.182587
0.719482 0.673462 0.182587
0.830353 0.673462 0.182587
0.929321 0.673462 0.182587
0.000000 0.799744 0.182587
0.120697 0.799744 0.182587
0.260956 0.799744 0.182587
0.427551 0.799744 0.182587
0.587799 0.799744 0.182587
0.719482 0.799744 0.182587
0.830353 0.799744 0.182587
0.929321 0.799744 0.182587
0.000000 0.915924 0.182587
0.120697 0.915924 0.182587
0.260956 0.915924 0.182587
0.427551 0.915924 0.182587
0.587799 0.915924 0.182587
0.719482 0.915924 0.182587
0.830353 0.915924 0.182587
0.929321 0.915924 0.182587
0.000000 0.000000 0.319122
0.120697 0.000000 0.319122
0.260956 0.000000 0.319122
0.427551 0.000000 0.319122
0.587799 0.000000 0.319122
0.719482 0.000000 0.319122
0.830353 0.000000 0.319122
0.929321 0.000000 0.319122
0.000000 0.091705 0.319122
0.120697 0.091705 0.319122
0.260956 0.091705 0.319122
0.427551 0.091705 0.319122
0.587799 0.091705 0.319122
0.719482 0.091705 0.319122
0.830353 0.091705 0.319122
0.929321 0.091705 0.319122
0.000000 0.205902 0.319122
0.120697 0.205902 0.319122
0.260956 0.205902 0.319122
0.427551 0.205902 0.319122
0.587799 0.205902 0.319122
0.719482 0.205902 0.319122
0.830353 0.205902 0.319122
0.929321 0.205902 0.319122
0.000000 0.362823 0.319122
0.120697 0.362823 0.319122
0.260956 0.362823 0.319122
0.427551 0.362823 0.319122
0.587799 0.362823 0.319122
0.719482 0.362823 0.319122
0.830353 0.362823 0.319122
0.929321 0.362823 0.319122
0.000000 0.529968 0.319122
0.120697 0.529968 0.319122
0.260956 0.529968 0.319122
0.427551 0.529968 0.319122
0.587799 0.529968 0.319122
0.719482 0.529968 0.319122
0.830353 0.529968 0.319122
0.929321 0.529968 0.319122
0.000000 0.673462 0.319122
0.120697 0.673462 0.319122
0.260956 0.673462 0.319122
0.427551 0.673462 0.319122
0.587799 0.673462 0.319122
0.719482 0.673462 0.319122
0.830353 0.673462 0.319122
0.929321 0.673462 0.319122
0.000000 0.799744 0.319122
0.120697 0.799744 0.319122
0.260956 0.799744 0.319122
0.427551 0.799744 0.319122
0.587799 0.799744 0.319122
0.719482 0.799744 0.319122
0.830353 0.799744 0.319122
0.929321 0.799744 0.319122
0.000000 0.915924 0.319122
0.120697 0.915924 0.319122
0.260956 0.915924 0.319122
0.427551 0.915924 0.319122
0.587799 0.915924 0.319122
0.719482 0.915924 0.319122
0.830353 0.915924 0.319122
0.929321 0.915924 0.319122
0.000000 0.000000 0.478394
0.120697 0.000000 0.478394
0.260956 0.000000 0.478394
0.427551 0.000000 0.478394
0.587799 0.000000 0.478394
0.719482 0.000000 0.478394
0.830353 0.000000 0.478394
0.929321 0.000000 0.478394
0.000000 0.091705 0.478394
0.120697 0.091705 0.478394
0.260956 0.091705 0.478394
0.427551 0.091705 0.478394
0.587799 0.091705 0.478394
0.719482 0.091705 0.478394
0.830353 0.091705 0.478394
0.929321 0.091705 0.478394
0.000000 0.205902 0.478394
0.120697 0.205902 0.478394
0.260956 0.205902 0.478394
0.427551 0.205902 0.478394
0.587799 0.205902 0.478394
0.719482 0.205902 0.478394
0.830353 0.205902 0.478394
0.929321 0.205902 0.478394
0.000000 0.362823 0.478394
0.120697 0.362823 0.478394
0.260956 0.362823 0.478394
0.427551 0.362823 0.478394
0.587799 0.362823 0.478394
0.719482 0.362823 0.478394
0.830353 0.362823 0.478394
0.929321 0.362823 0.478394
0.000000 0.529968 0.478394
0.120697 0.529968 0.478394
0.260956 0.529968 0.478394
0.427551 0.529968 0.478394
0.587799 0.529968 0.478394
0.719482 0.529968 0.478394
0.830353 0.529968 0.478394
0.929321 0.529968 0.478394
0.000000 0.673462 0.478394
0.120697 0.673462 0.478394
0.260956 0.673462 0.478394
0.427551 0.673462 0.478394
0.587799 0.673462 0.478394
0.719482 0.673462 0.478394
0.830353 0.673462 0.478394
0.929321 0.673462 0.478394
0.000000 0.799744 0.478394
0.120697 0.799744 0.478394
0.260956 0.799744 0.478394
0.427551 0.799744 0.478394
0.587799 0.799744 0.478394
0.719482 0.799744 0.478394
0.830353 0.799744 0.478394
0.929321 0.799744 0.478394
0.000000 0.915924 0.478394
0.120697 0.915924 0.478394
0.260956 0.915924 0.478394
0.427551 0.915924 0.478394
0.587799 0.915924 0.478394
0.719482 0.915924 0.478394
0.830353 0.915924 0.478394
0.929321 0.915924 0.478394
0.000000 0.000000 0.632629
0.120697 0.000000 0.632629
0.260956 0.000000 0.632629
0.427551 0.000000 0.632629
0.587799 0.000000 0.632629
0.719482 0.000000 0.632629
0.830353 0.000000 0.632629
0.929321 0.000000 0.632629
0.000000 0.091705 0.632629
0.120697 0.091705 0.632629
0.260956 0.091705 0.632629
0.427551 0.091705 0.632629
0.587799 0.091705 0.632629
0.719482 0.091705 0.632629
0.830353 0.091705 0.632629
0.929321 0.091705 0.632629
0.000000 0.205902 0.632629
0.120697 0.205902 0.632629
0.260956 0.205902 0.632629
0.427551 0.205902 0.632629
0.587799 0.205902 0.632629
0.719482 0.205902 0.632629
0.830353 0.205902 0.632629
0.929321 0.205902 0.632629
0.000000 0.362823 0.632629
0.120697 0.362823 0.632629
0.260956 0.362823 0.632629
0.427551 0.362823 0.632629
0.587799 0.362823 0.632629
0.719482 0.362823 0.632629
0.830353 0.362823 0.632629
0.929321 0.362823 0.632629
0.000000 0.529968 0.632629
0.120697 0.529968 0.632629
0.260956 0.529968 0.632629
0.427551 0.529968 0.632629
0.587799 0.529968 0.632629
0.719482 0.529968 0.632629
0.830353 0.529968 0.632629
0.929321 0.529968 0.632629
0.000000 0.673462 0.632629
0.120697 0.673462 0.632629
0.260956 0.673462 0.632629
0.427551 0.673462 0.632629
0.587799 0.673462 0.632629
0.719482 0.673462 0.632629
0.830353 0.673462 0.632629
0.929321 0.673462 0.632629
0.000000 0.799744 0.632629
0.120697 0.799744 0.632629
0.260956 0.799744 0.632629
0.427551 0.799744 0.632629
0.587799 0.799744 0.632629
0.719482 0.799744 0.632629
0.830353 0.799744 0.632629
0.929321 0.799744 0.632629
0.000000 0.915924 0.632629
0.120697 0.915924 0.632629
0.260956 0.915924 0.632629
0.427551 0.915924 0.632629
0.587799 0.915924 0.632629
0.719482 0.915924 0.632629
0.830353 0.915924 0.632629
0.929321 0.915924 0.632629
0.000000 0.000000 0.765961
0.120697 0.000000 0.765961
0.260956 0.000000 0.765961
0.427551 0.000000 0.765961
0.587799 0.000000 0.765961
0.719482 0.000000 0.765961
0.830353 0.000000 0.765961
0.929321 0.000000 0.765961
0.000000 0.091705 0.765961
0.120697 0.091705 0.765961
0.260956 0.091705 0.765961
0.427551 0.091705 0.765961
0.587799 0.091705 0.765961
0.719482 0.091705 0.765961
0.830353 0.091705 0.765961
0.929321 0.091705 0.765961
0.000000 0.205902 0.765961
0.120697 0.205902 0.765961
0.260956 0.205902 0.765961
0.427551 0.205902 0.765961
0.587799 0.205902 0.765961
0.719482 0.205902 0.765961
0.830353 0.205902 0.765961
0.929321 0.205902 0.765961
0.000000 0.362823 0.765961
0.120697 0.362823 0.765961
0.260956 0.362823 0.765961
0.427551 0.362823 0.765961
0.587799 0.362823 0.765961
0.719482 0.362823 0.765961
0.830353 0.362823 0.765961
0.929321 0.362823 0.765961
0.000000 0.529968 0.765961
0.120697 0.529968 0.765961
0.260956 0.529968 0.765961
0.427551 0.529968 0.765961
0.587799 0.529968 0.765961
0.719482 0.529968 0.765961
0.830353 0.529968 0.765961
0.929321 0.529968 0.765961
0.000000 0.673462 0.765961
0.120697 0.673462 0.765961
0.260956 0.673462 0.765961
0.427551 0.673462 0.765961
0.587799 0.673462 0.765961
0.719482 0.673462 0.765961
0.830353 0.673462 0.765961
0.929321 0.673462 0.765961
0.000000 0.799744 0.765961
0.120697 0.799744 0.765961
0.260956 0.799744 0.765961
0.427551 0.799744 0.765961
0.587799 0.799744 0.765961
0.719482 0.799744 0.765961
0.830353 0.799744 0.765961
0.929321 0.799744 0.765961
0.000000 0.915924 0.765961
0.120697 0.915924 0.765961
0.260956 0.915924 0.765961
0.427551 0.915924 0.765961
0.587799 0.915924 0.765961
0.719482 0.915924 0.765961
0.830353 0.915924 0.765961
0.929321 0.915924 0.765961
0.000000 0.000000 0.881958
0.120697 0.000000 0.881958
0.260956 0.000000 0.881958
0.427551 0.000000 0.881958
0.587799 0.000000 0.881958
0.719482 0.000000 0.881958
0.830353 0.000000 0.881958
0.929321 0.000000 0.881958
0.000000 0.091705 0.881958
0.120697 0.091705 0.881958
0.260956 0.091705 0.881958
0.427551 0.091705 0.881958
0.587799 0.091705 0.881958
0.719482 0.091705 0.881958
0.830353 0.091705 0.881958
0.929321 0.091705 0.881958
0.000000 0.205902 0.881958
0.120697 0.205902 0.881958
0.260956 0.205902 0.881958
0.427551 0.205902 0.881958
0.587799 0.205902 0.881958
0.719482 0.205902 0.881958
0.830353 0.205902 0.881958
0.929321 0.205902 0.881958
0.000000 0.362823 0.881958
0.120697 0.362823 0.881958
0.260956 0.362823 0.881958
0.427551 0.362823 0.881958
0.587799 0.362823 0.881958
0.719482 0.362823 0.881958
0.830353 0.362823 0.881958
0.929321 0.362823 0.881958
0.000000 0.529968 0.881958
0.120697 0.529968 0.881958
0.260956 0.529968 0.881958
0.427551 0.529968 0.881958
0.587799 0.529968 0.881958
0.719482 0.529968 0.881958
0.830353 0.529968 0.881958
0.929321 0.529968 0.881958
0.000000 0.673462 0.881958
0.120697 0.673462 0.881958
0.260956 0.673462 0.881958
0.427551 0.673462 0.881958
0.587799 0.673462 0.881958
0.719482 0.673462 0.881958
0.830353 0.673462 0.881958
0.929321 0.673462 0.881958
0.000000 0.799744 0.881958
0.120697 0.799744 0.881958
0.260956 0.799744 0.881958
0.427551 0.799744 0.881958
0.587799 0.799744 0.881958
0.719482 0.799744 0.881958
0.830353 0.799744 0.881958
0.929321 0.799744 0.881958
0.000000 0.915924 0.881958
0.120697 0.915924 0.881958
0.260956 0.915924 0.881958
0.427551 0.915924 0.881958
0.587799 0.915924 0.881958
0.719482 0.915924 0.881958
0.830353 0.915924 0.881958
0.929321 0.915924 0.881958
