Project 5 - Parkour/Graphics/LUTS Instagram/Hudson.cube
#Created by: Adobe Photoshop Export Color Lookup Plugin
TITLE "Hudson"
#LUT size
LUT_3D_SIZE 32
#data domain
DOMAIN_MIN 0.0 0.0 0.0
DOMAIN_MAX 1.0 1.0 1.0
#LUT data points
0.145599 0.000000 0.000000
0.170135 0.000000 0.000000
0.195007 0.000000 0.000000
0.220612 0.000000 0.000000
0.247406 0.000000 0.000000
0.275757 0.000000 0.000000
0.306091 0.000000 0.000000
0.338379 0.000000 0.000000
0.372681 0.000000 0.000000
0.408936 0.000000 0.000000
0.447235 0.000000 0.000000
0.487427 0.000000 0.000000
0.528778 0.000000 0.000000
0.570038 0.000000 0.000000
0.610016 0.000000 0.000000
0.647308 0.000000 0.000000
0.680847 0.000000 0.000000
0.710663 0.000000 0.000000
0.737152 0.000000 0.000000
0.760834 0.000000 0.000000
0.782288 0.000000 0.000000
0.801910 0.000000 0.000000
0.820313 0.000000 0.000000
0.837982 0.000000 0.000000
0.855408 0.000000 0.000000
0.873169 0.000000 0.000000
0.891785 0.000000 0.000000
0.911621 0.000000 0.000000
0.932648 0.000000 0.000000
0.954590 0.000000 0.000000
0.977142 0.000000 0.000000
1.000000 0.000000 0.000000
0.145599 0.046051 0.000000
0.170135 0.046051 0.000000
0.195007 0.046051 0.000000
0.220612 0.046051 0.000000
0.247406 0.046051 0.000000
0.275757 0.046051 0.000000
0.306091 0.046051 0.000000
0.338379 0.046051 0.000000
0.372681 0.046051 0.000000
0.408936 0.046051 0.000000
0.447235 0.046051 0.000000
0.487427 0.046051 0.000000
0.528778 0.046051 0.000000
0.570038 0.046051 0.000000
0.610016 0.046051 0.000000
0.647308 0.046051 0.000000
0.680847 0.046051 0.000000
0.710663 0.046051 0.000000
0.737152 0.046051 0.000000
0.760834 0.046051 0.000000
0.782288 0.046051 0.000000
0.801910 0.046051 0.000000
0.820313 0.046051 0.000000
0.837982 0.046051 0.000000
0.855408 0.046051 0.000000
0.873169 0.046051 0.000000
0.891785 0.046051 0.000000
0.911621 0.046051 0.000000
0.932648 0.046051 0.000000
0.954590 0.046051 0.000000
0.977142 0.046051 0.000000
1.000000 0.046051 0.000000
0.145599 0.091980 0.000000
0.170135 0.091980 0.000000
0.195007 0.091980 0.000000
0.220612 0.091980 0.000000
0.247406 0.091980 0.000000
0.275757 0.091980 0.000000
0.306091 0.091980 0.000000
0.338379 0.091980 0.000000
0.372681 0.091980 0.000000
0.408936 0.091980 0.000000
0.447235 0.091980 0.000000
0.487427 0.091980 0.000000
0.528778 0.091980 0.000000
0.570038 0.091980 0.000000
0.610016 0.091980 0.000000
0.647308 0.091980 0.000000
0.680847 0.091980 0.000000
0.710663 0.091980 0.000000
0.737152 0.091980 0.000000
0.760834 0.091980 0.000000
0.782288 0.091980 0.000000
0.801910 0.091980 0.000000
0.820313 0.091980 0.000000
0.837982 0.091980 0.000000
0.855408 0.091980 0.000000
0.873169 0.091980 0.000000
0.891785 0.091980 0.000000
0.911621 0.091980 0.000000
0.932648 0.091980 0.000000
0.954590 0.091980 0.000000
0.977142 0.091980 0.000000
1.000000 0.091980 0.000000
0.145599 0.137512 0.000000
0.170135 0.137512 0.000000
0.195007 0.137512 0.000000
0.220612 0.137512 0.000000
0.247406 0.137512 0.000000
0.275757 0.137512 0.000000
0.306091 0.137512 0.000000
0.338379 0.137512 0.000000
0.372681 0.137512 0.000000
0.408936 0.137512 0.000000
0.447235 0.137512 0.000000
0.487427 0.137512 0.000000
0.528778 0.137512 0.000000
0.570038 0.137512 0.000000
0.610016 0.137512 0.000000
0.647308 0.137512 0.000000
0.680847 0.137512 0.000000
0.710663 0.137512 0.000000
0.737152 0.137512 0.000000
0.760834 0.137512 0.000000
0.782288 0.137512 0.000000
0.801910 0.137512 0.000000
0.820313 0.137512 0.000000
0.837982 0.137512 0.000000
0.855408 0.137512 0.000000
0.873169 0.137512 0.000000
0.891785 0.137512 0.000000
0.911621 0.137512 0.000000
0.932648 0.137512 0.000000
0.954590 0.137512 0.000000
0.977142 0.137512 0.000000
1.000000 0.137512 0.000000
0.145599 0.182404 0.000000
0.170135 0.182404 0.000000
0.195007 0.182404 0.000000
0.220612 0.182404 0.000000
0.247406 0.182404 0.000000
0.275757 0.182404 0.000000
0.306091 0.182404 0.000000
0.338379 0.182404 0.000000
0.372681 0.182404 0.000000
0.408936 0.182404 0.000000
0.447235 0.182404 0.000000
0.487427 0.182404 0.000000
0.528778 0.182404 0.000000
0.570038 0.182404 0.000000
0.610016 0.182404 0.000000
0.647308 0.182404 0.000000
0.680847 0.182404 0.000000
0.710663 0.182404 0.000000
0.737152 0.182404 0.000000
0.760834 0.182404 0.000000
0.782288 0.182404 0.000000
0.801910 0.182404 0.000000
0.820313 0.182404 0.000000
0.837982 0.182404 0.000000
0.855408 0.182404 0.000000
0.873169 0.182404 0.000000
0.891785 0.182404 0.000000
0.911621 0.182404 0.000000
0.932648 0.182404 0.000000
0.954590 0.182404 0.000000
0.977142 0.182404 0.000000
1.000000 0.182404 0.000000
0.145599 0.226593 0.000000
0.170135 0.226593 0.000000
0.195007 0.226593 0.000000
0.220612 0.226593 0.000000
0.247406 0.226593 0.000000
0.275757 0.226593 0.000000
0.306091 0.226593 0.000000
0.338379 0.226593 0.000000
0.372681 0.226593 0.000000
0.408936 0.226593 0.000000
0.447235 0.226593 0.000000
0.487427 0.226593 0.000000
0.528778 0.226593 0.000000
0.570038 0.226593 0.000000
0.610016 0.226593 0.000000
0.647308 0.226593 0.000000
0.680847 0.226593 0.000000
0.710663 0.226593 0.000000
0.737152 0.226593 0.000000
0.760834 0.226593 0.000000
0.782288 0.226593 0.000000
0.801910 0.226593 0.000000
0.820313 0.226593 0.000000
0.837982 0.226593 0.000000
0.855408 0.226593 0.000000
0.873169 0.226593 0.000000
0.891785 0.226593 0.000000
0.911621 0.226593 0.000000
0.932648 0.226593 0.000000
0.954590 0.226593 0.000000
0.977142 0.226593 0.000000
1.000000 0.226593 0.000000
0.145599 0.269897 0.000000
0.170135 0.269897 0.000000
0.195007 0.269897 0.000000
0.220612 0.269897 0.000000
0.247406 0.269897 0.000000
0.275757 0.269897 0.000000
0.306091 0.269897 0.000000
0.338379 0.269897 0.000000
0.372681 0.269897 0.000000
0.408936 0.269897 0.000000
0.447235 0.269897 0.000000
0.487427 0.269897 0.000000
0.528778 0.269897 0.000000
0.570038 0.269897 0.000000
0.610016 0.269897 0.000000
0.647308 0.269897 0.000000
0.680847 0.269897 0.000000
0.710663 0.269897 0.000000
0.737152 0.269897 0.000000
0.760834 0.269897 0.000000
0.782288 0.269897 0.000000
0.801910 0.269897 0.000000
0.820313 0.269897 0.000000
0.837982 0.269897 0.000000
0.855408 0.269897 0.000000
0.873169 0.269897 0.000000
0.891785 0.269897 0.000000
0.911621 0.269897 0.000000
0.932648 0.269897 0.000000
0.954590 0.269897 0.000000
0.977142 0.269897 0.000000
1.000000 0.269897 0.000000
0.145599 0.312256 0.000000
0.170135 0.312256 0.000000
0.195007 0.312256 0.000000
0.220612 0.312256 0.000000
0.247406 0.312256 0.000000
0.275757 0.312256 0.000000
0.306091 0.312256 0.000000
0.338379 0.312256 0.000000
0.372681 0.312256 0.000000
0.408936 0.312256 0.000000
0.447235 0.312256 0.000000
0.487427 0.312256 0.000000
0.528778 0.312256 0.000000
0.570038 0.312256 0.000000
0.610016 0.312256 0.000000
0.647308 0.312256 0.000000
0.680847 0.312256 0.000000
0.710663 0.312256 0.000000
0.737152 0.312256 0.000000
0.760834 0.312256 0.000000
0.782288 0.312256 0.000000
0.801910 0.312256 0.000000
0.820313 0.312256 0.000000
0.837982 0.312256 0.000000
0.855408 0.312256 0.000000
0.873169 0.312256 0.000000
0.891785 0.312256 0.000000
0.911621 0.312256 0.000000
0.932648 0.312256 0.000000
0.954590 0.312256 0.000000
0.977142 0.312256 0.000000
1.000000 0.312256 0.000000
0.145599 0.354034 0.000000
0.170135 0.354034 0.000000
0.195007 0.354034 0.000000
0.220612 0.354034 0.000000
0.247406 0.354034 0.000000
0.275757 0.354034 0.000000
0.306091 0.354034 0.000000
0.338379 0.354034 0.000000
0.372681 0.354034 0.000000
0.408936 0.354034 0.000000
0.447235 0.354034 0.000000
0.487427 0.354034 0.000000
0.528778 0.354034 0.000000
0.570038 0.354034 0.000000
0.610016 0.354034 0.000000
0.647308 0.354034 0.000000
0.680847 0.354034 0.000000
0.710663 0.354034 0.000000
0.737152 0.354034 0.000000
0.760834 0.354034 0.000000
0.782288 0.354034 0.000000
0.801910 0.354034 0.000000
0.820313 0.354034 0.000000
0.837982 0.354034 0.000000
0.855408 0.354034 0.000000
0.873169 0.354034 0.000000
0.891785 0.354034 0.000000
0.911621 0.354034 0.000000
0.932648 0.354034 0.000000
0.954590 0.354034 0.000000
0.977142 0.354034 0.000000
1.000000 0.354034 0.000000
0.145599 0.395416 0.000000
0.170135 0.395416 0.000000
0.195007 0.395416 0.000000
0.220612 0.395416 0.000000
0.247406 0.395416 0.000000
0.275757 0.395416 0.000000
0.306091 0.395416 0.000000
0.338379 0.395416 0.000000
0.372681 0.395416 0.000000
0.408936 0.395416 0.000000
0.447235 0.395416 0.000000
0.487427 0.395416 0.000000
0.528778 0.395416 0.000000
0.570038 0.395416 0.000000
0.610016 0.395416 0.000000
0.647308 0.395416 0.000000
0.680847 0.395416 0.000000
0.710663 0.395416 0.000000
0.737152 0.395416 0.000000
0.760834 0.395416 0.000000
0.782288 0.395416 0.000000
0.801910 0.395416 0.000000
0.820313 0.395416 0.000000
0.837982 0.395416 0.000000
0.855408 0.395416 0.000000
0.873169 0.395416 0.000000
0.891785 0.395416 0.000000
0.911621 0.395416 0.000000
0.932648 0.395416 0.000000
0.954590 0.395416 0.000000
0.977142 0.395416 0.000000
1.000000 0.395416 0.000000
0.145599 0.436676 0.000000
0.170135 0.436676 0.000000
0.195007 0.436676 0.000000
0.220612 0.436676 0.000000
0.247406 0.436676 0.000000
0.275757 0.436676 0.000000
0.306091 0.436676 0.000000
0.338379 0.436676 0.000000
0.372681 0.436676 0.000000
0.408936 0.436676 0.000000
0.447235 0.436676 0.000000
0.487427 0.436676 0.000000
0.528778 0.436676 0.000000
0.570038 0.436676 0.000000
0.610016 0.436676 0.000000
0.647308 0.436676 0.000000
0.680847 0.436676 0.000000
0.710663 0.436676 0.000000
0.737152 0.436676 0.000000
0.760834 0.436676 0.000000
0.782288 0.436676 0.000000
0.801910 0.436676 0.000000
0.820313 0.436676 0.000000
0.837982 0.436676 0.000000
0.855408 0.436676 0.000000
0.873169 0.436676 0.000000
0.891785 0.436676 0.000000
0.911621 0.436676 0.000000
0.932648 0.436676 0.000000
0.954590 0.436676 0.000000
0.977142 0.436676 0.000000
1.000000 0.436676 0.000000
0.145599 0.477936 0.000000
0.170135 0.477936 0.000000
0.195007 0.477936 0.000000
0.220612 0.477936 0.000000
0.247406 0.477936 0.000000
0.275757 0.477936 0.000000
0.306091 0.477936 0.000000
0.338379 0.477936 0.000000
0.372681 0.477936 0.000000
0.408936 0.477936 0.000000
0.447235 0.477936 0.000000
0.487427 0.477936 0.000000
0.528778 0.477936 0.000000
0.570038 0.477936 0.000000
0.610016 0.477936 0.000000
0.647308 0.477936 0.000000
0.680847 0.477936 0.000000
0.710663 0.477936 0.000000
0.737152 0.477936 0.000000
0.760834 0.477936 0.000000
0.782288 0.477936 0.000000
0.801910 0.477936 0.000000
0.820313 0.477936 0.000000
0.837982 0.477936 0.000000
0.855408 0.477936 0.000000
0.873169 0.477936 0.000000
0.891785 0.477936 0.000000
0.911621 0.477936 0.000000
0.932648 0.477936 0.000000
0.954590 0.477936 0.000000
0.977142 0.477936 0.000000
1.000000 0.477936 0.000000
0.145599 0.519470 0.000000
0.170135 0.519470 0.000000
0.195007 0.519470 0.000000
0.220612 0.519470 0.000000
0.247406 0.519470 0.000000
0.275757 0.519470 0.000000
0.306091 0.519470 0.000000
0.338379 0.519470 0.000000
0.372681 0.519470 0.000000
0.408936 0.519470 0.000000
0.447235 0.519470 0.000000
0.487427 0.519470 0.000000
0.528778 0.519470 0.000000
0.570038 0.519470 0.000000
0.610016 0.519470 0.000000
0.647308 0.519470 0.000000
0.680847 0.519470 0.000000
0.710663 0.519470 0.000000
0.737152 0.519470 0.000000
0.760834 0.519470 0.000000
0.782288 0.519470 0.000000
0.801910 0.519470 0.000000
0.820313 0.519470 0.000000
0.837982 0.519470 0.000000
0.855408 0.519470 0.000000
0.873169 0.519470 0.000000
0.891785 0.519470 0.000000
0.911621 0.519470 0.000000
0.932648 0.519470 0.000000
0.954590 0.519470 0.000000
0.977142 0.519470 0.000000
1.000000 0.519470 0.000000
0.145599 0.561371 0.000000
0.170135 0.561371 0.000000
0.195007 0.561371 0.000000
0.220612 0.561371 0.000000
0.247406 0.561371 0.000000
0.275757 0.561371 0.000000
0.306091 0.561371 0.000000
0.338379 0.561371 0.000000
0.372681 0.561371 0.000000
0.408936 0.561371 0.000000
0.447235 0.561371 0.000000
0.487427 0.561371 0.000000
0.528778 0.561371 0.000000
0.570038 0.561371 0.000000
0.610016 0.561371 0.000000
0.647308 0.561371 0.000000
0.680847 0.561371 0.000000
0.710663 0.561371 0.000000
0.737152 0.561371 0.000000
0.760834 0.561371 0.000000
0.782288 0.561371 0.000000
0.801910 0.561371 0.000000
0.820313 0.561371 0.000000
0.837982 0.561371 0.000000
0.855408 0.561371 0.000000
0.873169 0.561371 0.000000
0.891785 0.561371 0.000000
0.911621 0.561371 0.000000
0.932648 0.561371 0.000000
0.954590 0.561371 0.000000
0.977142 0.561371 0.000000
1.000000 0.561371 0.000000
0.145599 0.603180 0.000000
0.170135 0.603180 0.000000
0.195007 0.603180 0.000000
0.220612 0.603180 0.000000
0.247406 0.603180 0.000000
0.275757 0.603180 0.000000
0.306091 0.603180 0.000000
0.338379 0.603180 0.000000
0.372681 0.603180 0.000000
0.408936 0.603180 0.000000
0.447235 0.603180 0.000000
0.487427 0.603180 0.000000
0.528778 0.603180 0.000000
0.570038 0.603180 0.000000
0.610016 0.603180 0.000000
0.647308 0.603180 0.000000
0.680847 0.603180 0.000000
0.710663 0.603180 0.000000
0.737152 0.603180 0.000000
0.760834 0.603180 0.000000
0.782288 0.603180 0.000000
0.801910 0.603180 0.000000
0.820313 0.603180 0.000000
0.837982 0.603180 0.000000
0.855408 0.603180 0.000000
0.873169 0.603180 0.000000
0.891785 0.603180 0.000000
0.911621 0.603180 0.000000
0.932648 0.603180 0.000000
0.954590 0.603180 0.000000
0.977142 0.603180 0.000000
1.000000 0.603180 0.000000
0.145599 0.643524 0.000000
0.170135 0.643524 0.000000
0.195007 0.643524 0.000000
0.220612 0.643524 0.000000
0.247406 0.643524 0.000000
0.275757 0.643524 0.000000
0.306091 0.643524 0.000000
0.338379 0.643524 0.000000
0.372681 0.643524 0.000000
0.408936 0.643524 0.000000
0.447235 0.643524 0.000000
0.487427 0.643524 0.000000
0.528778 0.643524 0.000000
0.570038 0.643524 0.000000
0.610016 0.643524 0.000000
0.647308 0.643524 0.000000
0.680847 0.643524 0.000000
0.710663 0.643524 0.000000
0.737152 0.643524 0.000000
0.760834 0.643524 0.000000
0.782288 0.643524 0.000000
0.801910 0.643524 0.000000
0.820313 0.643524 0.000000
0.837982 0.643524 0.000000
0.855408 0.643524 0.000000
0.873169 0.643524 0.000000
0.891785 0.643524 0.000000
0.911621 0.643524 0.000000
0.932648 0.643524 0.000000
0.954590 0.643524 0.000000
0.977142 0.643524 0.000000
1.000000 0.643524 0.000000
0.145599 0.681183 0.000000
0.170135 0.681183 0.000000
0.195007 0.681183 0.000000
0.220612 0.681183 0.000000
0.247406 0.681183 0.000000
0.275757 0.681183 0.000000
0.306091 0.681183 0.000000
0.338379 0.681183 0.000000
0.372681 0.681183 0.000000
0.408936 0.681183 0.000000
0.447235 0.681183 0.000000
0.487427 0.681183 0.000000
0.528778 0.681183 0.000000
0.570038 0.681183 0.000000
0.610016 0.681183 0.000000
0.647308 0.681183 0.000000
0.680847 0.681183 0.000000
0.710663 0.681183 0.000000
0.737152 0.681183 0.000000
0.760834 0.681183 0.000000
0.782288 0.681183 0.000000
0.801910 0.681183 0.000000
0.820313 0.681183 0.000000
0.837982 0.681183 0.000000
0.855408 0.681183 0.000000
0.873169 0.681183 0.000000
0.891785 0.681183 0.000000
0.911621 0.681183 0.000000
0.932648 0.681183 0.000000
0.954590 0.681183 0.000000
0.977142 0.681183 0.000000
1.000000 0.681183 0.000000
0.145599 0.714630 0.000000
0.170135 0.714630 0.000000
0.195007 0.714630 0.000000
0.220612 0.714630 0.000000
0.247406 0.714630 0.000000
0.275757 0.714630 0.000000
0.306091 0.714630 0.000000
0.338379 0.714630 0.000000
0.372681 0.714630 0.000000
0.408936 0.714630 0.000000
0.447235 0.714630 0.000000
0.487427 0.714630 0.000000
0.528778 0.714630 0.000000
0.570038 0.714630 0.000000
0.610016 0.714630 0.000000
0.647308 0.714630 0.000000
0.680847 0.714630 0.000000
0.710663 0.714630 0.000000
0.737152 0.714630 0.000000
0.760834 0.714630 0.000000
0.782288 0.714630 0.000000
0.801910 0.714630 0.000000
0.820313 0.714630 0.000000
0.837982 0.714630 0.000000
0.855408 0.714630 0.000000
0.873169 0.714630 0.000000
0.891785 0.714630 0.000000
0.911621 0.714630 0.000000
0.932648 0.714630 0.000000
0.954590 0.714630 0.000000
0.977142 0.714630 0.000000
1.000000 0.714630 0.000000
0.145599 0.743042 0.000000
0.170135 0.743042 0.000000
0.195007 0.743042 0.000000
0.220612 0.743042 0.000000
0.247406 0.743042 0.000000
0.275757 0.743042 0.000000
0.306091 0.743042 0.000000
0.338379 0.743042 0.000000
0.372681 0.743042 0.000000
0.408936 0.743042 0.000000
0.447235 0.743042 0.000000
0.487427 0.743042 0.000000
0.528778 0.743042 0.000000
0.570038 0.743042 0.000000
0.610016 0.743042 0.000000
0.647308 0.743042 0.000000
0.680847 0.743042 0.000000
0.710663 0.743042 0.000000
0.737152 0.743042 0.000000
0.760834 0.743042 0.000000
0.782288 0.743042 0.000000
0.801910 0.743042 0.000000
0.820313 0.743042 0.000000
0.837982 0.743042 0.000000
0.855408 0.743042 0.000000
0.873169 0.743042 0.000000
0.891785 0.743042 0.000000
0.911621 0.743042 0.000000
0.932648 0.743042 0.000000
0.954590 0.743042 0.000000
0.977142 0.743042 0.000000
1.000000 0.743042 0.000000
0.145599 0.766785 0.000000
0.170135 0.766785 0.000000
0.195007 0.766785 0.000000
0.220612 0.766785 0.000000
0.247406 0.766785 0.000000
0.275757 0.766785 0.000000
0.306091 0.766785 0.000000
0.338379 0.766785 0.000000
0.372681 0.766785 0.000000
0.408936 0.766785 0.000000
0.447235 0.766785 0.000000
0.487427 0.766785 0.000000
0.528778 0.766785 0.000000
0.570038 0.766785 0.000000
0.610016 0.766785 0.000000
0.647308 0.766785 0.000000
0.680847 0.766785 0.000000
0.710663 0.766785 0.000000
0.737152 0.766785 0.000000
0.760834 0.766785 0.000000
0.782288 0.766785 0.000000
0.801910 0.766785 0.000000
0.820313 0.766785 0.000000
0.837982 0.766785 0.000000
0.855408 0.766785 0.000000
0.873169 0.766785 0.000000
0.891785 0.766785 0.000000
0.911621 0.766785 0.000000
0.932648 0.766785 0.000000
0.954590 0.766785 0.000000
0.977142 0.766785 0.000000
1.000000 0.766785 0.000000
0.145599 0.787018 0.000000
0.170135 0.787018 0.000000
0.195007 0.787018 0.000000
0.220612 0.787018 0.000000
0.247406 0.787018 0.000000
0.275757 0.787018 0.000000
0.306091 0.787018 0.000000
0.338379 0.787018 0.000000
0.372681 0.787018 0.000000
0.408936 0.787018 0.000000
0.447235 0.787018 0.000000
0.487427 0.787018 0.000000
0.528778 0.787018 0.000000
0.570038 0.787018 0.000000
0.610016 0.787018 0.000000
0.647308 0.787018 0.000000
0.680847 0.787018 0.000000
0.710663 0.787018 0.000000
0.737152 0.787018 0.000000
0.760834 0.787018 0.000000
0.782288 0.787018 0.000000
0.801910 0.787018 0.000000
0.820313 0.787018 0.000000
0.837982 0.787018 0.000000
0.855408 0.787018 0.000000
0.873169 0.787018 0.000000
0.891785 0.787018 0.000000
0.911621 0.787018 0.000000
0.932648 0.787018 0.000000
0.954590 0.787018 0.000000
0.977142 0.787018 0.000000
1.000000 0.787018 0.000000
0.145599 0.804901 0.000000
0.170135 0.804901 0.000000
0.195007 0.804901 0.000000
0.220612 0.804901 0.000000
0.247406 0.804901 0.000000
0.275757 0.804901 0.000000
0.306091 0.804901 0.000000
0.338379 0.804901 0.000000
0.372681 0.804901 0.000000
0.408936 0.804901 0.000000
0.447235 0.804901 0.000000
0.487427 0.804901 0.000000
0.528778 0.804901 0.000000
0.570038 0.804901 0.000000
0.610016 0.804901 0.000000
0.647308 0.804901 0.000000
0.680847 0.804901 0.000000
0.710663 0.804901 0.000000
0.737152 0.804901 0.000000
0.760834 0.804901 0.000000
0.782288 0.804901 0.000000
0.801910 0.804901 0.000000
0.820313 0.804901 0.000000
0.837982 0.804901 0.000000
0.855408 0.804901 0.000000
0.873169 0.804901 0.000000
0.891785 0.804901 0.000000
0.911621 0.804901 0.000000
0.932648 0.804901 0.000000
0.954590 0.804901 0.000000
0.977142 0.804901 0.000000
1.000000 0.804901 0.000000
0.145599 0.821472 0.000000
0.170135 0.821472 0.000000
0.195007 0.821472 0.000000
0.220612 0.821472 0.000000
0.247406 0.821472 0.000000
0.275757 0.821472 0.000000
0.306091 0.821472 0.000000
0.338379 0.821472 0.000000
0.372681 0.821472 0.000000
0.408936 0.821472 0.000000
0.447235 0.821472 0.000000
0.487427 0.821472 0.000000
0.528778 0.821472 0.000000
0.570038 0.821472 0.000000
0.610016 0.821472 0.000000
0.647308 0.821472 0.000000
0.680847 0.821472 0.000000
0.710663 0.821472 0.000000
0.737152 0.821472 0.000000
0.760834 0.821472 0.000000
0.782288 0.821472 0.000000
0.801910 0.821472 0.000000
0.820313 0.821472 0.000000
0.837982 0.821472 0.000000
0.855408 0.821472 0.000000
0.873169 0.821472 0.000000
0.891785 0.821472 0.000000
0.911621 0.821472 0.000000
0.932648 0.821472 0.000000
0.954590 0.821472 0.000000
0.977142 0.821472 0.000000
1.000000 0.821472 0.000000
0.145599 0.837860 0.000000
0.170135 0.837860 0.000000
0.195007 0.837860 0.000000
0.220612 0.837860 0.000000
0.247406 0.837860 0.000000
0.275757 0.837860 0.000000
0.306091 0.837860 0.000000
0.338379 0.837860 0.000000
0.372681 0.837860 0.000000
0.408936 0.837860 0.000000
0.447235 0.837860 0.000000
0.487427 0.837860 0.000000
0.528778 0.837860 0.000000
0.570038 0.837860 0.000000
0.610016 0.837860 0.000000
0.647308 0.837860 0.000000
0.680847 0.837860 0.000000
0.710663 0.837860 0.000000
0.737152 0.837860 0.000000
0.760834 0.837860 0.000000
0.782288 0.837860 0.000000
0.801910 0.837860 0.000000
0.820313 0.837860 0.000000
0.837982 0.837860 0.000000
0.855408 0.837860 0.000000
0.873169 0.837860 0.000000
0.891785 0.837860 0.000000
0.911621 0.837860 0.000000
0.932648 0.837860 0.000000
0.954590 0.837860 0.000000
0.977142 0.837860 0.000000
1.000000 0.837860 0.000000
0.145599 0.855103 0.000000
0.170135 0.855103 0.000000
0.195007 0.855103 0.000000
0.220612 0.855103 0.000000
0.247406 0.855103 0.000000
0.275757 0.855103 0.000000
0.306091 0.855103 0.000000
0.338379 0.855103 0.000000
0.372681 0.855103 0.000000
0.408936 0.855103 0.000000
0.447235 0.855103 0.000000
0.487427 0.855103 0.000000
0.528778 0.855103 0.000000
0.570038 0.855103 0.000000
0.610016 0.855103 0.000000
0.647308 0.855103 0.000000
0.680847 0.855103 0.000000
0.710663 0.855103 0.000000
0.737152 0.855103 0.000000
0.760834 0.855103 0.000000
0.782288 0.855103 0.000000
0.801910 0.855103 0.000000
0.820313 0.855103 0.000000
0.837982 0.855103 0.000000
0.855408 0.855103 0.000000
0.873169 0.855103 0.000000
0.891785 0.855103 0.000000
0.911621 0.855103 0.000000
0.932648 0.855103 0.000000
0.954590 0.855103 0.000000
0.977142 0.855103 0.000000
1.000000 0.855103 0.000000
0.145599 0.873535 0.000000
0.170135 0.873535 0.000000
0.195007 0.873535 0.000000
0.220612 0.873535 0.000000
0.247406 0.873535 0.000000
0.275757 0.873535 0.000000
0.306091 0.873535 0.000000
0.338379 0.873535 0.000000
0.372681 0.873535 0.000000
0.408936 0.873535 0.000000
0.447235 0.873535 0.000000
0.487427 0.873535 0.000000
0.528778 0.873535 0.000000
0.570038 0.873535 0.000000
0.610016 0.873535 0.000000
0.647308 0.873535 0.000000
0.680847 0.873535 0.000000
0.710663 0.873535 0.000000
0.737152 0.873535 0.000000
0.760834 0.873535 0.000000
0.782288 0.873535 0.000000
0.801910 0.873535 0.000000
0.820313 0.873535 0.000000
0.837982 0.873535 0.000000
0.855408 0.873535 0.000000
0.873169 0.873535 0.000000
0.891785 0.873535 0.000000
0.911621 0.873535 0.000000
0.932648 0.873535 0.000000
0.954590 0.873535 0.000000
0.977142 0.873535 0.000000
1.000000 0.873535 0.000000
0.145599 0.893005 0.000000
0.170135 0.893005 0.000000
0.195007 0.893005 0.000000
0.220612 0.893005 0.000000
0.247406 0.893005 0.000000
0.275757 0.893005 0.000000
0.306091 0.893005 0.000000
0.338379 0.893005 0.000000
0.372681 0.893005 0.000000
0.408936 0.893005 0.000000
0.447235 0.893005 0.000000
0.487427 0.893005 0.000000
0.528778 0.893005 0.000000
0.570038 0.893005 0.000000
0.610016 0.893005 0.000000
0.647308 0.893005 0.000000
0.680847 0.893005 0.000000
0.710663 0.893005 0.000000
0.737152 0.893005 0.000000
0.760834 0.893005 0.000000
0.782288 0.893005 0.000000
0.801910 0.893005 0.000000
0.820313 0.893005 0.000000
0.837982 0.893005 0.000000
0.855408 0.893005 0.000000
0.873169 0.893005 0.000000
0.891785 0.893005 0.000000
0.911621 0.893005 0.000000
0.932648 0.893005 0.000000
0.954590 0.893005 0.000000
0.977142 0.893005 0.000000
1.000000 0.893005 0.000000
0.145599 0.913361 0.000000
0.170135 0.913361 0.000000
0.195007 0.913361 0.000000
0.220612 0.913361 0.000000
0.247406 0.913361 0.000000
0.275757 0.913361 0.000000
0.306091 0.913361 0.000000
0.338379 0.913361 0.000000
0.372681 0.913361 0.000000
0.408936 0.913361 0.000000
0.447235 0.913361 0.000000
0.487427 0.913361 0.000000
0.528778 0.913361 0.000000
0.570038 0.913361 0.000000
0.610016 0.913361 0.000000
0.647308 0.913361 0.000000
0.680847 0.913361 0.000000
0.710663 0.913361 0.000000
