Project 5 - Parkour/Graphics/LUTS Instagram/Hudson.cube
#Created by: Adobe Photoshop Export Color Lookup Plugin
TITLE "Hudson"
#LUT size
LUT_3D_SIZE 5
#data domain
#LUT data points
DOMAIN_MIN 0.000000 0.000000 0.000000
DOMAIN_MAX 0.903226 0.903226 0.903226
0.145599 0.000000 0.000000
0.338379 0.000000 0.000000
0.610016 0.000000 0.000000
0.801910 0.000000 0.000000
0.932648 0.000000 0.000000
0.145599 0.312256 0.000000
0.338379 0.312256 0.000000
0.610016 0.312256 0.000000
0.801910 0.312256 0.000000
0.932648 0.312256 0.000000
0.145599 0.603180 0.000000
0.338379 0.603180 0.000000
0.610016 0.603180 0.000000
0.801910 0.603180 0.000000
0.932648 0.603180 0.000000
0.145599 0.804901 0.000000
0.338379 0.804901 0.000000
0.610016 0.804901 0.000000
0.801910 0.804901 0.000000
0.932648 0.804901 0.000000
0.145599 0.934387 0.000000
0.338379 0.934387 0.000000
0.610016 0.934387 0.000000
0.801910 0.934387 0.000000
0.932648 0.934387 0.000000
0.145599 0.000000 0.388031
0.338379 0.000000 0.388031
0.610016 0.000000 0.388031
0.801910 0.000000 0.388031
0.932648 0.000000 0.388031
0.145599 0.312256 0.388031
0.338379 0.312256 0.388031
0.610016 0.312256 0.388031
0.801910 0.312256 0.388031
0.932648 0.312256 0.388031
0.145599 0.603180 0.388031
0.338379 0.603180 0.388031
0.610016 0.603180 0.388031
0.801910 0.603180 0.388031
0.932648 0.603180 0.388031
0.145599 0.804901 0.388031
0.338379 0.804901 0.388031
0.610016 0.804901 0.388031
0.801910 0.804901 0.388031
0.932648 0.804901 0.388031
0.145599 0.934387 0.388031
0.338379 0.934387 0.388031
0.610016 0.934387 0.388031
0.801910 0.934387 0.388031
0.932648 0.934387 0.388031
0.145599 0.000000 0.715729
0.338379 0.000000 0.715729
0.610016 0.000000 0.715729
0.801910 0.000000 0.715729
0.932648 0.000000 0.715729
0.145599 0.312256 0.715729
0.338379 0.312256 0.715729
0.610016 0.312256 0.715729
0.801910 0.312256 0.715729
0.932648 0.312256 0.715729
0.145599 0.603180 0.715729
0.338379 0.603180 0.715729
0.610016 0.603180 0.715729
0.801910 0.603180 0.715729
0.932648 0.603180 0.715729
0.145599 0.804901 0.715729
0.338379 0.804901 0.715729
0.610016 0.804901 0.715729
0.801910 0.804901 0.715729
0.932648 0.804901 0.715729
0.145599 0.934387 0.715729
0.338379 0.934387 0.715729
0.610016 0.934387 0.715729
0.801910 0.934387 0.715729
0.932648 0.934387 0.715729
0.145599 0.000000 0.874603
0.338379 0.000000 0.874603
0.610016 0.000000 0.874603
0.801910 0.000000 0.874603
0.932648 0.000000 0.874603
0.145599 0.312256 0.874603
0.338379 0.312256 0.874603
0.610016 0.312256 0.874603
0.801910 0.312256 0.874603
0.932648 0.312256 0.874603
0.145599 0.603180 0.874603
0.338379 0.603180 0.874603
0.610016 0.603180 0.874603
0.801910 0.603180 0.874603
0.932648 0.603180 0.874603
0.145599 0.804901 0.874603
0.338379 0.804901 0.874603
0.610016 0.804901 0.874603
0.801910 0.804901 0.874603
0.932648 0.804901 0.874603
0.145599 0.934387 0.874603
0.338379 0.934387 0.874603
0.610016 0.934387 0.874603
0.801910 0.934387 0.874603
0.932648 0.934387 0.874603
0.145599 0.000000 0.940430
0.338379 0.000000 0.940430
0.610016 0.000000 0.940430
0.801910 0.000000 0.940430
0.932648 0.000000 0.940430
0.145599 0.312256 0.940430
0.338379 0.312256 0.940430
0.610016 0.312256 0.940430
0.801910 0.312256 0.940430
0.932648 0.312256 0.940430
0.145599 0.603180 0.940430
0.338379 0.603180 0.940430
0.610016 0.603180 0.940430
0.801910 0.603180 0.940430
0.932648 0.603180 0.940430
0.145599 0.804901 0.940430
0.338379 0.804901 0.940430
0.610016 0.804901 0.940430
0.801910 0.804901 0.940430
0.932648 0.804901 0.940430
0.145599 0.934387 0.940430
0.338379 0.934387 0.940430
0.610016 0.934387 0.940430
0.801910 0.934387 0.940430
0.932648 0.934387 0.940430
