Project 5 - Parkour/Graphics/LUTS Instagram/Hudson.cube
#Created by: Adobe Photoshop Export Color Lookup Plugin
TITLE "Hudson"
#LUT size
LUT_3D_SIZE 8
#data domain
#LUT data points
DOMAIN_MIN 0.000000 0.000000 0.000000
DOMAIN_MAX 0.903226 0.903226 0.903226
0.145599 0.000000 0.000000
0.247406 0.000000 0.000000
0.372681 0.000000 0.000000
0.528778 0.000000 0.000000
0.680847 0.000000 0.000000
0.782288 0.000000 0.000000
0.855408 0.000000 0.000000
0.932648 0.000000 0.000000
0.145599 0.182404 0.000000
0.247406 0.182404 0.000000
0.372681 0.182404 0.000000
0.528778 0.182404 0.000000
0.680847 0.182404 0.000000
0.782288 0.182404 0.000000
0.855408 0.182404 0.000000
0.932648 0.182404 0.000000
0.145599 0.354034 0.000000
0.247406 0.354034 0.000000
0.372681 0.354034 0.000000
0.528778 0.354034 0.000000
0.680847 0.354034 0.000000
0.782288 0.354034 0.000000
0.855408 0.354034 0.000000
0.932648 0.354034 0.000000
0.145599 0.519470 0.000000
0.247406 0.519470 0.000000
0.372681 0.519470 0.000000
0.528778 0.519470 0.000000
0.680847 0.519470 0.000000
0.782288 0.519470 0.000000
0.855408 0.519470 0.000000
0.932648 0.519470 0.000000
0.145599 0.681183 0.000000
0.247406 0.681183 0.000000
0.372681 0.681183 0.000000
0.528778 0.681183 0.000000
0.680847 0.681183 0.000000
0.782288 0.681183 0.000000
0.855408 0.681183 0.000000
0.932648 0.681183 0.000000
0.145599 0.787018 0.000000
0.247406 0.787018 0.000000
0.372681 0.787018 0.000000
0.528778 0.787018 0.000000
0.680847 0.787018 0.000000
0.782288 0.787018 0.000000
0.855408 0.787018 0.000000
0.932648 0.787018 0.000000
0.145599 0.855103 0.000000
0.247406 0.855103 0.000000
0.372681 0.855103 0.000000
0.528778 0.855103 0.000000
0.680847 0.855103 0.000000
0.782288 0.855103 0.000000
0.855408 0.855103 0.000000
0.932648 0.855103 0.000000
0.145599 0.934387 0.000000
0.247406 0.934387 0.000000
0.372681 0.934387 0.000000
0.528778 0.934387 0.000000
0.680847 0.934387 0.000000
0.782288 0.934387 0.000000
0.855408 0.934387 0.000000
0.932648 0.934387 0.000000
0.145599 0.000000 0.233612
0.247406 0.000000 0.233612
0.372681 0.000000 0.233612
0.528778 0.000000 0.233612
0.680847 0.000000 0.233612
0.782288 0.000000 0.233612
0.855408 0.000000 0.233612
0.932648 0.000000 0.233612
0.145599 0.182404 0.233612
0.247406 0.182404 0.233612
0.372681 0.182404 0.233612
0.528778 0.182404 0.233612
0.680847 0.182404 0.233612
0.782288 0.182404 0.233612
0.855408 0.182404 0.233612
0.932648 0.182404 0.233612
0.145599 0.354034 0.233612
0.247406 0.354034 0.233612
0.372681 0.354034 0.233612
0.528778 0.354034 0.233612
0.680847 0.354034 0.233612
0.782288 0.354034 0.233612
0.855408 0.354034 0.233612
0.932648 0.354034 0.233612
0.145599 0.519470 0.233612
0.247406 0.519470 0.233612
0.372681 0.519470 0.233612
0.528778 0.519470 0.233612
0.680847 0.519470 0.233612
0.782288 0.519470 0.233612
0.855408 0.519470 0.233612
0.932648 0.519470 0.233612
0.145599 0.681183 0.233612
0.247406 0.681183 0.233612
0.372681 0.681183 0.233612
0.528778 0.681183 0.233612
0.680847 0.681183 0.233612
0.782288 0.681183 0.233612
0.855408 0.681183 0.233612
0.932648 0.681183 0.233612
0.145599 0.787018 0.233612
0.247406 0.787018 0.233612
0.372681 0.787018 0.233612
0.528778 0.787018 0.233612
0.680847 0.787018 0.233612
0.782288 0.787018 0.233612
0.855408 0.787018 0.233612
0.932648 0.787018 0.233612
0.145599 0.855103 0.233612
0.247406 0.855103 0.233612
0.372681 0.855103 0.233612
0.528778 0.855103 0.233612
0.680847 0.855103 0.233612
0.782288 0.855103 0.233612
0.855408 0.855103 0.233612
0.932648 0.855103 0.233612
0.145599 0.934387 0.233612
0.247406 0.934387 0.233612
0.372681 0.934387 0.233612
0.528778 0.934387 0.233612
0.680847 0.934387 0.233612
0.782288 0.934387 0.233612
0.855408 0.934387 0.233612
0.932648 0.934387 0.233612
0.145599 0.000000 0.439301
0.247406 0.000000 0.439301
0.372681 0.000000 0.439301
0.528778 0.000000 0.439301
0.680847 0.000000 0.439301
0.782288 0.000000 0.439301
0.855408 0.000000 0.439301
0.932648 0.000000 0.439301
0.145599 0.182404 0.439301
0.247406 0.182404 0.439301
0.372681 0.182404 0.439301
0.528778 0.182404 0.439301
0.680847 0.182404 0.439301
0.782288 0.182404 0.439301
0.855408 0.182404 0.439301
0.932648 0.182404 0.439301
0.145599 0.354034 0.439301
0.247406 0.354034 0.439301
0.372681 0.354034 0.439301
0.528778 0.354034 0.439301
0.680847 0.354034 0.439301
0.782288 0.354034 0.439301
0.855408 0.354034 0.439301
0.932648 0.354034 0.439301
0.145599 0.519470 0.439301
0.247406 0.519470 0.439301
0.372681 0.519470 0.439301
0.528778 0.519470 0.439301
0.680847 0.519470 0.439301
0.782288 0.519470 0.439301
0.855408 0.519470 0.439301
0.932648 0.519470 0.439301
0.145599 0.681183 0.439301
0.247406 0.681183 0.439301
0.372681 0.681183 0.439301
0.528778 0.681183 0.439301
0.680847 0.681183 0.439301
0.782288 0.681183 0.439301
0.855408 0.681183 0.439301
0.932648 0.681183 0.439301
0.145599 0.787018 0.439301
0.247406 0.787018 0.439301
0.372681 0.787018 0.439301
0.528778 0.787018 0.439301
0.680847 0.787018 0.439301
0.782288 0.787018 0.439301
0.855408 0.787018 0.439301
0.932648 0.787018 0.439301
0.145599 0.855103 0.439301
0.247406 0.855103 0.439301
0.372681 0.855103 0.439301
0.528778 0.855103 0.439301
0.680847 0.855103 0.439301
0.782288 0.855103 0.439301
0.855408 0.855103 0.439301
0.932648 0.855103 0.439301
0.145599 0.934387 0.439301
0.247406 0.934387 0.439301
0.372681 0.934387 0.439301
0.528778 0.934387 0.439301
0.680847 0.934387 0.439301
0.782288 0.934387 0.439301
0.855408 0.934387 0.439301
0.932648 0.934387 0.439301
0.145599 0.000000 0.636414
0.247406 0.000000 0.636414
0.372681 0.000000 0.636414
0.528778 0.000000 0.636414
0.680847 0.000000 0.636414
0.782288 0.000000 0.636414
0.855408 0.000000 0.636414
0.932648 0.000000 0.636414
0.145599 0.182404 0.636414
0.247406 0.182404 0.636414
0.372681 0.182404 0.636414
0.528778 0.182404 0.636414
0.680847 0.182404 0.636414
0.782288 0.182404 0.636414
0.855408 0.182404 0.636414
0.932648 0.182404 0.636414
0.145599 0.354034 0.636414
0.247406 0.354034 0.636414
0.372681 0.354034 0.636414
0.528778 0.354034 0.636414
0.680847 0.354034 0.636414
0.782288 0.354034 0.636414
0.855408 0.354034 0.636414
0.932648 0.354034 0.636414
0.145599 0.519470 0.636414
0.247406 0.519470 0.636414
0.372681 0.519470 0.636414
0.528778 0.519470 0.636414
0.680847 0.519470 0.636414
0.782288 0.519470 0.636414
0.855408 0.519470 0.636414
0.932648 0.519470 0.636414
0.145599 0.681183 0.636414
0.247406 0.681183 0.636414
0.372681 0.681183 0.636414
0.528778 0.681183 0.636414
0.680847 0.681183 0.636414
0.782288 0.681183 0.636414
0.855408 0.681183 0.636414
0.932648 0.681183 0.636414
0.145599 0.787018 0.636414
0.247406 0.787018 0.636414
0.372681 0.787018 0.636414
0.528778 0.787018 0.636414
0.680847 0.787018 0.636414
0.782288 0.787018 0.636414
0.855408 0.787018 0.636414
0.932648 0.787018 0.636414
0.145599 0.855103 0.636414
0.247406 0.855103 0.636414
0.372681 0.855103 0.636414
0.528778 0.855103 0.636414
0.680847 0.855103 0.636414
0.782288 0.855103 0.636414
0.855408 0.855103 0.636414
0.932648 0.855103 0.636414
0.145599 0.934387 0.636414
0.247406 0.934387 0.636414
0.372681 0.934387 0.636414
0.528778 0.934387 0.636414
0.680847 0.934387 0.636414
0.782288 0.934387 0.636414
0.855408 0.934387 0.636414
0.932648 0.934387 0.636414
0.145599 0.000000 0.777100
0.247406 0.000000 0.777100
0.372681 0.000000 0.777100
0.528778 0.000000 0.777100
0.680847 0.000000 0.777100
0.782288 0.000000 0.777100
0.855408 0.000000 0.777100
0.932648 0.000000 0.777100
0.145599 0.182404 0.777100
0.247406 0.182404 0.777100
0.372681 0.182404 0.777100
0.528778 0.182404 0.777100
0.680847 0.182404 0.777100
0.782288 0.182404 0.777100
0.855408 0.182404 0.777100
0.932648 0.182404 0.777100
0.145599 0.354034 0.777100
0.247406 0.354034 0.777100
0.372681 0.354034 0.777100
0.528778 0.354034 0.777100
0.680847 0.354034 0.777100
0.782288 0.354034 0.777100
0.855408 0.354034 0.777100
0.932648 0.354034 0.777100
0.145599 0.519470 0.777100
0.247406 0.519470 0.777100
0.372681 0.519470 0.777100
0.528778 0.519470 0.777100
0.680847 0.519470 0.777100
0.782288 0.519470 0.777100
0.855408 0.519470 0.777100
0.932648 0.519470 0.777100
0.145599 0.681183 0.777100
0.247406 0.681183 0.777100
0.372681 0.681183 0.777100
0.528778 0.681183 0.777100
0.680847 0.681183 0.777100
0.782288 0.681183 0.777100
0.855408 0.681183 0.777100
0.932648 0.681183 0.777100
0.145599 0.787018 0.777100
0.247406 0.787018 0.777100
0.372681 0.787018 0.777100
0.528778 0.787018 0.777100
0.680847 0.787018 0.777100
0.782288 0.787018 0.777100
0.855408 0.787018 0.777100
0.932648 0.787018 0.777100
0.145599 0.855103 0.777100
0.247406 0.855103 0.777100
0.372681 0.855103 0.777100
0.528778 0.855103 0.777100
0.680847 0.855103 0.777100
0.782288 0.855103 0.777100
0.855408 0.855103 0.777100
0.932648 0.855103 0.777100
0.145599 0.934387 0.777100
0.247406 0.934387 0.777100
0.372681 0.934387 0.777100
0.528778 0.934387 0.777100
0.680847 0.934387 0.777100
0.782288 0.934387 0.777100
0.855408 0.934387 0.777100
0.932648 0.934387 0.777100
0.145599 0.000000 0.859985
0.247406 0.000000 0.859985
0.372681 0.000000 0.859985
0.528778 0.000000 0.859985
0.680847 0.000000 0.859985
0.782288 0.000000 0.859985
0.855408 0.000000 0.859985
0.932648 0.000000 0.859985
0.145599 0.182404 0.859985
0.247406 0.182404 0.859985
0.372681 0.182404 0.859985
0.528778 0.182404 0.859985
0.680847 0.182404 0.859985
0.782288 0.182404 0.859985
0.855408 0.182404 0.859985
0.932648 0.182404 0.859985
0.145599 0.354034 0.859985
0.247406 0.354034 0.859985
0.372681 0.354034 0.859985
0.528778 0.354034 0.859985
0.680847 0.354034 0.859985
0.782288 0.354034 0.859985
0.855408 0.354034 0.859985
0.932648 0.354034 0.859985
0.145599 0.519470 0.859985
0.247406 0.519470 0.859985
0.372681 0.519470 0.859985
0.528778 0.519470 0.859985
0.680847 0.519470 0.859985
0.782288 0.519470 0.859985
0.855408 0.519470 0.859985
0.932648 0.519470 0.859985
0.145599 0.681183 0.859985
0.247406 0.681183 0.859985
0.372681 0.681183 0.859985
0.528778 0.681183 0.859985
0.680847 0.681183 0.859985
0.782288 0.681183 0.859985
0.855408 0.681183 0.859985
0.932648 0.681183 0.859985
0.145599 0.787018 0.859985
0.247406 0.787018 0.859985
0.372681 0.787018 0.859985
0.528778 0.787018 0.859985
0.680847 0.787018 0.859985
0.782288 0.787018 0.859985
0.855408 0.787018 0.859985
0.932648 0.787018 0.859985
0.145599 0.855103 0.859985
0.247406 0.855103 0.859985
0.372681 0.855103 0.859985
0.528778 0.855103 0.859985
0.680847 0.855103 0.859985
0.782288 0.855103 0.859985
0.855408 0.855103 0.859985
0.932648 0.855103 0.859985
0.145599 0.934387 0.859985
0.247406 0.934387 0.859985
0.372681 0.934387 0.859985
0.528778 0.934387 0.859985
0.680847 0.934387 0.859985
0.782288 0.934387 0.859985
0.855408 0.934387 0.859985
0.932648 0.934387 0.859985
0.145599 0.000000 0.908386
0.247406 0.000000 0.908386
0.372681 0.000000 0.908386
0.528778 0.000000 0.908386
0.680847 0.000000 0.908386
0.782288 0.000000 0.908386
0.855408 0.000000 0.908386
0.932648 0.000000 0.908386
0.145599 0.182404 0.908386
0.247406 0.182404 0.908386
0.372681 0.182404 0.908386
0.528778 0.182404 0.908386
0.680847 0.182404 0.908386
0.782288 0.182404 0.908386
0.855408 0.182404 0.908386
0.932648 0.182404 0.908386
0.145599 0.354034 0.908386
0.247406 0.354034 0.908386
0.372681 0.354034 0.908386
0.528778 0.354034 0.908386
0.680847 0.354034 0.908386
0.782288 0.354034 0.908386
0.855408 0.354034 0.908386
0.932648 0.354034 0.908386
0.145599 0.519470 0.908386
0.247406 0.519470 0.908386
0.372681 0.519470 0.908386
0.528778 0.519470 0.908386
0.680847 0.519470 0.908386
0.782288 0.519470 0.908386
0.855408 0.519470 0.908386
0.932648 0.519470 0.908386
0.145599 0.681183 0.908386
0.247406 0.681183 0.908386
0.372681 0.681183 0.908386
0.528778 0.681183 0.908386
0.680847 0.681183 0.908386
0.782288 0.681183 0.908386
0.855408 0.681183 0.908386
0.932648 0.681183 0.908386
0.145599 0.787018 0.908386
0.247406 0.787018 0.908386
0.372681 0.787018 0.908386
0.528778 0.787018 0.908386
0.680847 0.787018 0.908386
0.782288 0.787018 0.908386
0.855408 0.787018 0.908386
0.932648 0.787018 0.908386
0.145599 0.855103 0.908386
0.247406 0.855103 0.908386
0.372681 0.855103 0.908386
0.528778 0.855103 0.908386
0.680847 0.855103 0.908386
0.782288 0.855103 0.908386
0.855408 0.855103 0.908386
0.932648 0.855103 0.908386
0.145599 0.934387 0.908386
0.247406 0.934387 0.908386
0.372681 0.934387 0.908386
0.528778 0.934387 0.908386
0.680847 0.934387 0.908386
0.782288 0.934387 0.908386
0.855408 0.934387 0.908386
0.932648 0.934387 0.908386
0.145599 0.000000 0.940430
0.247406 0.000000 0.940430
0.372681 0.000000 0.940430
0.528778 0.000000 0.940430
0.680847 0.000000 0.940430
0.782288 0.000000 0.940430
0.855408 0.000000 0.940430
0.932648 0.000000 0.940430
0.145599 0.182404 0.940430
0.247406 0.182404 0.940430
0.372681 0.182404 0.940430
0.528778 0.182404 0.940430
0.680847 0.182404 0.940430
0.782288 0.182404 0.940430
0.855408 0.182404 0.940430
0.932648 0.182404 0.940430
0.145599 0.354034 0.940430
0.247406 0.354034 0.940430
0.372681 0.354034 0.940430
0.528778 0.354034 0.940430
0.680847 0.354034 0.940430
0.782288 0.354034 0.940430
0.855408 0.354034 0.940430
0.932648 0.354034 0.940430
0.145599 0.519470 0.940430
0.247406 0.519470 0.940430
0.372681 0.519470 0.940430
0.528778 0.519470 0.940430
0.680847 0.519470 0.940430
0.782288 0.519470 0.940430
0.855408 0.519470 0.940430
0.932648 0.519470 0.940430
0.145599 0.681183 0.940430
0.247406 0.681183 0.940430
0.372681 0.681183 0.940430
0.528778 0.681183 0.940430
0.680847 0.681183 0.940430
0.782288 0.681183 0.940430
0.855408 0.681183 0.940430
0.932648 0.681183 0.940430
0.145599 0.787018 0.940430
0.247406 0.787018 0.940430
0.372681 0.787018 0.940430
0.528778 0.787018 0.940430
0.680847 0.787018 0.940430
0.782288 0.787018 0.940430
0.855408 0.787018 0.940430
0.932648 0.787018 0.940430
0.145599 0.855103 0.940430
0.247406 0.855103 0.940430
0.372681 0.855103 0.940430
0.528778 0.855103 0.940430
0.680847 0.855103 0.940430
0.782288 0.855103 0.940430
0.855408 0.855103 0.940430
0.932648 0.855103 0.940430
0.145599 0.934387 0.940430
0.247406 0.934387 0.940430
0.372681 0.934387 0.940430
0.528778 0.934387 0.940430
0.680847 0.934387 0.940430
0.782288 0.934387 0.940430
0.855408 0.934387 0.940430
0.932648 0.934387 0.940430
