Project 5 - Parkour/Graphics/LUTS Instagram/Lark.cube
#Created by: Adobe Photoshop Export Color Lookup Plugin
TITLE "Lark"
#LUT size
LUT_3D_SIZE 32
#data domain
DOMAIN_MIN 0.0 0.0 0.0
DOMAIN_MAX 1.0 1.0 1.0
#LUT data points
0.000000 0.025696 0.000000
0.026367 0.025696 0.000000
0.053192 0.025696 0.000000
0.080811 0.025696 0.000000
0.109619 0.025696 0.000000
0.140045 0.025696 0.000000
0.172607 0.025696 0.000000
0.207703 0.025696 0.000000
0.245361 0.025696 0.000000
0.285400 0.025696 0.000000
0.327667 0.025696 0.000000
0.371979 0.025696 0.000000
0.417999 0.025696 0.000000
0.465149 0.025696 0.000000
0.512695 0.025696 0.000000
0.559631 0.025696 0.000000
0.605377 0.025696 0.000000
0.649078 0.025696 0.000000
0.690369 0.025696 0.000000
0.729034 0.025696 0.000000
0.765076 0.025696 0.000000
0.798279 0.025696 0.000000
0.828613 0.025696 0.000000
0.855835 0.025696 0.000000
0.879822 0.025696 0.000000
0.900330 0.025696 0.000000
0.917206 0.025696 0.000000
0.930664 0.025696 0.000000
0.941528 0.025696 0.000000
0.950317 0.025696 0.000000
0.957794 0.025696 0.000000
0.964630 0.025696 0.000000
0.000000 0.048065 0.000000
0.026367 0.048065 0.000000
0.053192 0.048065 0.000000
0.080811 0.048065 0.000000
0.109619 0.048065 0.000000
0.140045 0.048065 0.000000
0.172607 0.048065 0.000000
0.207703 0.048065 0.000000
0.245361 0.048065 0.000000
0.285400 0.048065 0.000000
0.327667 0.048065 0.000000
0.371979 0.048065 0.000000
0.417999 0.048065 0.000000
0.465149 0.048065 0.000000
0.512695 0.048065 0.000000
0.559631 0.048065 0.000000
0.605377 0.048065 0.000000
0.649078 0.048065 0.000000
0.690369 0.048065 0.000000
0.729034 0.048065 0.000000
0.765076 0.048065 0.000000
0.798279 0.048065 0.000000
0.828613 0.048065 0.000000
0.855835 0.048065 0.000000
0.879822 0.048065 0.000000
0.900330 0.048065 0.000000
0.917206 0.048065 0.000000
0.930664 0.048065 0.000000
0.941528 0.048065 0.000000
0.950317 0.048065 0.000000
0.957794 0.048065 0.000000
0.964630 0.048065 0.000000
0.000000 0.071167 0.000000
0.026367 0.071167 0.000000
0.053192 0.071167 0.000000
0.080811 0.071167 0.000000
0.109619 0.071167 0.000000
0.140045 0.071167 0.000000
0.172607 0.071167 0.000000
0.207703 0.071167 0.000000
0.245361 0.071167 0.000000
0.285400 0.071167 0.000000
0.327667 0.071167 0.000000
0.371979 0.071167 0.000000
0.417999 0.071167 0.000000
0.465149 0.071167 0.000000
0.512695 0.071167 0.000000
0.559631 0.071167 0.000000
0.605377 0.071167 0.000000
0.649078 0.071167 0.000000
0.690369 0.071167 0.000000
0.729034 0.071167 0.000000
0.765076 0.071167 0.000000
0.798279 0.071167 0.000000
0.828613 0.071167 0.000000
0.855835 0.071167 0.000000
0.879822 0.071167 0.000000
0.900330 0.071167 0.000000
0.917206 0.071167 0.000000
0.930664 0.071167 0.000000
0.941528 0.071167 0.000000
0.950317 0.071167 0.000000
0.957794 0.071167 0.000000
0.964630 0.071167 0.000000
0.000000 0.095215 0.000000
0.026367 0.095215 0.000000
0.053192 0.095215 0.000000
0.080811 0.095215 0.000000
0.109619 0.095215 0.000000
0.140045 0.095215 0.000000
0.172607 0.095215 0.000000
0.207703 0.095215 0.000000
0.245361 0.095215 0.000000
0.285400 0.095215 0.000000
0.327667 0.095215 0.000000
0.371979 0.095215 0.000000
0.417999 0.095215 0.000000
0.465149 0.095215 0.000000
0.512695 0.095215 0.000000
0.559631 0.095215 0.000000
0.605377 0.095215 0.000000
0.649078 0.095215 0.000000
0.690369 0.095215 0.000000
0.729034 0.095215 0.000000
0.765076 0.095215 0.000000
0.798279 0.095215 0.000000
0.828613 0.095215 0.000000
0.855835 0.095215 0.000000
0.879822 0.095215 0.000000
0.900330 0.095215 0.000000
0.917206 0.095215 0.000000
0.930664 0.095215 0.000000
0.941528 0.095215 0.000000
0.950317 0.095215 0.000000
0.957794 0.095215 0.000000
0.964630 0.095215 0.000000
0.000000 0.120667 0.000000
0.026367 0.120667 0.000000
0.053192 0.120667 0.000000
0.080811 0.120667 0.000000
0.109619 0.120667 0.000000
0.140045 0.120667 0.000000
0.172607 0.120667 0.000000
0.207703 0.120667 0.000000
0.245361 0.120667 0.000000
0.285400 0.120667 0.000000
0.327667 0.120667 0.000000
0.371979 0.120667 0.000000
0.417999 0.120667 0.000000
0.465149 0.120667 0.000000
0.512695 0.120667 0.000000
0.559631 0.120667 0.000000
0.605377 0.120667 0.000000
0.649078 0.120667 0.000000
0.690369 0.120667 0.000000
0.729034 0.120667 0.000000
0.765076 0.120667 0.000000
0.798279 0.120667 0.000000
0.828613 0.120667 0.000000
0.855835 0.120667 0.000000
0.879822 0.120667 0.000000
0.900330 0.120667 0.000000
0.917206 0.120667 0.000000
0.930664 0.120667 0.000000
0.941528 0.120667 0.000000
0.950317 0.120667 0.000000
0.957794 0.120667 0.000000
0.964630 0.120667 0.000000
0.000000 0.147980 0.000000
0.026367 0.147980 0.000000
0.053192 0.147980 0.000000
0.080811 0.147980 0.000000
0.109619 0.147980 0.000000
0.140045 0.147980 0.000000
0.172607 0.147980 0.000000
0.207703 0.147980 0.000000
0.245361 0.147980 0.000000
0.285400 0.147980 0.000000
0.327667 0.147980 0.000000
0.371979 0.147980 0.000000
0.417999 0.147980 0.000000
0.465149 0.147980 0.000000
0.512695 0.147980 0.000000
0.559631 0.147980 0.000000
0.605377 0.147980 0.000000
0.649078 0.147980 0.000000
0.690369 0.147980 0.000000
0.729034 0.147980 0.000000
0.765076 0.147980 0.000000
0.798279 0.147980 0.000000
0.828613 0.147980 0.000000
0.855835 0.147980 0.000000
0.879822 0.147980 0.000000
0.900330 0.147980 0.000000
0.917206 0.147980 0.000000
0.930664 0.147980 0.000000
0.941528 0.147980 0.000000
0.950317 0.147980 0.000000
0.957794 0.147980 0.000000
0.964630 0.147980 0.000000
0.000000 0.177734 0.000000
0.026367 0.177734 0.000000
0.053192 0.177734 0.000000
0.080811 0.177734 0.000000
0.109619 0.177734 0.000000
0.140045 0.177734 0.000000
0.172607 0.177734 0.000000
0.207703 0.177734 0.000000
0.245361 0.177734 0.000000
0.285400 0.177734 0.000000
0.327667 0.177734 0.000000
0.371979 0.177734 0.000000
0.417999 0.177734 0.000000
0.465149 0.177734 0.000000
0.512695 0.177734 0.000000
0.559631 0.177734 0.000000
0.605377 0.177734 0.000000
0.649078 0.177734 0.000000
0.690369 0.177734 0.000000
0.729034 0.177734 0.000000
0.765076 0.177734 0.000000
0.798279 0.177734 0.000000
0.828613 0.177734 0.000000
0.855835 0.177734 0.000000
0.879822 0.177734 0.000000
0.900330 0.177734 0.000000
0.917206 0.177734 0.000000
0.930664 0.177734 0.000000
0.941528 0.177734 0.000000
0.950317 0.177734 0.000000
0.957794 0.177734 0.000000
0.964630 0.177734 0.000000
0.000000 0.210480 0.000000
0.026367 0.210480 0.000000
0.053192 0.210480 0.000000
0.080811 0.210480 0.000000
0.109619 0.210480 0.000000
0.140045 0.210480 0.000000
0.172607 0.210480 0.000000
0.207703 0.210480 0.000000
0.245361 0.210480 0.000000
0.285400 0.210480 0.000000
0.327667 0.210480 0.000000
0.371979 0.210480 0.000000
0.417999 0.210480 0.000000
0.465149 0.210480 0.000000
0.512695 0.210480 0.000000
0.559631 0.210480 0.000000
0.605377 0.210480 0.000000
0.649078 0.210480 0.000000
0.690369 0.210480 0.000000
0.729034 0.210480 0.000000
0.765076 0.210480 0.000000
0.798279 0.210480 0.000000
0.828613 0.210480 0.000000
0.855835 0.210480 0.000000
0.879822 0.210480 0.000000
0.900330 0.210480 0.000000
0.917206 0.210480 0.000000
0.930664 0.210480 0.000000
0.941528 0.210480 0.000000
0.950317 0.210480 0.000000
0.957794 0.210480 0.000000
0.964630 0.210480 0.000000
0.000000 0.246582 0.000000
0.026367 0.246582 0.000000
0.053192 0.246582 0.000000
0.080811 0.246582 0.000000
0.109619 0.246582 0.000000
0.140045 0.246582 0.000000
0.172607 0.246582 0.000000
0.207703 0.246582 0.000000
0.245361 0.246582 0.000000
0.285400 0.246582 0.000000
0.327667 0.246582 0.000000
0.371979 0.246582 0.000000
0.417999 0.246582 0.000000
0.465149 0.246582 0.000000
0.512695 0.246582 0.000000
0.559631 0.246582 0.000000
0.605377 0.246582 0.000000
0.649078 0.246582 0.000000
0.690369 0.246582 0.000000
0.729034 0.246582 0.000000
0.765076 0.246582 0.000000
0.798279 0.246582 0.000000
0.828613 0.246582 0.000000
0.855835 0.246582 0.000000
0.879822 0.246582 0.000000
0.900330 0.246582 0.000000
0.917206 0.246582 0.000000
0.930664 0.246582 0.000000
0.941528 0.246582 0.000000
0.950317 0.246582 0.000000
0.957794 0.246582 0.000000
0.964630 0.246582 0.000000
0.000000 0.286163 0.000000
0.026367 0.286163 0.000000
0.053192 0.286163 0.000000
0.080811 0.286163 0.000000
0.109619 0.286163 0.000000
0.140045 0.286163 0.000000
0.172607 0.286163 0.000000
0.207703 0.286163 0.000000
0.245361 0.286163 0.000000
0.285400 0.286163 0.000000
0.327667 0.286163 0.000000
0.371979 0.286163 0.000000
0.417999 0.286163 0.000000
0.465149 0.286163 0.000000
0.512695 0.286163 0.000000
0.559631 0.286163 0.000000
0.605377 0.286163 0.000000
0.649078 0.286163 0.000000
0.690369 0.286163 0.000000
0.729034 0.286163 0.000000
0.765076 0.286163 0.000000
0.798279 0.286163 0.000000
0.828613 0.286163 0.000000
0.855835 0.286163 0.000000
0.879822 0.286163 0.000000
0.900330 0.286163 0.000000
0.917206 0.286163 0.000000
0.930664 0.286163 0.000000
0.941528 0.286163 0.000000
0.950317 0.286163 0.000000
0.957794 0.286163 0.000000
0.964630 0.286163 0.000000
0.000000 0.329620 0.000000
0.026367 0.329620 0.000000
0.053192 0.329620 0.000000
0.080811 0.329620 0.000000
0.109619 0.329620 0.000000
0.140045 0.329620 0.000000
0.172607 0.329620 0.000000
0.207703 0.329620 0.000000
0.245361 0.329620 0.000000
0.285400 0.329620 0.000000
0.327667 0.329620 0.000000
0.371979 0.329620 0.000000
0.417999 0.329620 0.000000
0.465149 0.329620 0.000000
0.512695 0.329620 0.000000
0.559631 0.329620 0.000000
0.605377 0.329620 0.000000
0.649078 0.329620 0.000000
0.690369 0.329620 0.000000
0.729034 0.329620 0.000000
0.765076 0.329620 0.000000
0.798279 0.329620 0.000000
0.828613 0.329620 0.000000
0.855835 0.329620 0.000000
0.879822 0.329620 0.000000
0.900330 0.329620 0.000000
0.917206 0.329620 0.000000
0.930664 0.329620 0.000000
0.941528 0.329620 0.000000
0.950317 0.329620 0.000000
0.957794 0.329620 0.000000
0.964630 0.329620 0.000000
0.000000 0.376984 0.000000
0.026367 0.376984 0.000000
0.053192 0.376984 0.000000
0.080811 0.376984 0.000000
0.109619 0.376984 0.000000
0.140045 0.376984 0.000000
0.172607 0.376984 0.000000
0.207703 0.376984 0.000000
0.245361 0.376984 0.000000
0.285400 0.376984 0.000000
0.327667 0.376984 0.000000
0.371979 0.376984 0.000000
0.417999 0.376984 0.000000
0.465149 0.376984 0.000000
0.512695 0.376984 0.000000
0.559631 0.376984 0.000000
0.605377 0.376984 0.000000
0.649078 0.376984 0.000000
0.690369 0.376984 0.000000
0.729034 0.376984 0.000000
0.765076 0.376984 0.000000
0.798279 0.376984 0.000000
0.828613 0.376984 0.000000
0.855835 0.376984 0.000000
0.879822 0.376984 0.000000
0.900330 0.376984 0.000000
0.917206 0.376984 0.000000
0.930664 0.376984 0.000000
0.941528 0.376984 0.000000
0.950317 0.376984 0.000000
0.957794 0.376984 0.000000
0.964630 0.376984 0.000000
0.000000 0.428467 0.000000
0.026367 0.428467 0.000000
0.053192 0.428467 0.000000
0.080811 0.428467 0.000000
0.109619 0.428467 0.000000
0.140045 0.428467 0.000000
0.172607 0.428467 0.000000
0.207703 0.428467 0.000000
0.245361 0.428467 0.000000
0.285400 0.428467 0.000000
0.327667 0.428467 0.000000
0.371979 0.428467 0.000000
0.417999 0.428467 0.000000
0.465149 0.428467 0.000000
0.512695 0.428467 0.000000
0.559631 0.428467 0.000000
0.605377 0.428467 0.000000
0.649078 0.428467 0.000000
0.690369 0.428467 0.000000
0.729034 0.428467 0.000000
0.765076 0.428467 0.000000
0.798279 0.428467 0.000000
0.828613 0.428467 0.000000
0.855835 0.428467 0.000000
0.879822 0.428467 0.000000
0.900330 0.428467 0.000000
0.917206 0.428467 0.000000
0.930664 0.428467 0.000000
0.941528 0.428467 0.000000
0.950317 0.428467 0.000000
0.957794 0.428467 0.000000
0.964630 0.428467 0.000000
0.000000 0.483398 0.000000
0.026367 0.483398 0.000000
0.053192 0.483398 0.000000
0.080811 0.483398 0.000000
0.109619 0.483398 0.000000
0.140045 0.483398 0.000000
0.172607 0.483398 0.000000
0.207703 0.483398 0.000000
0.245361 0.483398 0.000000
0.285400 0.483398 0.000000
0.327667 0.483398 0.000000
0.371979 0.483398 0.000000
0.417999 0.483398 0.000000
0.465149 0.483398 0.000000
0.512695 0.483398 0.000000
0.559631 0.483398 0.000000
0.605377 0.483398 0.000000
0.649078 0.483398 0.000000
0.690369 0.483398 0.000000
0.729034 0.483398 0.000000
0.765076 0.483398 0.000000
0.798279 0.483398 0.000000
0.828613 0.483398 0.000000
0.855835 0.483398 0.000000
0.879822 0.483398 0.000000
0.900330 0.483398 0.000000
0.917206 0.483398 0.000000
0.930664 0.483398 0.000000
0.941528 0.483398 0.000000
0.950317 0.483398 0.000000
0.957794 0.483398 0.000000
0.964630 0.483398 0.000000
0.000000 0.540710 0.000000
0.026367 0.540710 0.000000
0.053192 0.540710 0.000000
0.080811 0.540710 0.000000
0.109619 0.540710 0.000000
0.140045 0.540710 0.000000
0.172607 0.540710 0.000000
0.207703 0.540710 0.000000
0.245361 0.540710 0.000000
0.285400 0.540710 0.000000
0.327667 0.540710 0.000000
0.371979 0.540710 0.000000
0.417999 0.540710 0.000000
0.465149 0.540710 0.000000
0.512695 0.540710 0.000000
0.559631 0.540710 0.000000
0.605377 0.540710 0.000000
0.649078 0.540710 0.000000
0.690369 0.540710 0.000000
0.729034 0.540710 0.000000
0.765076 0.540710 0.000000
0.798279 0.540710 0.000000
0.828613 0.540710 0.000000
0.855835 0.540710 0.000000
0.879822 0.540710 0.000000
0.900330 0.540710 0.000000
0.917206 0.540710 0.000000
0.930664 0.540710 0.000000
0.941528 0.540710 0.000000
0.950317 0.540710 0.000000
0.957794 0.540710 0.000000
0.964630 0.540710 0.000000
0.000000 0.598236 0.000000
0.026367 0.598236 0.000000
0.053192 0.598236 0.000000
0.080811 0.598236 0.000000
0.109619 0.598236 0.000000
0.140045 0.598236 0.000000
0.172607 0.598236 0.000000
0.207703 0.598236 0.000000
0.245361 0.598236 0.000000
0.285400 0.598236 0.000000
0.327667 0.598236 0.000000
0.371979 0.598236 0.000000
0.417999 0.598236 0.000000
0.465149 0.598236 0.000000
0.512695 0.598236 0.000000
0.559631 0.598236 0.000000
0.605377 0.598236 0.000000
0.649078 0.598236 0.000000
0.690369 0.598236 0.000000
0.729034 0.598236 0.000000
0.765076 0.598236 0.000000
0.798279 0.598236 0.000000
0.828613 0.598236 0.000000
0.855835 0.598236 0.000000
0.879822 0.598236 0.000000
0.900330 0.598236 0.000000
0.917206 0.598236 0.000000
0.930664 0.598236 0.000000
0.941528 0.598236 0.000000
0.950317 0.598236 0.000000
0.957794 0.598236 0.000000
0.964630 0.598236 0.000000
0.000000 0.653839 0.000000
0.026367 0.653839 0.000000
0.053192 0.653839 0.000000
0.080811 0.653839 0.000000
0.109619 0.653839 0.000000
0.140045 0.653839 0.000000
0.172607 0.653839 0.000000
0.207703 0.653839 0.000000
0.245361 0.653839 0.000000
0.285400 0.653839 0.000000
0.327667 0.653839 0.000000
0.371979 0.653839 0.000000
0.417999 0.653839 0.000000
0.465149 0.653839 0.000000
0.512695 0.653839 0.000000
0.559631 0.653839 0.000000
0.605377 0.653839 0.000000
0.649078 0.653839 0.000000
0.690369 0.653839 0.000000
0.729034 0.653839 0.000000
0.765076 0.653839 0.000000
0.798279 0.653839 0.000000
0.828613 0.653839 0.000000
0.855835 0.653839 0.000000
0.879822 0.653839 0.000000
0.900330 0.653839 0.000000
0.917206 0.653839 0.000000
0.930664 0.653839 0.000000
0.941528 0.653839 0.000000
0.950317 0.653839 0.000000
0.957794 0.653839 0.000000
0.964630 0.653839 0.000000
0.000000 0.705780 0.000000
0.026367 0.705780 0.000000
0.053192 0.705780 0.000000
0.080811 0.705780 0.000000
0.109619 0.705780 0.000000
0.140045 0.705780 0.000000
0.172607 0.705780 0.000000
0.207703 0.705780 0.000000
0.245361 0.705780 0.000000
0.285400 0.705780 0.000000
0.327667 0.705780 0.000000
0.371979 0.705780 0.000000
0.417999 0.705780 0.000000
0.465149 0.705780 0.000000
0.512695 0.705780 0.000000
0.559631 0.705780 0.000000
0.605377 0.705780 0.000000
0.649078 0.705780 0.000000
0.690369 0.705780 0.000000
0.729034 0.705780 0.000000
0.765076 0.705780 0.000000
0.798279 0.705780 0.000000
0.828613 0.705780 0.000000
0.855835 0.705780 0.000000
0.879822 0.705780 0.000000
0.900330 0.705780 0.000000
0.917206 0.705780 0.000000
0.930664 0.705780 0.000000
0.941528 0.705780 0.000000
0.950317 0.705780 0.000000
0.957794 0.705780 0.000000
0.964630 0.705780 0.000000
0.000000 0.753265 0.000000
0.026367 0.753265 0.000000
0.053192 0.753265 0.000000
0.080811 0.753265 0.000000
0.109619 0.753265 0.000000
0.140045 0.753265 0.000000
0.172607 0.753265 0.000000
0.207703 0.753265 0.000000
0.245361 0.753265 0.000000
0.285400 0.753265 0.000000
0.327667 0.753265 0.000000
0.371979 0.753265 0.000000
0.417999 0.753265 0.000000
0.465149 0.753265 0.000000
0.512695 0.753265 0.000000
0.559631 0.753265 0.000000
0.605377 0.753265 0.000000
0.649078 0.753265 0.000000
0.690369 0.753265 0.000000
0.729034 0.753265 0.000000
0.765076 0.753265 0.000000
0.798279 0.753265 0.000000
0.828613 0.753265 0.000000
0.855835 0.753265 0.000000
0.879822 0.753265 0.000000
0.900330 0.753265 0.000000
0.917206 0.753265 0.000000
0.930664 0.753265 0.000000
0.941528 0.753265 0.000000
0.950317 0.753265 0.000000
0.957794 0.753265 0.000000
0.964630 0.753265 0.000000
0.000000 0.795654 0.000000
0.026367 0.795654 0.000000
0.053192 0.795654 0.000000
0.080811 0.795654 0.000000
0.109619 0.795654 0.000000
0.140045 0.795654 0.000000
0.172607 0.795654 0.000000
0.207703 0.795654 0.000000
0.245361 0.795654 0.000000
0.285400 0.795654 0.000000
0.327667 0.795654 0.000000
0.371979 0.795654 0.000000
0.417999 0.795654 0.000000
0.465149 0.795654 0.000000
0.512695 0.795654 0.000000
0.559631 0.795654 0.000000
0.605377 0.795654 0.000000
0.649078 0.795654 0.000000
0.690369 0.795654 0.000000
0.729034 0.795654 0.000000
0.765076 0.795654 0.000000
0.798279 0.795654 0.000000
0.828613 0.795654 0.000000
0.855835 0.795654 0.000000
0.879822 0.795654 0.000000
0.900330 0.795654 0.000000
0.917206 0.795654 0.000000
0.930664 0.795654 0.000000
0.941528 0.795654 0.000000
0.950317 0.795654 0.000000
0.957794 0.795654 0.000000
0.964630 0.795654 0.000000
0.000000 0.832397 0.000000
0.026367 0.832397 0.000000
0.053192 0.832397 0.000000
0.080811 0.832397 0.000000
0.109619 0.832397 0.000000
0.140045 0.832397 0.000000
0.172607 0.832397 0.000000
0.207703 0.832397 0.000000
0.245361 0.832397 0.000000
0.285400 0.832397 0.000000
0.327667 0.832397 0.000000
0.371979 0.832397 0.000000
0.417999 0.832397 0.000000
0.465149 0.832397 0.000000
0.512695 0.832397 0.000000
0.559631 0.832397 0.000000
0.605377 0.832397 0.000000
0.649078 0.832397 0.000000
0.690369 0.832397 0.000000
0.729034 0.832397 0.000000
0.765076 0.832397 0.000000
0.798279 0.832397 0.000000
0.828613 0.832397 0.000000
0.855835 0.832397 0.000000
0.879822 0.832397 0.000000
0.900330 0.832397 0.000000
0.917206 0.832397 0.000000
0.930664 0.832397 0.000000
0.941528 0.832397 0.000000
0.950317 0.832397 0.000000
0.957794 0.832397 0.000000
0.964630 0.832397 0.000000
0.000000 0.863434 0.000000
0.026367 0.863434 0.000000
0.053192 0.863434 0.000000
0.080811 0.863434 0.000000
0.109619 0.863434 0.000000
0.140045 0.863434 0.000000
0.172607 0.863434 0.000000
0.207703 0.863434 0.000000
0.245361 0.863434 0.000000
0.285400 0.863434 0.000000
0.327667 0.863434 0.000000
0.371979 0.863434 0.000000
0.417999 0.863434 0.000000
0.465149 0.863434 0.000000
0.512695 0.863434 0.000000
0.559631 0.863434 0.000000
0.605377 0.863434 0.000000
0.649078 0.863434 0.000000
0.690369 0.863434 0.000000
0.729034 0.863434 0.000000
0.765076 0.863434 0.000000
0.798279 0.863434 0.000000
0.828613 0.863434 0.000000
0.855835 0.863434 0.000000
0.879822 0.863434 0.000000
0.900330 0.863434 0.000000
0.917206 0.863434 0.000000
0.930664 0.863434 0.000000
0.941528 0.863434 0.000000
0.950317 0.863434 0.000000
0.957794 0.863434 0.000000
0.964630 0.863434 0.000000
0.000000 0.888611 0.000000
0.026367 0.888611 0.000000
0.053192 0.888611 0.000000
0.080811 0.888611 0.000000
0.109619 0.888611 0.000000
0.140045 0.888611 0.000000
0.172607 0.888611 0.000000
0.207703 0.888611 0.000000
0.245361 0.888611 0.000000
0.285400 0.888611 0.000000
0.327667 0.888611 0.000000
0.371979 0.888611 0.000000
0.417999 0.888611 0.000000
0.465149 0.888611 0.000000
0.512695 0.888611 0.000000
0.559631 0.888611 0.000000
0.605377 0.888611 0.000000
0.649078 0.888611 0.000000
0.690369 0.888611 0.000000
0.729034 0.888611 0.000000
0.765076 0.888611 0.000000
0.798279 0.888611 0.000000
0.828613 0.888611 0.000000
0.855835 0.888611 0.000000
0.879822 0.888611 0.000000
0.900330 0.888611 0.000000
0.917206 0.888611 0.000000
0.930664 0.888611 0.000000
0.941528 0.888611 0.000000
0.950317 0.888611 0.000000
0.957794 0.888611 0.000000
0.964630 0.888611 0.000000
0.000000 0.908142 0.000000
0.026367 0.908142 0.000000
0.053192 0.908142 0.000000
0.080811 0.908142 0.000000
0.109619 0.908142 0.000000
0.140045 0.908142 0.000000
0.172607 0.908142 0.000000
0.207703 0.908142 0.000000
0.245361 0.908142 0.000000
0.285400 0.908142 0.000000
0.327667 0.908142 0.000000
0.371979 0.908142 0.000000
0.417999 0.908142 0.000000
0.465149 0.908142 0.000000
0.512695 0.908142 0.000000
0.559631 0.908142 0.000000
0.605377 0.908142 0.000000
0.649078 0.908142 0.000000
0.690369 0.908142 0.000000
0.729034 0.908142 0.000000
0.765076 0.908142 0.000000
0.798279 0.908142 0.000000
0.828613 0.908142 0.000000
0.855835 0.908142 0.000000
0.879822 0.908142 0.000000
0.900330 0.908142 0.000000
0.917206 0.908142 0.000000
0.930664 0.908142 0.000000
0.941528 0.908142 0.000000
0.950317 0.908142 0.000000
0.957794 0.908142 0.000000
0.964630 0.908142 0.000000
0.000000 0.922577 0.000000
0.026367 0.922577 0.000000
0.053192 0.922577 0.000000
0.080811 0.922577 0.000000
0.109619 0.922577 0.000000
0.140045 0.922577 0.000000
0.172607 0.922577 0.000000
0.207703 0.922577 0.000000
0.245361 0.922577 0.000000
0.285400 0.922577 0.000000
0.327667 0.922577 0.000000
0.371979 0.922577 0.000000
0.417999 0.922577 0.000000
0.465149 0.922577 0.000000
0.512695 0.922577 0.000000
0.559631 0.922577 0.000000
0.605377 0.922577 0.000000
0.649078 0.922577 0.000000
0.690369 0.922577 0.000000
0.729034 0.922577 0.000000
0.765076 0.922577 0.000000
0.798279 0.922577 0.000000
0.828613 0.922577 0.000000
0.855835 0.922577 0.000000
0.879822 0.922577 0.000000
0.900330 0.922577 0.000000
0.917206 0.922577 0.000000
0.930664 0.922577 0.000000
0.941528 0.922577 0.000000
0.950317 0.922577 0.000000
0.957794 0.922577 0.000000
0.964630 0.922577 0.000000
0.000000 0.933044 0.000000
0.026367 0.933044 0.000000
0.053192 0.933044 0.000000
0.080811 0.933044 0.000000
0.109619 0.933044 0.000000
0.140045 0.933044 0.000000
0.172607 0.933044 0.000000
0.207703 0.933044 0.000000
0.245361 0.933044 0.000000
0.285400 0.933044 0.000000
0.327667 0.933044 0.000000
0.371979 0.933044 0.000000
0.417999 0.933044 0.000000
0.465149 0.933044 0.000000
0.512695 0.933044 0.000000
0.559631 0.933044 0.000000
0.605377 0.933044 0.000000
0.649078 0.933044 0.000000
0.690369 0.933044 0.000000
0.729034 0.933044 0.000000
0.765076 0.933044 0.000000
0.798279 0.933044 0.000000
0.828613 0.933044 0.000000
0.855835 0.933044 0.000000
0.879822 0.933044 0.000000
0.900330 0.933044 0.000000
0.917206 0.933044 0.000000
0.930664 0.933044 0.000000
0.941528 0.933044 0.000000
0.950317 0.933044 0.000000
0.957794 0.933044 0.000000
0.964630 0.933044 0.000000
0.000000 0.940643 0.000000
0.026367 0.940643 0.000000
0.053192 0.940643 0.000000
0.080811 0.940643 0.000000
0.109619 0.940643 0.000000
0.140045 0.940643 0.000000
0.172607 0.940643 0.000000
0.207703 0.940643 0.000000
0.245361 0.940643 0.000000
0.285400 0.940643 0.000000
0.327667 0.940643 0.000000
0.371979 0.940643 0.000000
0.417999 0.940643 0.000000
0.465149 0.940643 0.000000
0.512695 0.940643 0.000000
0.559631 0.940643 0.000000
0.605377 0.940643 0.000000
0.649078 0.940643 0.000000
0.690369 0.940643 0.000000
0.729034 0.940643 0.000000
0.765076 0.940643 0.000000
0.798279 0.940643 0.000000
0.828613 0.940643 0.000000
0.855835 0.940643 0.000000
0.879822 0.940643 0.000000
0.900330 0.940643 0.000000
0.917206 0.940643 0.000000
0.930664 0.940643 0.000000
0.941528 0.940643 0.000000
0.950317 0.940643 0.000000
0.957794 0.940643 0.000000
0.964630 0.940643 0.000000
0.000000 0.946075 0.000000
0.026367 0.946075 0.000000
0.053192 0.946075 0.000000
0.080811 0.946075 0.000000
0.109619 0.946075 0.000000
0.140045 0.946075 0.000000
0.172607 0.946075 0.000000
0.207703 0.946075 0.000000
0.245361 0.946075 0.000000
0.285400 0.946075 0.000000
0.327667 0.946075 0.000000
0.371979 0.946075 0.000000
0.417999 0.946075 0.000000
0.465149 0.946075 0.000000
0.512695 0.946075 0.000000
0.559631 0.946075 0.000000
0.605377 0.946075 0.000000
0.649078 0.946075 0.000000
