Project 5 - Parkour/Graphics/LUTS Instagram/Lark.cube
#Created by: Adobe Photoshop Export Color Lookup Plugin
TITLE "Lark"
#LUT size
LUT_3D_SIZE 8
#data domain
#LUT data points
DOMAIN_MIN 0.000000 0.000000 0.000000
DOMAIN_MAX 0.903226 0.903226 0.903226
0.000000 0.025696 0.000000
0.109619 0.025696 0.000000
0.245361 0.025696 0.000000
0.417999 0.025696 0.000000
0.605377 0.025696 0.000000
0.765076 0.025696 0.000000
0.879822 0.025696 0.000000
0.941528 0.025696 0.000000
0.000000 0.120667 0.000000
0.109619 0.120667 0.000000
0.245361 0.120667 0.000000
0.417999 0.120667 0.000000
0.605377 0.120667 0.000000
0.765076 0.120667 0.000000
0.879822 0.120667 0.000000
0.941528 0.120667 0.000000
0.000000 0.246582 0.000000
0.109619 0.246582 0.000000
0.245361 0.246582 0.000000
0.417999 0.246582 0.000000
0.605377 0.246582 0.000000
0.765076 0.246582 0.000000
0.879822 0.246582 0.000000
0.941528 0.246582 0.000000
0.000000 0.428467 0.000000
0.109619 0.428467 0.000000
0.245361 0.428467 0.000000
0.417999 0.428467 0.000000
0.605377 0.428467 0.000000
0.765076 0.428467 0.000000
0.879822 0.428467 0.000000
0.941528 0.428467 0.000000
0.000000 0.653839 0.000000
0.109619 0.653839 0.000000
0.245361 0.653839 0.000000
0.417999 0.653839 0.000000
0.605377 0.653839 0.000000
0.765076 0.653839 0.000000
0.879822 0.653839 0.000000
0.941528 0.653839 0.000000
0.000000 0.832397 0.000000
0.109619 0.832397 0.000000
0.245361 0.832397 0.000000
0.417999 0.832397 0.000000
0.605377 0.832397 0.000000
0.765076 0.832397 0.000000
0.879822 0.832397 0.000000
0.941528 0.832397 0.000000
0.000000 0.922577 0.000000
0.109619 0.922577 0.000000
0.245361 0.922577 0.000000
0.417999 0.922577 0.000000
0.605377 0.922577 0.000000
0.765076 0.922577 0.000000
0.879822 0.922577 0.000000
0.941528 0.922577 0.000000
0.000000 0.950073 0.000000
0.109619 0.950073 0.000000
0.245361 0.950073 0.000000
0.417999 0.950073 0.000000
0.605377 0.950073 0.000000
0.765076 0.950073 0.000000
0.879822 0.950073 0.000000
0.941528 0.950073 0.000000
0.000000 0.025696 0.109619
0.109619 0.025696 0.109619
0.245361 0.025696 0.109619
0.417999 0.025696 0.109619
0.605377 0.025696 0.109619
0.765076 0.025696 0.109619
0.879822 0.025696 0.109619
0.941528 0.025696 0.109619
0.000000 0.120667 0.109619
0.109619 0.120667 0.109619
0.245361 0.120667 0.109619
0.417999 0.120667 0.109619
0.605377 0.120667 0.109619
0.765076 0.120667 0.109619
0.879822 0.120667 0.109619
0.941528 0.120667 0.109619
0.000000 0.246582 0.109619
0.109619 0.246582 0.109619
0.245361 0.246582 0.109619
0.417999 0.246582 0.109619
0.605377 0.246582 0.109619
0.765076 0.246582 0.109619
0.879822 0.246582 0.109619
0.941528 0.246582 0.109619
0.000000 0.428467 0.109619
0.109619 0.428467 0.109619
0.245361 0.428467 0.109619
0.417999 0.428467 0.109619
0.605377 0.428467 0.109619
0.765076 0.428467 0.109619
0.879822 0.428467 0.109619
0.941528 0.428467 0.109619
0.000000 0.653839 0.109619
0.109619 0.653839 0.109619
0.245361 0.653839 0.109619
0.417999 0.653839 0.109619
0.605377 0.653839 0.109619
0.765076 0.653839 0.109619
0.879822 0.653839 0.109619
0.941528 0.653839 0.109619
0.000000 0.832397 0.109619
0.109619 0.832397 0.109619
0.245361 0.832397 0.109619
0.417999 0.832397 0.109619
0.605377 0.832397 0.109619
0.765076 0.832397 0.109619
0.879822 0.832397 0.109619
0.941528 0.832397 0.109619
0.000000 0.922577 0.109619
0.109619 0.922577 0.109619
0.245361 0.922577 0.109619
0.417999 0.922577 0.109619
0.605377 0.922577 0.109619
0.765076 0.922577 0.109619
0.879822 0.922577 0.109619
0.941528 0.922577 0.109619
0.000000 0.950073 0.109619
0.109619 0.950073 0.109619
0.245361 0.950073 0.109619
0.417999 0.950073 0.109619
0.605377 0.950073 0.109619
0.765076 0.950073 0.109619
0.879822 0.950073 0.109619
0.941528 0.950073 0.109619
0.000000 0.025696 0.245361
0.109619 0.025696 0.245361
0.245361 0.025696 0.245361
0.417999 0.025696 0.245361
0.605377 0.025696 0.245361
0.765076 0.025696 0.245361
0.879822 0.025696 0.245361
0.941528 0.025696 0.245361
0.000000 0.120667 0.245361
0.109619 0.120667 0.245361
0.245361 0.120667 0.245361
0.417999 0.120667 0.245361
0.605377 0.120667 0.245361
0.765076 0.120667 0.245361
0.879822 0.120667 0.245361
0.941528 0.120667 0.245361
0.000000 0.246582 0.245361
0.109619 0.246582 0.245361
0.245361 0.246582 0.245361
0.417999 0.246582 0.245361
0.605377 0.246582 0.245361
0.765076 0.246582 0.245361
0.879822 0.246582 0.245361
0.941528 0.246582 0.245361
0.000000 0.428467 0.245361
0.109619 0.428467 0.245361
0.245361 0.428467 0.245361
0.417999 0.428467 0.245361
0.605377 0.428467 0.245361
0.765076 0.428467 0.245361
0.879822 0.428467 0.245361
0.941528 0.428467 0.245361
0.000000 0.653839 0.245361
0.109619 0.653839 0.245361
0.245361 0.653839 0.245361
0.417999 0.653839 0.245361
0.605377 0.653839 0.245361
0.765076 0.653839 0.245361
0.879822 0.653839 0.245361
0.941528 0.653839 0.245361
0.000000 0.832397 0.245361
0.109619 0.832397 0.245361
0.245361 0.832397 0.245361
0.417999 0.832397 0.245361
0.605377 0.832397 0.245361
0.765076 0.832397 0.245361
0.879822 0.832397 0.245361
0.941528 0.832397 0.245361
0.000000 0.922577 0.245361
0.109619 0.922577 0.245361
0.245361 0.922577 0.245361
0.417999 0.922577 0.245361
0.605377 0.922577 0.245361
0.765076 0.922577 0.245361
0.879822 0.922577 0.245361
0.941528 0.922577 0.245361
0.000000 0.950073 0.245361
0.109619 0.950073 0.245361
0.245361 0.950073 0.245361
0.417999 0.950073 0.245361
0.605377 0.950073 0.245361
0.765076 0.950073 0.245361
0.879822 0.950073 0.245361
0.941528 0.950073 0.245361
0.000000 0.025696 0.417999
0.109619 0.025696 0.417999
0.245361 0.025696 0.417999
0.417999 0.025696 0.417999
0.605377 0.025696 0.417999
0.765076 0.025696 0.417999
0.879822 0.025696 0.417999
0.941528 0.025696 0.417999
0.000000 0.120667 0.417999
0.109619 0.120667 0.417999
0.245361 0.120667 0.417999
0.417999 0.120667 0.417999
0.605377 0.120667 0.417999
0.765076 0.120667 0.417999
0.879822 0.120667 0.417999
0.941528 0.120667 0.417999
0.000000 0.246582 0.417999
0.109619 0.246582 0.417999
0.245361 0.246582 0.417999
0.417999 0.246582 0.417999
0.605377 0.246582 0.417999
0.765076 0.246582 0.417999
0.879822 0.246582 0.417999
0.941528 0.246582 0.417999
0.000000 0.428467 0.417999
0.109619 0.428467 0.417999
0.245361 0.428467 0.417999
0.417999 0.428467 0.417999
0.605377 0.428467 0.417999
0.765076 0.428467 0.417999
0.879822 0.428467 0.417999
0.941528 0.428467 0.417999
0.000000 0.653839 0.417999
0.109619 0.653839 0.417999
0.245361 0.653839 0.417999
0.417999 0.653839 0.417999
0.605377 0.653839 0.417999
0.765076 0.653839 0.417999
0.879822 0.653839 0.417999
0.941528 0.653839 0.417999
0.000000 0.832397 0.417999
0.109619 0.832397 0.417999
0.245361 0.832397 0.417999
0.417999 0.832397 0.417999
0.605377 0.832397 0.417999
0.765076 0.832397 0.417999
0.879822 0.832397 0.417999
0.941528 0.832397 0.417999
0.000000 0.922577 0.417999
0.109619 0.922577 0.417999
0.245361 0.922577 0.417999
0.417999 0.922577 0.417999
0.605377 0.922577 0.417999
0.765076 0.922577 0.417999
0.879822 0.922577 0.417999
0.941528 0.922577 0.417999
0.000000 0.950073 0.417999
0.109619 0.950073 0.417999
0.245361 0.950073 0.417999
0.417999 0.950073 0.417999
0.605377 0.950073 0.417999
0.765076 0.950073 0.417999
0.879822 0.950073 0.417999
0.941528 0.950073 0.417999
0.000000 0.025696 0.605377
0.109619 0.025696 0.605377
0.245361 0.025696 0.605377
0.417999 0.025696 0.605377
0.605377 0.025696 0.605377
0.765076 0.025696 0.605377
0.879822 0.025696 0.605377
0.941528 0.025696 0.605377
0.000000 0.120667 0.605377
0.109619 0.120667 0.605377
0.245361 0.120667 0.605377
0.417999 0.120667 0.605377
0.605377 0.120667 0.605377
0.765076 0.120667 0.605377
0.879822 0.120667 0.605377
0.941528 0.120667 0.605377
0.000000 0.246582 0.605377
0.109619 0.246582 0.605377
0.245361 0.246582 0.605377
0.417999 0.246582 0.605377
0.605377 0.246582 0.605377
0.765076 0.246582 0.605377
0.879822 0.246582 0.605377
0.941528 0.246582 0.605377
0.000000 0.428467 0.605377
0.109619 0.428467 0.605377
0.245361 0.428467 0.605377
0.417999 0.428467 0.605377
0.605377 0.428467 0.605377
0.765076 0.428467 0.605377
0.879822 0.428467 0.605377
0.941528 0.428467 0.605377
0.000000 0.653839 0.605377
0.109619 0.653839 0.605377
0.245361 0.653839 0.605377
0.417999 0.653839 0.605377
0.605377 0.653839 0.605377
0.765076 0.653839 0.605377
0.879822 0.653839 0.605377
0.941528 0.653839 0.605377
0.000000 0.832397 0.605377
0.109619 0.832397 0.605377
0.245361 0.832397 0.605377
0.417999 0.832397 0.605377
0.605377 0.832397 0.605377
0.765076 0.832397 0.605377
0.879822 0.832397 0.605377
0.941528 0.832397 0.605377
0.000000 0.922577 0.605377
0.109619 0.922577 0.605377
0.245361 0.922577 0.605377
0.417999 0.922577 0.605377
0.605377 0.922577 0.605377
0.765076 0.922577 0.605377
0.879822 0.922577 0.605377
0.941528 0.922577 0.605377
0.000000 0.950073 0.605377
0.109619 0.950073 0.605377
0.245361 0.950073 0.605377
0.417999 0.950073 0.605377
0.605377 0.950073 0.605377
0.765076 0.950073 0.605377
0.879822 0.950073 0.605377
0.941528 0.950073 0.605377
0.000000 0.025696 0.765076
0.109619 0.025696 0.765076
0.245361 0.025696 0.765076
0.417999 0.025696 0.765076
0.605377 0.025696 0.765076
0.765076 0.025696 0.765076
0.879822 0.025696 0.765076
0.941528 0.025696 0.765076
0.000000 0.120667 0.765076
0.109619 0.120667 0.765076
0.245361 0.120667 0.765076
0.417999 0.120667 0.765076
0.605377 0.120667 0.765076
0.765076 0.120667 0.765076
0.879822 0.120667 0.765076
0.941528 0.120667 0.765076
0.000000 0.246582 0.765076
0.109619 0.246582 0.765076
0.245361 0.246582 0.765076
0.417999 0.246582 0.765076
0.605377 0.246582 0.765076
0.765076 0.246582 0.765076
0.879822 0.246582 0.765076
0.941528 0.246582 0.765076
0.000000 0.428467 0.765076
0.109619 0.428467 0.765076
0.245361 0.428467 0.765076
0.417999 0.428467 0.765076
0.605377 0.428467 0.765076
0.765076 0.428467 0.765076
0.879822 0.428467 0.765076
0.941528 0.428467 0.765076
0.000000 0.653839 0.765076
0.109619 0.653839 0.765076
0.245361 0.653839 0.765076
0.417999 0.653839 0.765076
0.605377 0.653839 0.765076
0.765076 0.653839 0.765076
0.879822 0.653839 0.765076
0.941528 0.653839 0.765076
0.000000 0.832397 0.765076
0.109619 0.832397 0.765076
0.245361 0.832397 0.765076
0.417999 0.832397 0.765076
0.605377 0.832397 0.765076
0.765076 0.832397 0.765076
0.879822 0.832397 0.765076
0.941528 0.832397 0.765076
0.000000 0.922577 0.765076
0.109619 0.922577 0.765076
0.245361 0.922577 0.765076
0.417999 0.922577 0.765076
0.605377 0.922577 0.765076
0.765076 0.922577 0.765076
0.879822 0.922577 0.765076
0.941528 0.922577 0.765076
0.000000 0.950073 0.765076
0.109619 0.950073 0.765076
0.245361 0.950073 0.765076
0.417999 0.950073 0.765076
0.605377 0.950073 0.765076
0.765076 0.950073 0.765076
0.879822 0.950073 0.765076
0.941528 0.950073 0.765076
0.000000 0.025696 0.879822
0.109619 0.025696 0.879822
0.245361 0.025696 0.879822
0.417999 0.025696 0.879822
0.605377 0.025696 0.879822
0.765076 0.025696 0.879822
0.879822 0.025696 0.879822
0.941528 0.025696 0.879822
0.000000 0.120667 0.879822
0.109619 0.120667 0.879822
0.245361 0.120667 0.879822
0.417999 0.120667 0.879822
0.605377 0.120667 0.879822
0.765076 0.120667 0.879822
0.879822 0.120667 0.879822
0.941528 0.120667 0.879822
0.000000 0.246582 0.879822
0.109619 0.246582 0.879822
0.245361 0.246582 0.879822
0.417999 0.246582 0.879822
0.605377 0.246582 0.879822
0.765076 0.246582 0.879822
0.879822 0.246582 0.879822
0.941528 0.246582 0.879822
0.000000 0.428467 0.879822
0.109619 0.428467 0.879822
0.245361 0.428467 0.879822
0.417999 0.428467 0.879822
0.605377 0.428467 0.879822
0.765076 0.428467 0.879822
0.879822 0.428467 0.879822
0.941528 0.428467 0.879822
0.000000 0.653839 0.879822
0.109619 0.653839 0.879822
0.245361 0.653839 0.879822
0.417999 0.653839 0.879822
0.605377 0.653839 0.879822
0.765076 0.653839 0.879822
0.879822 0.653839 0.879822
0.941528 0.653839 0.879822
0.000000 0.832397 0.879822
0.109619 0.832397 0.879822
0.245361 0.832397 0.879822
0.417999 0.832397 0.879822
0.605377 0.832397 0.879822
0.765076 0.832397 0.879822
0.879822 0.832397 0.879822
0.941528 0.832397 0.879822
0.000000 0.922577 0.879822
0.109619 0.922577 0.879822
0.245361 0.922577 0.879822
0.417999 0.922577 0.879822
0.605377 0.922577 0.879822
0.765076 0.922577 0.879822
0.879822 0.922577 0.879822
0.941528 0.922577 0.879822
0.000000 0.950073 0.879822
0.109619 0.950073 0.879822
0.245361 0.950073 0.879822
0.417999 0.950073 0.879822
0.605377 0.950073 0.879822
0.765076 0.950073 0.879822
0.879822 0.950073 0.879822
0.941528 0.950073 0.879822
0.000000 0.025696 0.941528
0.109619 0.025696 0.941528
0.245361 0.025696 0.941528
0.417999 0.025696 0.941528
0.605377 0.025696 0.941528
0.765076 0.025696 0.941528
0.879822 0.025696 0.941528
0.941528 0.025696 0.941528
0.000000 0.120667 0.941528
0.109619 0.120667 0.941528
0.245361 0.120667 0.941528
0.417999 0.120667 0.941528
0.605377 0.120667 0.941528
0.765076 0.120667 0.941528
0.879822 0.120667 0.941528
0.941528 0.120667 0.941528
0.000000 0.246582 0.941528
0.109619 0.246582 0.941528
0.245361 0.246582 0.941528
0.417999 0.246582 0.941528
0.605377 0.246582 0.941528
0.765076 0.246582 0.941528
0.879822 0.246582 0.941528
0.941528 0.246582 0.941528
0.000000 0.428467 0.941528
0.109619 0.428467 0.941528
0.245361 0.428467 0.941528
0.417999 0.428467 0.941528
0.605377 0.428467 0.941528
0.765076 0.428467 0.941528
0.879822 0.428467 0.941528
0.941528 0.428467 0.941528
0.000000 0.653839 0.941528
0.109619 0.653839 0.941528
0.245361 0.653839 0.941528
0.417999 0.653839 0.941528
0.605377 0.653839 0.941528
0.765076 0.653839 0.941528
0.879822 0.653839 0.941528
0.941528 0.653839 0.941528
0.000000 0.832397 0.941528
0.109619 0.832397 0.941528
0.245361 0.832397 0.941528
0.417999 0.832397 0.941528
0.605377 0.832397 0.941528
0.765076 0.832397 0.941528
0.879822 0.832397 0.941528
0.941528 0.832397 0.941528
0.000000 0.922577 0.941528
0.109619 0.922577 0.941528
0.245361 0.922577 0.941528
0.417999 0.922577 0.941528
0.605377 0.922577 0.941528
0.765076 0.922577 0.941528
0.879822 0.922577 0.941528
0.941528 0.922577 0.941528
0.000000 0.950073 0.941528
0.109619 0.950073 0.941528
0.245361 0.950073 0.941528
0.417999 0.950073 0.941528
0.605377 0.950073 0.941528
0.765076 0.950073 0.941528
0.879822 0.950073 0.941528
0.941528 0.950073 0.941528
