Project 5 - Parkour/Graphics/LUTS Instagram/Lark.cube
#Created by: Adobe Photoshop Export Color Lookup Plugin
TITLE "Lark"
#LUT size
LUT_3D_SIZE 5
#data domain
#LUT data points
DOMAIN_MIN 0.000000 0.000000 0.000000
DOMAIN_MAX 0.903226 0.903226 0.903226
0.000000 0.025696 0.000000
0.207703 0.025696 0.000000
0.512695 0.025696 0.000000
0.798279 0.025696 0.000000
0.941528 0.025696 0.000000
0.000000 0.210480 0.000000
0.207703 0.210480 0.000000
0.512695 0.210480 0.000000
0.798279 0.210480 0.000000
0.941528 0.210480 0.000000
0.000000 0.540710 0.000000
0.207703 0.540710 0.000000
0.512695 0.540710 0.000000
0.798279 0.540710 0.000000
0.941528 0.540710 0.000000
0.000000 0.863434 0.000000
0.207703 0.863434 0.000000
0.512695 0.863434 0.000000
0.798279 0.863434 0.000000
0.941528 0.863434 0.000000
0.000000 0.950073 0.000000
0.207703 0.950073 0.000000
0.512695 0.950073 0.000000
0.798279 0.950073 0.000000
0.941528 0.950073 0.000000
0.000000 0.025696 0.207703
0.207703 0.025696 0.207703
0.512695 0.025696 0.207703
0.798279 0.025696 0.207703
0.941528 0.025696 0.207703
0.000000 0.210480 0.207703
0.207703 0.210480 0.207703
0.512695 0.210480 0.207703
0.798279 0.210480 0.207703
0.941528 0.210480 0.207703
0.000000 0.540710 0.207703
0.207703 0.540710 0.207703
0.512695 0.540710 0.207703
0.798279 0.540710 0.207703
0.941528 0.540710 0.207703
0.000000 0.863434 0.207703
0.207703 0.863434 0.207703
0.512695 0.863434 0.207703
0.798279 0.863434 0.207703
0.941528 0.863434 0.207703
0.000000 0.950073 0.207703
0.207703 0.950073 0.207703
0.512695 0.950073 0.207703
0.798279 0.950073 0.207703
0.941528 0.950073 0.207703
0.000000 0.025696 0.512695
0.207703 0.025696 0.512695
0.512695 0.025696 0.512695
0.798279 0.025696 0.512695
0.941528 0.025696 0.512695
0.000000 0.210480 0.512695
0.207703 0.210480 0.512695
0.512695 0.210480 0.512695
0.798279 0.210480 0.512695
0.941528 0.210480 0.512695
0.000000 0.540710 0.512695
0.207703 0.540710 0.512695
0.512695 0.540710 0.512695
0.798279 0.540710 0.512695
0.941528 0.540710 0.512695
0.000000 0.863434 0.512695
0.207703 0.863434 0.512695
0.512695 0.863434 0.512695
0.798279 0.863434 0.512695
0.941528 0.863434 0.512695
0.000000 0.950073 0.512695
0.207703 0.950073 0.512695
0.512695 0.950073 0.512695
0.798279 0.950073 0.512695
0.941528 0.950073 0.512695
0.000000 0.025696 0.798279
0.207703 0.025696 0.798279
0.512695 0.025696 0.798279
0.798279 0.025696 0.798279
0.941528 0.025696 0.798279
0.000000 0.210480 0.798279
0.207703 0.210480 0.798279
0.512695 0.210480 0.798279
0.798279 0.210480 0.798279
0.941528 0.210480 0.798279
0.000000 0.540710 0.798279
0.207703 0.540710 0.798279
0.512695 0.540710 0.798279
0.798279 0.540710 0.798279
0.941528 0.540710 0.798279
0.000000 0.863434 0.798279
0.207703 0.863434 0.798279
0.512695 0.863434 0.798279
0.798279 0.863434 0.798279
0.941528 0.863434 0.798279
0.000000 0.950073 0.798279
0.207703 0.950073 0.798279
0.512695 0.950073 0.798279
0.798279 0.950073 0.798279
0.941528 0.950073 0.798279
0.000000 0.025696 0.941528
0.207703 0.025696 0.941528
0.512695 0.025696 0.941528
0.798279 0.025696 0.941528
0.941528 0.025696 0.941528
0.000000 0.210480 0.941528
0.207703 0.210480 0.941528
0.512695 0.210480 0.941528
0.798279 0.210480 0.941528
0.941528 0.210480 0.941528
0.000000 0.540710 0.941528
0.207703 0.540710 0.941528
0.512695 0.540710 0.941528
0.798279 0.540710 0.941528
0.941528 0.540710 0.941528
0.000000 0.863434 0.941528
0.207703 0.863434 0.941528
0.512695 0.863434 0.941528
0.798279 0.863434 0.941528
0.941528 0.863434 0.941528
0.000000 0.950073 0.941528
0.207703 0.950073 0.941528
0.512695 0.950073 0.941528
0.798279 0.950073 0.941528
0.941528 0.950073 0.941528
