Project 5 - Parkour/Graphics/LUTS Instagram/Lo-Fi.cube
#Created by: Adobe Photoshop Export Color Lookup Plugin
TITLE "Lo-Fi"
#LUT size
LUT_3D_SIZE 8
#data domain
#LUT data points
DOMAIN_MIN 0.000000 0.000000 0.000000
DOMAIN_MAX 0.903226 0.903226 0.903226
0.000000 0.000000 0.000000
0.056580 0.000000 0.000000
0.177277 0.000000 0.000000
0.373566 0.000000 0.000000
0.587952 0.000000 0.000000
0.736298 0.000000 0.000000
0.847443 0.000000 0.000000
0.927490 0.000000 0.000000
0.000000 0.053314 0.000000
0.056580 0.053314 0.000000
0.177277 0.053314 0.000000
0.373566 0.053314 0.000000
0.587952 0.053314 0.000000
0.736298 0.053314 0.000000
0.847443 0.053314 0.000000
0.927490 0.053314 0.000000
0.000000 0.128845 0.000000
0.056580 0.128845 0.000000
0.177277 0.128845 0.000000
0.373566 0.128845 0.000000
0.587952 0.128845 0.000000
0.736298 0.128845 0.000000
0.847443 0.128845 0.000000
0.927490 0.128845 0.000000
0.000000 0.340240 0.000000
0.056580 0.340240 0.000000
0.177277 0.340240 0.000000
0.373566 0.340240 0.000000
0.587952 0.340240 0.000000
0.736298 0.340240 0.000000
0.847443 0.340240 0.000000
0.927490 0.340240 0.000000
0.000000 0.592896 0.000000
0.056580 0.592896 0.000000
0.177277 0.592896 0.000000
0.373566 0.592896 0.000000
0.587952 0.592896 0.000000
0.736298 0.592896 0.000000
0.847443 0.592896 0.000000
0.927490 0.592896 0.000000
0.000000 0.750183 0.000000
0.056580 0.750183 0.000000
0.177277 0.750183 0.000000
0.373566 0.750183 0.000000
0.587952 0.750183 0.000000
0.736298 0.750183 0.000000
0.847443 0.750183 0.000000
0.927490 0.750183 0.000000
0.000000 0.849152 0.000000
0.056580 0.849152 0.000000
0.177277 0.849152 0.000000
0.373566 0.849152 0.000000
0.587952 0.849152 0.000000
0.736298 0.849152 0.000000
0.847443 0.849152 0.000000
0.927490 0.849152 0.000000
0.000000 0.919983 0.000000
0.056580 0.919983 0.000000
0.177277 0.919983 0.000000
0.373566 0.919983 0.000000
0.587952 0.919983 0.000000
0.736298 0.919983 0.000000
0.847443 0.919983 0.000000
0.927490 0.919983 0.000000
0.000000 0.000000 0.098053
0.056580 0.000000 0.098053
0.177277 0.000000 0.098053
0.373566 0.000000 0.098053
0.587952 0.000000 0.098053
0.736298 0.000000 0.098053
0.847443 0.000000 0.098053
0.927490 0.000000 0.098053
0.000000 0.053314 0.098053
0.056580 0.053314 0.098053
0.177277 0.053314 0.098053
0.373566 0.053314 0.098053
0.587952 0.053314 0.098053
0.736298 0.053314 0.098053
0.847443 0.053314 0.098053
0.927490 0.053314 0.098053
0.000000 0.128845 0.098053
0.056580 0.128845 0.098053
0.177277 0.128845 0.098053
0.373566 0.128845 0.098053
0.587952 0.128845 0.098053
0.736298 0.128845 0.098053
0.847443 0.128845 0.098053
0.927490 0.128845 0.098053
0.000000 0.340240 0.098053
0.056580 0.340240 0.098053
0.177277 0.340240 0.098053
0.373566 0.340240 0.098053
0.587952 0.340240 0.098053
0.736298 0.340240 0.098053
0.847443 0.340240 0.098053
0.927490 0.340240 0.098053
0.000000 0.592896 0.098053
0.056580 0.592896 0.098053
0.177277 0.592896 0.098053
0.373566 0.592896 0.098053
0.587952 0.592896 0.098053
0.736298 0.592896 0.098053
0.847443 0.592896 0.098053
0.927490 0.592896 0.098053
0.000000 0.750183 0.098053
0.056580 0.750183 0.098053
0.177277 0.750183 0.098053
0.373566 0.750183 0.098053
0.587952 0.750183 0.098053
0.736298 0.750183 0.098053
0.847443 0.750183 0.098053
0.927490 0.750183 0.098053
0.000000 0.849152 0.098053
0.056580 0.849152 0.098053
0.177277 0.849152 0.098053
0.373566 0.849152 0.098053
0.587952 0.849152 0.098053
0.736298 0.849152 0.098053
0.847443 0.849152 0.098053
0.927490 0.849152 0.098053
0.000000 0.919983 0.098053
0.056580 0.919983 0.098053
0.177277 0.919983 0.098053
0.373566 0.919983 0.098053
0.587952 0.919983 0.098053
0.736298 0.919983 0.098053
0.847443 0.919983 0.098053
0.927490 0.919983 0.098053
0.000000 0.000000 0.201660
0.056580 0.000000 0.201660
0.177277 0.000000 0.201660
0.373566 0.000000 0.201660
0.587952 0.000000 0.201660
0.736298 0.000000 0.201660
0.847443 0.000000 0.201660
0.927490 0.000000 0.201660
0.000000 0.053314 0.201660
0.056580 0.053314 0.201660
0.177277 0.053314 0.201660
0.373566 0.053314 0.201660
0.587952 0.053314 0.201660
0.736298 0.053314 0.201660
0.847443 0.053314 0.201660
0.927490 0.053314 0.201660
0.000000 0.128845 0.201660
0.056580 0.128845 0.201660
0.177277 0.128845 0.201660
0.373566 0.128845 0.201660
0.587952 0.128845 0.201660
0.736298 0.128845 0.201660
0.847443 0.128845 0.201660
0.927490 0.128845 0.201660
0.000000 0.340240 0.201660
0.056580 0.340240 0.201660
0.177277 0.340240 0.201660
0.373566 0.340240 0.201660
0.587952 0.340240 0.201660
0.736298 0.340240 0.201660
0.847443 0.340240 0.201660
0.927490 0.340240 0.201660
0.000000 0.592896 0.201660
0.056580 0.592896 0.201660
0.177277 0.592896 0.201660
0.373566 0.592896 0.201660
0.587952 0.592896 0.201660
0.736298 0.592896 0.201660
0.847443 0.592896 0.201660
0.927490 0.592896 0.201660
0.000000 0.750183 0.201660
0.056580 0.750183 0.201660
0.177277 0.750183 0.201660
0.373566 0.750183 0.201660
0.587952 0.750183 0.201660
0.736298 0.750183 0.201660
0.847443 0.750183 0.201660
0.927490 0.750183 0.201660
0.000000 0.849152 0.201660
0.056580 0.849152 0.201660
0.177277 0.849152 0.201660
0.373566 0.849152 0.201660
0.587952 0.849152 0.201660
0.736298 0.849152 0.201660
0.847443 0.849152 0.201660
0.927490 0.849152 0.201660
0.000000 0.919983 0.201660
0.056580 0.919983 0.201660
0.177277 0.919983 0.201660
0.373566 0.919983 0.201660
0.587952 0.919983 0.201660
0.736298 0.919983 0.201660
0.847443 0.919983 0.201660
0.927490 0.919983 0.201660
0.000000 0.000000 0.351257
0.056580 0.000000 0.351257
0.177277 0.000000 0.351257
0.373566 0.000000 0.351257
0.587952 0.000000 0.351257
0.736298 0.000000 0.351257
0.847443 0.000000 0.351257
0.927490 0.000000 0.351257
0.000000 0.053314 0.351257
0.056580 0.053314 0.351257
0.177277 0.053314 0.351257
0.373566 0.053314 0.351257
0.587952 0.053314 0.351257
0.736298 0.053314 0.351257
0.847443 0.053314 0.351257
0.927490 0.053314 0.351257
0.000000 0.128845 0.351257
0.056580 0.128845 0.351257
0.177277 0.128845 0.351257
0.373566 0.128845 0.351257
0.587952 0.128845 0.351257
0.736298 0.128845 0.351257
0.847443 0.128845 0.351257
0.927490 0.128845 0.351257
0.000000 0.340240 0.351257
0.056580 0.340240 0.351257
0.177277 0.340240 0.351257
0.373566 0.340240 0.351257
0.587952 0.340240 0.351257
0.736298 0.340240 0.351257
0.847443 0.340240 0.351257
0.927490 0.340240 0.351257
0.000000 0.592896 0.351257
0.056580 0.592896 0.351257
0.177277 0.592896 0.351257
0.373566 0.592896 0.351257
0.587952 0.592896 0.351257
0.736298 0.592896 0.351257
0.847443 0.592896 0.351257
0.927490 0.592896 0.351257
0.000000 0.750183 0.351257
0.056580 0.750183 0.351257
0.177277 0.750183 0.351257
0.373566 0.750183 0.351257
0.587952 0.750183 0.351257
0.736298 0.750183 0.351257
0.847443 0.750183 0.351257
0.927490 0.750183 0.351257
0.000000 0.849152 0.351257
0.056580 0.849152 0.351257
0.177277 0.849152 0.351257
0.373566 0.849152 0.351257
0.587952 0.849152 0.351257
0.736298 0.849152 0.351257
0.847443 0.849152 0.351257
0.927490 0.849152 0.351257
0.000000 0.919983 0.351257
0.056580 0.919983 0.351257
0.177277 0.919983 0.351257
0.373566 0.919983 0.351257
0.587952 0.919983 0.351257
0.736298 0.919983 0.351257
0.847443 0.919983 0.351257
0.927490 0.919983 0.351257
0.000000 0.000000 0.596344
0.056580 0.000000 0.596344
0.177277 0.000000 0.596344
0.373566 0.000000 0.596344
0.587952 0.000000 0.596344
0.736298 0.000000 0.596344
0.847443 0.000000 0.596344
0.927490 0.000000 0.596344
0.000000 0.053314 0.596344
0.056580 0.053314 0.596344
0.177277 0.053314 0.596344
0.373566 0.053314 0.596344
0.587952 0.053314 0.596344
0.736298 0.053314 0.596344
0.847443 0.053314 0.596344
0.927490 0.053314 0.596344
0.000000 0.128845 0.596344
0.056580 0.128845 0.596344
0.177277 0.128845 0.596344
0.373566 0.128845 0.596344
0.587952 0.128845 0.596344
0.736298 0.128845 0.596344
0.847443 0.128845 0.596344
0.927490 0.128845 0.596344
0.000000 0.340240 0.596344
0.056580 0.340240 0.596344
0.177277 0.340240 0.596344
0.373566 0.340240 0.596344
0.587952 0.340240 0.596344
0.736298 0.340240 0.596344
0.847443 0.340240 0.596344
0.927490 0.340240 0.596344
0.000000 0.592896 0.596344
0.056580 0.592896 0.596344
0.177277 0.592896 0.596344
0.373566 0.592896 0.596344
0.587952 0.592896 0.596344
0.736298 0.592896 0.596344
0.847443 0.592896 0.596344
0.927490 0.592896 0.596344
0.000000 0.750183 0.596344
0.056580 0.750183 0.596344
0.177277 0.750183 0.596344
0.373566 0.750183 0.596344
0.587952 0.750183 0.596344
0.736298 0.750183 0.596344
0.847443 0.750183 0.596344
0.927490 0.750183 0.596344
0.000000 0.849152 0.596344
0.056580 0.849152 0.596344
0.177277 0.849152 0.596344
0.373566 0.849152 0.596344
0.587952 0.849152 0.596344
0.736298 0.849152 0.596344
0.847443 0.849152 0.596344
0.927490 0.849152 0.596344
0.000000 0.919983 0.596344
0.056580 0.919983 0.596344
0.177277 0.919983 0.596344
0.373566 0.919983 0.596344
0.587952 0.919983 0.596344
0.736298 0.919983 0.596344
0.847443 0.919983 0.596344
0.927490 0.919983 0.596344
0.000000 0.000000 0.747040
0.056580 0.000000 0.747040
0.177277 0.000000 0.747040
0.373566 0.000000 0.747040
0.587952 0.000000 0.747040
0.736298 0.000000 0.747040
0.847443 0.000000 0.747040
0.927490 0.000000 0.747040
0.000000 0.053314 0.747040
0.056580 0.053314 0.747040
0.177277 0.053314 0.747040
0.373566 0.053314 0.747040
0.587952 0.053314 0.747040
0.736298 0.053314 0.747040
0.847443 0.053314 0.747040
0.927490 0.053314 0.747040
0.000000 0.128845 0.747040
0.056580 0.128845 0.747040
0.177277 0.128845 0.747040
0.373566 0.128845 0.747040
0.587952 0.128845 0.747040
0.736298 0.128845 0.747040
0.847443 0.128845 0.747040
0.927490 0.128845 0.747040
0.000000 0.340240 0.747040
0.056580 0.340240 0.747040
0.177277 0.340240 0.747040
0.373566 0.340240 0.747040
0.587952 0.340240 0.747040
0.736298 0.340240 0.747040
0.847443 0.340240 0.747040
0.927490 0.340240 0.747040
0.000000 0.592896 0.747040
0.056580 0.592896 0.747040
0.177277 0.592896 0.747040
0.373566 0.592896 0.747040
0.587952 0.592896 0.747040
0.736298 0.592896 0.747040
0.847443 0.592896 0.747040
0.927490 0.592896 0.747040
0.000000 0.750183 0.747040
0.056580 0.750183 0.747040
0.177277 0.750183 0.747040
0.373566 0.750183 0.747040
0.587952 0.750183 0.747040
0.736298 0.750183 0.747040
0.847443 0.750183 0.747040
0.927490 0.750183 0.747040
0.000000 0.849152 0.747040
0.056580 0.849152 0.747040
0.177277 0.849152 0.747040
0.373566 0.849152 0.747040
0.587952 0.849152 0.747040
0.736298 0.849152 0.747040
0.847443 0.849152 0.747040
0.927490 0.849152 0.747040
0.000000 0.919983 0.747040
0.056580 0.919983 0.747040
0.177277 0.919983 0.747040
0.373566 0.919983 0.747040
0.587952 0.919983 0.747040
0.736298 0.919983 0.747040
0.847443 0.919983 0.747040
0.927490 0.919983 0.747040
0.000000 0.000000 0.852478
0.056580 0.000000 0.852478
0.177277 0.000000 0.852478
0.373566 0.000000 0.852478
0.587952 0.000000 0.852478
0.736298 0.000000 0.852478
0.847443 0.000000 0.852478
0.927490 0.000000 0.852478
0.000000 0.053314 0.852478
0.056580 0.053314 0.852478
0.177277 0.053314 0.852478
0.373566 0.053314 0.852478
0.587952 0.053314 0.852478
0.736298 0.053314 0.852478
0.847443 0.053314 0.852478
0.927490 0.053314 0.852478
0.000000 0.128845 0.852478
0.056580 0.128845 0.852478
0.177277 0.128845 0.852478
0.373566 0.128845 0.852478
0.587952 0.128845 0.852478
0.736298 0.128845 0.852478
0.847443 0.128845 0.852478
0.927490 0.128845 0.852478
0.000000 0.340240 0.852478
0.056580 0.340240 0.852478
0.177277 0.340240 0.852478
0.373566 0.340240 0.852478
0.587952 0.340240 0.852478
0.736298 0.340240 0.852478
0.847443 0.340240 0.852478
0.927490 0.340240 0.852478
0.000000 0.592896 0.852478
0.056580 0.592896 0.852478
0.177277 0.592896 0.852478
0.373566 0.592896 0.852478
0.587952 0.592896 0.852478
0.736298 0.592896 0.852478
0.847443 0.592896 0.852478
0.927490 0.592896 0.852478
0.000000 0.750183 0.852478
0.056580 0.750183 0.852478
0.177277 0.750183 0.852478
0.373566 0.750183 0.852478
0.587952 0.750183 0.852478
0.736298 0.750183 0.852478
0.847443 0.750183 0.852478
0.927490 0.750183 0.852478
0.000000 0.849152 0.852478
0.056580 0.849152 0.852478
0.177277 0.849152 0.852478
0.373566 0.849152 0.852478
0.587952 0.849152 0.852478
0.736298 0.849152 0.852478
0.847443 0.849152 0.852478
0.927490 0.849152 0.852478
0.000000 0.919983 0.852478
0.056580 0.919983 0.852478
0.177277 0.919983 0.852478
0.373566 0.919983 0.852478
0.587952 0.919983 0.852478
0.736298 0.919983 0.852478
0.847443 0.919983 0.852478
0.927490 0.919983 0.852478
0.000000 0.000000 0.923248
0.056580 0.000000 0.923248
0.177277 0.000000 0.923248
0.373566 0.000000 0.923248
0.587952 0.000000 0.923248
0.736298 0.000000 0.923248
0.847443 0.000000 0.923248
0.927490 0.000000 0.923248
0.000000 0.053314 0.923248
0.056580 0.053314 0.923248
0.177277 0.053314 0.923248
0.373566 0.053314 0.923248
0.587952 0.053314 0.923248
0.736298 0.053314 0.923248
0.847443 0.053314 0.923248
0.927490 0.053314 0.923248
0.000000 0.128845 0.923248
0.056580 0.128845 0.923248
0.177277 0.128845 0.923248
0.373566 0.128845 0.923248
0.587952 0.128845 0.923248
0.736298 0.128845 0.923248
0.847443 0.128845 0.923248
0.927490 0.128845 0.923248
0.000000 0.340240 0.923248
0.056580 0.340240 0.923248
0.177277 0.340240 0.923248
0.373566 0.340240 0.923248
0.587952 0.340240 0.923248
0.736298 0.340240 0.923248
0.847443 0.340240 0.923248
0.927490 0.340240 0.923248
0.000000 0.592896 0.923248
0.056580 0.592896 0.923248
0.177277 0.592896 0.923248
0.373566 0.592896 0.923248
0.587952 0.592896 0.923248
0.736298 0.592896 0.923248
0.847443 0.592896 0.923248
0.927490 0.592896 0.923248
0.000000 0.750183 0.923248
0.056580 0.750183 0.923248
0.177277 0.750183 0.923248
0.373566 0.750183 0.923248
0.587952 0.750183 0.923248
0.736298 0.750183 0.923248
0.847443 0.750183 0.923248
0.927490 0.750183 0.923248
0.000000 0.849152 0.923248
0.056580 0.849152 0.923248
0.177277 0.849152 0.923248
0.373566 0.849152 0.923248
0.587952 0.849152 0.923248
0.736298 0.849152 0.923248
0.847443 0.849152 0.923248
0.927490 0.849152 0.923248
0.000000 0.919983 0.923248
0.056580 0.919983 0.923248
0.177277 0.919983 0.923248
0.373566 0.919983 0.923248
0.587952 0.919983 0.923248
0.736298 0.919983 0.923248
0.847443 0.919983 0.923248
0.927490 0.919983 0.923248
