Project 5 - Parkour/Graphics/LUTS Instagram/Lo-Fi.cube
#Created by: Adobe Photoshop Export Color Lookup Plugin
TITLE "Lo-Fi"
#LUT size
LUT_3D_SIZE 32
#data domain
DOMAIN_MIN 0.0 0.0 0.0
DOMAIN_MAX 1.0 1.0 1.0
#LUT data points
0.000000 0.000000 0.000000
0.011353 0.000000 0.000000
0.023834 0.000000 0.000000
0.038574 0.000000 0.000000
0.056580 0.000000 0.000000
0.079041 0.000000 0.000000
0.106689 0.000000 0.000000
0.139526 0.000000 0.000000
0.177277 0.000000 0.000000
0.219849 0.000000 0.000000
0.267059 0.000000 0.000000
0.318573 0.000000 0.000000
0.373566 0.000000 0.000000
0.430084 0.000000 0.000000
0.486084 0.000000 0.000000
0.539368 0.000000 0.000000
0.587952 0.000000 0.000000
0.631104 0.000000 0.000000
0.669617 0.000000 0.000000
0.704376 0.000000 0.000000
0.736298 0.000000 0.000000
0.766327 0.000000 0.000000
0.794983 0.000000 0.000000
0.822083 0.000000 0.000000
0.847443 0.000000 0.000000
0.870850 0.000000 0.000000
0.892120 0.000000 0.000000
0.911041 0.000000 0.000000
0.927490 0.000000 0.000000
0.941406 0.000000 0.000000
0.953522 0.000000 0.000000
0.964691 0.000000 0.000000
0.000000 0.013245 0.000000
0.011353 0.013245 0.000000
0.023834 0.013245 0.000000
0.038574 0.013245 0.000000
0.056580 0.013245 0.000000
0.079041 0.013245 0.000000
0.106689 0.013245 0.000000
0.139526 0.013245 0.000000
0.177277 0.013245 0.000000
0.219849 0.013245 0.000000
0.267059 0.013245 0.000000
0.318573 0.013245 0.000000
0.373566 0.013245 0.000000
0.430084 0.013245 0.000000
0.486084 0.013245 0.000000
0.539368 0.013245 0.000000
0.587952 0.013245 0.000000
0.631104 0.013245 0.000000
0.669617 0.013245 0.000000
0.704376 0.013245 0.000000
0.736298 0.013245 0.000000
0.766327 0.013245 0.000000
0.794983 0.013245 0.000000
0.822083 0.013245 0.000000
0.847443 0.013245 0.000000
0.870850 0.013245 0.000000
0.892120 0.013245 0.000000
0.911041 0.013245 0.000000
0.927490 0.013245 0.000000
0.941406 0.013245 0.000000
0.953522 0.013245 0.000000
0.964691 0.013245 0.000000
0.000000 0.026520 0.000000
0.011353 0.026520 0.000000
0.023834 0.026520 0.000000
0.038574 0.026520 0.000000
0.056580 0.026520 0.000000
0.079041 0.026520 0.000000
0.106689 0.026520 0.000000
0.139526 0.026520 0.000000
0.177277 0.026520 0.000000
0.219849 0.026520 0.000000
0.267059 0.026520 0.000000
0.318573 0.026520 0.000000
0.373566 0.026520 0.000000
0.430084 0.026520 0.000000
0.486084 0.026520 0.000000
0.539368 0.026520 0.000000
0.587952 0.026520 0.000000
0.631104 0.026520 0.000000
0.669617 0.026520 0.000000
0.704376 0.026520 0.000000
0.736298 0.026520 0.000000
0.766327 0.026520 0.000000
0.794983 0.026520 0.000000
0.822083 0.026520 0.000000
0.847443 0.026520 0.000000
0.870850 0.026520 0.000000
0.892120 0.026520 0.000000
0.911041 0.026520 0.000000
0.927490 0.026520 0.000000
0.941406 0.026520 0.000000
0.953522 0.026520 0.000000
0.964691 0.026520 0.000000
0.000000 0.039886 0.000000
0.011353 0.039886 0.000000
0.023834 0.039886 0.000000
0.038574 0.039886 0.000000
0.056580 0.039886 0.000000
0.079041 0.039886 0.000000
0.106689 0.039886 0.000000
0.139526 0.039886 0.000000
0.177277 0.039886 0.000000
0.219849 0.039886 0.000000
0.267059 0.039886 0.000000
0.318573 0.039886 0.000000
0.373566 0.039886 0.000000
0.430084 0.039886 0.000000
0.486084 0.039886 0.000000
0.539368 0.039886 0.000000
0.587952 0.039886 0.000000
0.631104 0.039886 0.000000
0.669617 0.039886 0.000000
0.704376 0.039886 0.000000
0.736298 0.039886 0.000000
0.766327 0.039886 0.000000
0.794983 0.039886 0.000000
0.822083 0.039886 0.000000
0.847443 0.039886 0.000000
0.870850 0.039886 0.000000
0.892120 0.039886 0.000000
0.911041 0.039886 0.000000
0.927490 0.039886 0.000000
0.941406 0.039886 0.000000
0.953522 0.039886 0.000000
0.964691 0.039886 0.000000
0.000000 0.053314 0.000000
0.011353 0.053314 0.000000
0.023834 0.053314 0.000000
0.038574 0.053314 0.000000
0.056580 0.053314 0.000000
0.079041 0.053314 0.000000
0.106689 0.053314 0.000000
0.139526 0.053314 0.000000
0.177277 0.053314 0.000000
0.219849 0.053314 0.000000
0.267059 0.053314 0.000000
0.318573 0.053314 0.000000
0.373566 0.053314 0.000000
0.430084 0.053314 0.000000
0.486084 0.053314 0.000000
0.539368 0.053314 0.000000
0.587952 0.053314 0.000000
0.631104 0.053314 0.000000
0.669617 0.053314 0.000000
0.704376 0.053314 0.000000
0.736298 0.053314 0.000000
0.766327 0.053314 0.000000
0.794983 0.053314 0.000000
0.822083 0.053314 0.000000
0.847443 0.053314 0.000000
0.870850 0.053314 0.000000
0.892120 0.053314 0.000000
0.911041 0.053314 0.000000
0.927490 0.053314 0.000000
0.941406 0.053314 0.000000
0.953522 0.053314 0.000000
0.964691 0.053314 0.000000
0.000000 0.067108 0.000000
0.011353 0.067108 0.000000
0.023834 0.067108 0.000000
0.038574 0.067108 0.000000
0.056580 0.067108 0.000000
0.079041 0.067108 0.000000
0.106689 0.067108 0.000000
0.139526 0.067108 0.000000
0.177277 0.067108 0.000000
0.219849 0.067108 0.000000
0.267059 0.067108 0.000000
0.318573 0.067108 0.000000
0.373566 0.067108 0.000000
0.430084 0.067108 0.000000
0.486084 0.067108 0.000000
0.539368 0.067108 0.000000
0.587952 0.067108 0.000000
0.631104 0.067108 0.000000
0.669617 0.067108 0.000000
0.704376 0.067108 0.000000
0.736298 0.067108 0.000000
0.766327 0.067108 0.000000
0.794983 0.067108 0.000000
0.822083 0.067108 0.000000
0.847443 0.067108 0.000000
0.870850 0.067108 0.000000
0.892120 0.067108 0.000000
0.911041 0.067108 0.000000
0.927490 0.067108 0.000000
0.941406 0.067108 0.000000
0.953522 0.067108 0.000000
0.964691 0.067108 0.000000
0.000000 0.082794 0.000000
0.011353 0.082794 0.000000
0.023834 0.082794 0.000000
0.038574 0.082794 0.000000
0.056580 0.082794 0.000000
0.079041 0.082794 0.000000
0.106689 0.082794 0.000000
0.139526 0.082794 0.000000
0.177277 0.082794 0.000000
0.219849 0.082794 0.000000
0.267059 0.082794 0.000000
0.318573 0.082794 0.000000
0.373566 0.082794 0.000000
0.430084 0.082794 0.000000
0.486084 0.082794 0.000000
0.539368 0.082794 0.000000
0.587952 0.082794 0.000000
0.631104 0.082794 0.000000
0.669617 0.082794 0.000000
0.704376 0.082794 0.000000
0.736298 0.082794 0.000000
0.766327 0.082794 0.000000
0.794983 0.082794 0.000000
0.822083 0.082794 0.000000
0.847443 0.082794 0.000000
0.870850 0.082794 0.000000
0.892120 0.082794 0.000000
0.911041 0.082794 0.000000
0.927490 0.082794 0.000000
0.941406 0.082794 0.000000
0.953522 0.082794 0.000000
0.964691 0.082794 0.000000
0.000000 0.102631 0.000000
0.011353 0.102631 0.000000
0.023834 0.102631 0.000000
0.038574 0.102631 0.000000
0.056580 0.102631 0.000000
0.079041 0.102631 0.000000
0.106689 0.102631 0.000000
0.139526 0.102631 0.000000
0.177277 0.102631 0.000000
0.219849 0.102631 0.000000
0.267059 0.102631 0.000000
0.318573 0.102631 0.000000
0.373566 0.102631 0.000000
0.430084 0.102631 0.000000
0.486084 0.102631 0.000000
0.539368 0.102631 0.000000
0.587952 0.102631 0.000000
0.631104 0.102631 0.000000
0.669617 0.102631 0.000000
0.704376 0.102631 0.000000
0.736298 0.102631 0.000000
0.766327 0.102631 0.000000
0.794983 0.102631 0.000000
0.822083 0.102631 0.000000
0.847443 0.102631 0.000000
0.870850 0.102631 0.000000
0.892120 0.102631 0.000000
0.911041 0.102631 0.000000
0.927490 0.102631 0.000000
0.941406 0.102631 0.000000
0.953522 0.102631 0.000000
0.964691 0.102631 0.000000
0.000000 0.128845 0.000000
0.011353 0.128845 0.000000
0.023834 0.128845 0.000000
0.038574 0.128845 0.000000
0.056580 0.128845 0.000000
0.079041 0.128845 0.000000
0.106689 0.128845 0.000000
0.139526 0.128845 0.000000
0.177277 0.128845 0.000000
0.219849 0.128845 0.000000
0.267059 0.128845 0.000000
0.318573 0.128845 0.000000
0.373566 0.128845 0.000000
0.430084 0.128845 0.000000
0.486084 0.128845 0.000000
0.539368 0.128845 0.000000
0.587952 0.128845 0.000000
0.631104 0.128845 0.000000
0.669617 0.128845 0.000000
0.704376 0.128845 0.000000
0.736298 0.128845 0.000000
0.766327 0.128845 0.000000
0.794983 0.128845 0.000000
0.822083 0.128845 0.000000
0.847443 0.128845 0.000000
0.870850 0.128845 0.000000
0.892120 0.128845 0.000000
0.911041 0.128845 0.000000
0.927490 0.128845 0.000000
0.941406 0.128845 0.000000
0.953522 0.128845 0.000000
0.964691 0.128845 0.000000
0.000000 0.163788 0.000000
0.011353 0.163788 0.000000
0.023834 0.163788 0.000000
0.038574 0.163788 0.000000
0.056580 0.163788 0.000000
0.079041 0.163788 0.000000
0.106689 0.163788 0.000000
0.139526 0.163788 0.000000
0.177277 0.163788 0.000000
0.219849 0.163788 0.000000
0.267059 0.163788 0.000000
0.318573 0.163788 0.000000
0.373566 0.163788 0.000000
0.430084 0.163788 0.000000
0.486084 0.163788 0.000000
0.539368 0.163788 0.000000
0.587952 0.163788 0.000000
0.631104 0.163788 0.000000
0.669617 0.163788 0.000000
0.704376 0.163788 0.000000
0.736298 0.163788 0.000000
0.766327 0.163788 0.000000
0.794983 0.163788 0.000000
0.822083 0.163788 0.000000
0.847443 0.163788 0.000000
0.870850 0.163788 0.000000
0.892120 0.163788 0.000000
0.911041 0.163788 0.000000
0.927490 0.163788 0.000000
0.941406 0.163788 0.000000
0.953522 0.163788 0.000000
0.964691 0.163788 0.000000
0.000000 0.209747 0.000000
0.011353 0.209747 0.000000
0.023834 0.209747 0.000000
0.038574 0.209747 0.000000
0.056580 0.209747 0.000000
0.079041 0.209747 0.000000
0.106689 0.209747 0.000000
0.139526 0.209747 0.000000
0.177277 0.209747 0.000000
0.219849 0.209747 0.000000
0.267059 0.209747 0.000000
0.318573 0.209747 0.000000
0.373566 0.209747 0.000000
0.430084 0.209747 0.000000
0.486084 0.209747 0.000000
0.539368 0.209747 0.000000
0.587952 0.209747 0.000000
0.631104 0.209747 0.000000
0.669617 0.209747 0.000000
0.704376 0.209747 0.000000
0.736298 0.209747 0.000000
0.766327 0.209747 0.000000
0.794983 0.209747 0.000000
0.822083 0.209747 0.000000
0.847443 0.209747 0.000000
0.870850 0.209747 0.000000
0.892120 0.209747 0.000000
0.911041 0.209747 0.000000
0.927490 0.209747 0.000000
0.941406 0.209747 0.000000
0.953522 0.209747 0.000000
0.964691 0.209747 0.000000
0.000000 0.268890 0.000000
0.011353 0.268890 0.000000
0.023834 0.268890 0.000000
0.038574 0.268890 0.000000
0.056580 0.268890 0.000000
0.079041 0.268890 0.000000
0.106689 0.268890 0.000000
0.139526 0.268890 0.000000
0.177277 0.268890 0.000000
0.219849 0.268890 0.000000
0.267059 0.268890 0.000000
0.318573 0.268890 0.000000
0.373566 0.268890 0.000000
0.430084 0.268890 0.000000
0.486084 0.268890 0.000000
0.539368 0.268890 0.000000
0.587952 0.268890 0.000000
0.631104 0.268890 0.000000
0.669617 0.268890 0.000000
0.704376 0.268890 0.000000
0.736298 0.268890 0.000000
0.766327 0.268890 0.000000
0.794983 0.268890 0.000000
0.822083 0.268890 0.000000
0.847443 0.268890 0.000000
0.870850 0.268890 0.000000
0.892120 0.268890 0.000000
0.911041 0.268890 0.000000
0.927490 0.268890 0.000000
0.941406 0.268890 0.000000
0.953522 0.268890 0.000000
0.964691 0.268890 0.000000
0.000000 0.340240 0.000000
0.011353 0.340240 0.000000
0.023834 0.340240 0.000000
0.038574 0.340240 0.000000
0.056580 0.340240 0.000000
0.079041 0.340240 0.000000
0.106689 0.340240 0.000000
0.139526 0.340240 0.000000
0.177277 0.340240 0.000000
0.219849 0.340240 0.000000
0.267059 0.340240 0.000000
0.318573 0.340240 0.000000
0.373566 0.340240 0.000000
0.430084 0.340240 0.000000
0.486084 0.340240 0.000000
0.539368 0.340240 0.000000
0.587952 0.340240 0.000000
0.631104 0.340240 0.000000
0.669617 0.340240 0.000000
0.704376 0.340240 0.000000
0.736298 0.340240 0.000000
0.766327 0.340240 0.000000
0.794983 0.340240 0.000000
0.822083 0.340240 0.000000
0.847443 0.340240 0.000000
0.870850 0.340240 0.000000
0.892120 0.340240 0.000000
0.911041 0.340240 0.000000
0.927490 0.340240 0.000000
0.941406 0.340240 0.000000
0.953522 0.340240 0.000000
0.964691 0.340240 0.000000
0.000000 0.413574 0.000000
0.011353 0.413574 0.000000
0.023834 0.413574 0.000000
0.038574 0.413574 0.000000
0.056580 0.413574 0.000000
0.079041 0.413574 0.000000
0.106689 0.413574 0.000000
0.139526 0.413574 0.000000
0.177277 0.413574 0.000000
0.219849 0.413574 0.000000
0.267059 0.413574 0.000000
0.318573 0.413574 0.000000
0.373566 0.413574 0.000000
0.430084 0.413574 0.000000
0.486084 0.413574 0.000000
0.539368 0.413574 0.000000
0.587952 0.413574 0.000000
0.631104 0.413574 0.000000
0.669617 0.413574 0.000000
0.704376 0.413574 0.000000
0.736298 0.413574 0.000000
0.766327 0.413574 0.000000
0.794983 0.413574 0.000000
0.822083 0.413574 0.000000
0.847443 0.413574 0.000000
0.870850 0.413574 0.000000
0.892120 0.413574 0.000000
0.911041 0.413574 0.000000
0.927490 0.413574 0.000000
0.941406 0.413574 0.000000
0.953522 0.413574 0.000000
0.964691 0.413574 0.000000
0.000000 0.480408 0.000000
0.011353 0.480408 0.000000
0.023834 0.480408 0.000000
0.038574 0.480408 0.000000
0.056580 0.480408 0.000000
0.079041 0.480408 0.000000
0.106689 0.480408 0.000000
0.139526 0.480408 0.000000
0.177277 0.480408 0.000000
0.219849 0.480408 0.000000
0.267059 0.480408 0.000000
0.318573 0.480408 0.000000
0.373566 0.480408 0.000000
0.430084 0.480408 0.000000
0.486084 0.480408 0.000000
0.539368 0.480408 0.000000
0.587952 0.480408 0.000000
0.631104 0.480408 0.000000
0.669617 0.480408 0.000000
0.704376 0.480408 0.000000
0.736298 0.480408 0.000000
0.766327 0.480408 0.000000
0.794983 0.480408 0.000000
0.822083 0.480408 0.000000
0.847443 0.480408 0.000000
0.870850 0.480408 0.000000
0.892120 0.480408 0.000000
0.911041 0.480408 0.000000
0.927490 0.480408 0.000000
0.941406 0.480408 0.000000
0.953522 0.480408 0.000000
0.964691 0.480408 0.000000
0.000000 0.539948 0.000000
0.011353 0.539948 0.000000
0.023834 0.539948 0.000000
0.038574 0.539948 0.000000
0.056580 0.539948 0.000000
0.079041 0.539948 0.000000
0.106689 0.539948 0.000000
0.139526 0.539948 0.000000
0.177277 0.539948 0.000000
0.219849 0.539948 0.000000
0.267059 0.539948 0.000000
0.318573 0.539948 0.000000
0.373566 0.539948 0.000000
0.430084 0.539948 0.000000
0.486084 0.539948 0.000000
0.539368 0.539948 0.000000
0.587952 0.539948 0.000000
0.631104 0.539948 0.000000
0.669617 0.539948 0.000000
0.704376 0.539948 0.000000
0.736298 0.539948 0.000000
0.766327 0.539948 0.000000
0.794983 0.539948 0.000000
0.822083 0.539948 0.000000
0.847443 0.539948 0.000000
0.870850 0.539948 0.000000
0.892120 0.539948 0.000000
0.911041 0.539948 0.000000
0.927490 0.539948 0.000000
0.941406 0.539948 0.000000
0.953522 0.539948 0.000000
0.964691 0.539948 0.000000
0.000000 0.592896 0.000000
0.011353 0.592896 0.000000
0.023834 0.592896 0.000000
0.038574 0.592896 0.000000
0.056580 0.592896 0.000000
0.079041 0.592896 0.000000
0.106689 0.592896 0.000000
0.139526 0.592896 0.000000
0.177277 0.592896 0.000000
0.219849 0.592896 0.000000
0.267059 0.592896 0.000000
0.318573 0.592896 0.000000
0.373566 0.592896 0.000000
0.430084 0.592896 0.000000
0.486084 0.592896 0.000000
0.539368 0.592896 0.000000
0.587952 0.592896 0.000000
0.631104 0.592896 0.000000
0.669617 0.592896 0.000000
0.704376 0.592896 0.000000
0.736298 0.592896 0.000000
0.766327 0.592896 0.000000
0.794983 0.592896 0.000000
0.822083 0.592896 0.000000
0.847443 0.592896 0.000000
0.870850 0.592896 0.000000
0.892120 0.592896 0.000000
0.911041 0.592896 0.000000
0.927490 0.592896 0.000000
0.941406 0.592896 0.000000
0.953522 0.592896 0.000000
0.964691 0.592896 0.000000
0.000000 0.639771 0.000000
0.011353 0.639771 0.000000
0.023834 0.639771 0.000000
0.038574 0.639771 0.000000
0.056580 0.639771 0.000000
0.079041 0.639771 0.000000
0.106689 0.639771 0.000000
0.139526 0.639771 0.000000
0.177277 0.639771 0.000000
0.219849 0.639771 0.000000
0.267059 0.639771 0.000000
0.318573 0.639771 0.000000
0.373566 0.639771 0.000000
0.430084 0.639771 0.000000
0.486084 0.639771 0.000000
0.539368 0.639771 0.000000
0.587952 0.639771 0.000000
0.631104 0.639771 0.000000
0.669617 0.639771 0.000000
0.704376 0.639771 0.000000
0.736298 0.639771 0.000000
0.766327 0.639771 0.000000
0.794983 0.639771 0.000000
0.822083 0.639771 0.000000
0.847443 0.639771 0.000000
0.870850 0.639771 0.000000
0.892120 0.639771 0.000000
0.911041 0.639771 0.000000
0.927490 0.639771 0.000000
0.941406 0.639771 0.000000
0.953522 0.639771 0.000000
0.964691 0.639771 0.000000
0.000000 0.681213 0.000000
0.011353 0.681213 0.000000
0.023834 0.681213 0.000000
0.038574 0.681213 0.000000
0.056580 0.681213 0.000000
0.079041 0.681213 0.000000
0.106689 0.681213 0.000000
0.139526 0.681213 0.000000
0.177277 0.681213 0.000000
0.219849 0.681213 0.000000
0.267059 0.681213 0.000000
0.318573 0.681213 0.000000
0.373566 0.681213 0.000000
0.430084 0.681213 0.000000
0.486084 0.681213 0.000000
0.539368 0.681213 0.000000
0.587952 0.681213 0.000000
0.631104 0.681213 0.000000
0.669617 0.681213 0.000000
0.704376 0.681213 0.000000
0.736298 0.681213 0.000000
0.766327 0.681213 0.000000
0.794983 0.681213 0.000000
0.822083 0.681213 0.000000
0.847443 0.681213 0.000000
0.870850 0.681213 0.000000
0.892120 0.681213 0.000000
0.911041 0.681213 0.000000
0.927490 0.681213 0.000000
0.941406 0.681213 0.000000
0.953522 0.681213 0.000000
0.964691 0.681213 0.000000
0.000000 0.717834 0.000000
0.011353 0.717834 0.000000
0.023834 0.717834 0.000000
0.038574 0.717834 0.000000
0.056580 0.717834 0.000000
0.079041 0.717834 0.000000
0.106689 0.717834 0.000000
0.139526 0.717834 0.000000
0.177277 0.717834 0.000000
0.219849 0.717834 0.000000
0.267059 0.717834 0.000000
0.318573 0.717834 0.000000
0.373566 0.717834 0.000000
0.430084 0.717834 0.000000
0.486084 0.717834 0.000000
0.539368 0.717834 0.000000
0.587952 0.717834 0.000000
0.631104 0.717834 0.000000
0.669617 0.717834 0.000000
0.704376 0.717834 0.000000
0.736298 0.717834 0.000000
0.766327 0.717834 0.000000
0.794983 0.717834 0.000000
0.822083 0.717834 0.000000
0.847443 0.717834 0.000000
0.870850 0.717834 0.000000
0.892120 0.717834 0.000000
0.911041 0.717834 0.000000
0.927490 0.717834 0.000000
0.941406 0.717834 0.000000
0.953522 0.717834 0.000000
0.964691 0.717834 0.000000
0.000000 0.750183 0.000000
0.011353 0.750183 0.000000
0.023834 0.750183 0.000000
0.038574 0.750183 0.000000
0.056580 0.750183 0.000000
0.079041 0.750183 0.000000
0.106689 0.750183 0.000000
0.139526 0.750183 0.000000
0.177277 0.750183 0.000000
0.219849 0.750183 0.000000
0.267059 0.750183 0.000000
0.318573 0.750183 0.000000
0.373566 0.750183 0.000000
0.430084 0.750183 0.000000
0.486084 0.750183 0.000000
0.539368 0.750183 0.000000
0.587952 0.750183 0.000000
0.631104 0.750183 0.000000
0.669617 0.750183 0.000000
0.704376 0.750183 0.000000
0.736298 0.750183 0.000000
0.766327 0.750183 0.000000
0.794983 0.750183 0.000000
0.822083 0.750183 0.000000
0.847443 0.750183 0.000000
0.870850 0.750183 0.000000
0.892120 0.750183 0.000000
0.911041 0.750183 0.000000
0.927490 0.750183 0.000000
0.941406 0.750183 0.000000
0.953522 0.750183 0.000000
0.964691 0.750183 0.000000
0.000000 0.778931 0.000000
0.011353 0.778931 0.000000
0.023834 0.778931 0.000000
0.038574 0.778931 0.000000
0.056580 0.778931 0.000000
0.079041 0.778931 0.000000
0.106689 0.778931 0.000000
0.139526 0.778931 0.000000
0.177277 0.778931 0.000000
0.219849 0.778931 0.000000
0.267059 0.778931 0.000000
0.318573 0.778931 0.000000
0.373566 0.778931 0.000000
0.430084 0.778931 0.000000
0.486084 0.778931 0.000000
0.539368 0.778931 0.000000
0.587952 0.778931 0.000000
0.631104 0.778931 0.000000
0.669617 0.778931 0.000000
0.704376 0.778931 0.000000
0.736298 0.778931 0.000000
0.766327 0.778931 0.000000
0.794983 0.778931 0.000000
0.822083 0.778931 0.000000
0.847443 0.778931 0.000000
0.870850 0.778931 0.000000
0.892120 0.778931 0.000000
0.911041 0.778931 0.000000
0.927490 0.778931 0.000000
0.941406 0.778931 0.000000
0.953522 0.778931 0.000000
0.964691 0.778931 0.000000
0.000000 0.804657 0.000000
0.011353 0.804657 0.000000
0.023834 0.804657 0.000000
0.038574 0.804657 0.000000
0.056580 0.804657 0.000000
0.079041 0.804657 0.000000
0.106689 0.804657 0.000000
0.139526 0.804657 0.000000
0.177277 0.804657 0.000000
0.219849 0.804657 0.000000
0.267059 0.804657 0.000000
0.318573 0.804657 0.000000
0.373566 0.804657 0.000000
0.430084 0.804657 0.000000
0.486084 0.804657 0.000000
0.539368 0.804657 0.000000
0.587952 0.804657 0.000000
0.631104 0.804657 0.000000
0.669617 0.804657 0.000000
0.704376 0.804657 0.000000
0.736298 0.804657 0.000000
0.766327 0.804657 0.000000
0.794983 0.804657 0.000000
0.822083 0.804657 0.000000
0.847443 0.804657 0.000000
0.870850 0.804657 0.000000
0.892120 0.804657 0.000000
0.911041 0.804657 0.000000
0.927490 0.804657 0.000000
0.941406 0.804657 0.000000
0.953522 0.804657 0.000000
0.964691 0.804657 0.000000
0.000000 0.827881 0.000000
0.011353 0.827881 0.000000
0.023834 0.827881 0.000000
0.038574 0.827881 0.000000
0.056580 0.827881 0.000000
0.079041 0.827881 0.000000
0.106689 0.827881 0.000000
0.139526 0.827881 0.000000
0.177277 0.827881 0.000000
0.219849 0.827881 0.000000
0.267059 0.827881 0.000000
0.318573 0.827881 0.000000
0.373566 0.827881 0.000000
0.430084 0.827881 0.000000
0.486084 0.827881 0.000000
0.539368 0.827881 0.000000
0.587952 0.827881 0.000000
0.631104 0.827881 0.000000
0.669617 0.827881 0.000000
0.704376 0.827881 0.000000
0.736298 0.827881 0.000000
0.766327 0.827881 0.000000
0.794983 0.827881 0.000000
0.822083 0.827881 0.000000
0.847443 0.827881 0.000000
0.870850 0.827881 0.000000
0.892120 0.827881 0.000000
0.911041 0.827881 0.000000
0.927490 0.827881 0.000000
0.941406 0.827881 0.000000
0.953522 0.827881 0.000000
0.964691 0.827881 0.000000
0.000000 0.849152 0.000000
0.011353 0.849152 0.000000
0.023834 0.849152 0.000000
0.038574 0.849152 0.000000
0.056580 0.849152 0.000000
0.079041 0.849152 0.000000
0.106689 0.849152 0.000000
0.139526 0.849152 0.000000
0.177277 0.849152 0.000000
0.219849 0.849152 0.000000
0.267059 0.849152 0.000000
0.318573 0.849152 0.000000
0.373566 0.849152 0.000000
0.430084 0.849152 0.000000
0.486084 0.849152 0.000000
0.539368 0.849152 0.000000
0.587952 0.849152 0.000000
0.631104 0.849152 0.000000
0.669617 0.849152 0.000000
0.704376 0.849152 0.000000
0.736298 0.849152 0.000000
0.766327 0.849152 0.000000
0.794983 0.849152 0.000000
0.822083 0.849152 0.000000
0.847443 0.849152 0.000000
0.870850 0.849152 0.000000
0.892120 0.849152 0.000000
0.911041 0.849152 0.000000
0.927490 0.849152 0.000000
0.941406 0.849152 0.000000
0.953522 0.849152 0.000000
0.964691 0.849152 0.000000
0.000000 0.868744 0.000000
0.011353 0.868744 0.000000
0.023834 0.868744 0.000000
0.038574 0.868744 0.000000
0.056580 0.868744 0.000000
0.079041 0.868744 0.000000
0.106689 0.868744 0.000000
0.139526 0.868744 0.000000
0.177277 0.868744 0.000000
0.219849 0.868744 0.000000
0.267059 0.868744 0.000000
0.318573 0.868744 0.000000
0.373566 0.868744 0.000000
0.430084 0.868744 0.000000
0.486084 0.868744 0.000000
0.539368 0.868744 0.000000
0.587952 0.868744 0.000000
0.631104 0.868744 0.000000
0.669617 0.868744 0.000000
0.704376 0.868744 0.000000
0.736298 0.868744 0.000000
0.766327 0.868744 0.000000
0.794983 0.868744 0.000000
0.822083 0.868744 0.000000
0.847443 0.868744 0.000000
0.870850 0.868744 0.000000
0.892120 0.868744 0.000000
0.911041 0.868744 0.000000
0.927490 0.868744 0.000000
0.941406 0.868744 0.000000
0.953522 0.868744 0.000000
0.964691 0.868744 0.000000
0.000000 0.886932 0.000000
0.011353 0.886932 0.000000
0.023834 0.886932 0.000000
0.038574 0.886932 0.000000
0.056580 0.886932 0.000000
0.079041 0.886932 0.000000
0.106689 0.886932 0.000000
0.139526 0.886932 0.000000
0.177277 0.886932 0.000000
0.219849 0.886932 0.000000
0.267059 0.886932 0.000000
0.318573 0.886932 0.000000
0.373566 0.886932 0.000000
0.430084 0.886932 0.000000
0.486084 0.886932 0.000000
0.539368 0.886932 0.000000
0.587952 0.886932 0.000000
0.631104 0.886932 0.000000
0.669617 0.886932 0.000000
0.704376 0.886932 0.000000
0.736298 0.886932 0.000000
0.766327 0.886932 0.000000
0.794983 0.886932 0.000000
0.822083 0.886932 0.000000
0.847443 0.886932 0.000000
0.870850 0.886932 0.000000
0.892120 0.886932 0.000000
0.911041 0.886932 0.000000
0.927490 0.886932 0.000000
0.941406 0.886932 0.000000
0.953522 0.886932 0.000000
0.964691 0.886932 0.000000
0.000000 0.903931 0.000000
0.011353 0.903931 0.000000
0.023834 0.903931 0.000000
0.038574 0.903931 0.000000
0.056580 0.903931 0.000000
0.079041 0.903931 0.000000
0.106689 0.903931 0.000000
0.139526 0.903931 0.000000
0.177277 0.903931 0.000000
0.219849 0.903931 0.000000
0.267059 0.903931 0.000000
0.318573 0.903931 0.000000
0.373566 0.903931 0.000000
0.430084 0.903931 0.000000
0.486084 0.903931 0.000000
0.539368 0.903931 0.000000
0.587952 0.903931 0.000000
0.631104 0.903931 0.000000
