Project 5 - Parkour/Graphics/LUTS Instagram/Lo-Fi.cube
#Created by: Adobe Photoshop Export Color Lookup Plugin
TITLE "Lo-Fi"
#LUT size
LUT_3D_SIZE 5
#data domain
#LUT data points
DOMAIN_MIN 0.000000 0.000000 0.000000
DOMAIN_MAX 0.903226 0.903226 0.903226
0.000000 0.000000 0.000000
0.139526 0.000000 0.000000
0.486084 0.000000 0.000000
0.766327 0.000000 0.000000
0.927490 0.000000 0.000000
0.000000 0.102631 0.000000
0.139526 0.102631 0.000000
0.486084 0.102631 0.000000
0.766327 0.102631 0.000000
0.927490 0.102631 0.000000
0.000000 0.480408 0.000000
0.139526 0.480408 0.000000
0.486084 0.480408 0.000000
0.766327 0.480408 0.000000
0.927490 0.480408 0.000000
0.000000 0.778931 0.000000
0.139526 0.778931 0.000000
0.486084 0.778931 0.000000
0.766327 0.778931 0.000000
0.927490 0.778931 0.000000
0.000000 0.919983 0.000000
0.139526 0.919983 0.000000
0.486084 0.919983 0.000000
0.766327 0.919983 0.000000
0.927490 0.919983 0.000000
0.000000 0.000000 0.174896
0.139526 0.000000 0.174896
0.486084 0.000000 0.174896
0.766327 0.000000 0.174896
0.927490 0.000000 0.174896
0.000000 0.102631 0.174896
0.139526 0.102631 0.174896
0.486084 0.102631 0.174896
0.766327 0.102631 0.174896
0.927490 0.102631 0.174896
0.000000 0.480408 0.174896
0.139526 0.480408 0.174896
0.486084 0.480408 0.174896
0.766327 0.480408 0.174896
0.927490 0.480408 0.174896
0.000000 0.778931 0.174896
0.139526 0.778931 0.174896
0.486084 0.778931 0.174896
0.766327 0.778931 0.174896
0.927490 0.778931 0.174896
0.000000 0.919983 0.174896
0.139526 0.919983 0.174896
0.486084 0.919983 0.174896
0.766327 0.919983 0.174896
0.927490 0.919983 0.174896
0.000000 0.000000 0.475281
0.139526 0.000000 0.475281
0.486084 0.000000 0.475281
0.766327 0.000000 0.475281
0.927490 0.000000 0.475281
0.000000 0.102631 0.475281
0.139526 0.102631 0.475281
0.486084 0.102631 0.475281
0.766327 0.102631 0.475281
0.927490 0.102631 0.475281
0.000000 0.480408 0.475281
0.139526 0.480408 0.475281
0.486084 0.480408 0.475281
0.766327 0.480408 0.475281
0.927490 0.480408 0.475281
0.000000 0.778931 0.475281
0.139526 0.778931 0.475281
0.486084 0.778931 0.475281
0.766327 0.778931 0.475281
0.927490 0.778931 0.475281
0.000000 0.919983 0.475281
0.139526 0.919983 0.475281
0.486084 0.919983 0.475281
0.766327 0.919983 0.475281
0.927490 0.919983 0.475281
0.000000 0.000000 0.777039
0.139526 0.000000 0.777039
0.486084 0.000000 0.777039
0.766327 0.000000 0.777039
0.927490 0.000000 0.777039
0.000000 0.102631 0.777039
0.139526 0.102631 0.777039
0.486084 0.102631 0.777039
0.766327 0.102631 0.777039
0.927490 0.102631 0.777039
0.000000 0.480408 0.777039
0.139526 0.480408 0.777039
0.486084 0.480408 0.777039
0.766327 0.480408 0.777039
0.927490 0.480408 0.777039
0.000000 0.778931 0.777039
0.139526 0.778931 0.777039
0.486084 0.778931 0.777039
0.766327 0.778931 0.777039
0.927490 0.778931 0.777039
0.000000 0.919983 0.777039
0.139526 0.919983 0.777039
0.486084 0.919983 0.777039
0.766327 0.919983 0.777039
0.927490 0.919983 0.777039
0.000000 0.000000 0.923248
0.139526 0.000000 0.923248
0.486084 0.000000 0.923248
0.766327 0.000000 0.923248
0.927490 0.000000 0.923248
0.000000 0.102631 0.923248
0.139526 0.102631 0.923248
0.486084 0.102631 0.923248
0.766327 0.102631 0.923248
0.927490 0.102631 0.923248
0.000000 0.480408 0.923248
0.139526 0.480408 0.923248
0.486084 0.480408 0.923248
0.766327 0.480408 0.923248
0.927490 0.480408 0.923248
0.000000 0.778931 0.923248
0.139526 0.778931 0.923248
0.486084 0.778931 0.923248
0.766327 0.778931 0.923248
0.927490 0.778931 0.923248
0.000000 0.919983 0.923248
0.139526 0.919983 0.923248
0.486084 0.919983 0.923248
0.766327 0.919983 0.923248
0.927490 0.919983 0.923248
