Project 5 - Parkour/Graphics/LUTS Instagram/Mayfair.cube
#Created by: Adobe Photoshop Export Color Lookup Plugin
TITLE "Mayfair"
#LUT size
LUT_3D_SIZE 32
#data domain
DOMAIN_MIN 0.0 0.0 0.0
DOMAIN_MAX 1.0 1.0 1.0
#LUT data points
0.107178 0.053558 0.053558
0.128021 0.053558 0.053558
0.149323 0.053558 0.053558
0.171417 0.053558 0.053558
0.194794 0.053558 0.053558
0.219849 0.053558 0.053558
0.247009 0.053558 0.053558
0.276733 0.053558 0.053558
0.309448 0.053558 0.053558
0.345703 0.053558 0.053558
0.386047 0.053558 0.053558
0.430756 0.053558 0.053558
0.479065 0.053558 0.053558
0.529022 0.053558 0.053558
0.578796 0.053558 0.053558
0.626099 0.053558 0.053558
0.669067 0.053558 0.053558
0.707062 0.053558 0.053558
0.740509 0.053558 0.053558
0.769623 0.053558 0.053558
0.794769 0.053558 0.053558
0.816437 0.053558 0.053558
0.835083 0.053558 0.053558
0.851135 0.053558 0.053558
0.865173 0.053558 0.053558
0.877655 0.053558 0.053558
0.889191 0.053558 0.053558
0.900208 0.053558 0.053558
0.911163 0.053558 0.053558
0.922089 0.053558 0.053558
0.933044 0.053558 0.053558
0.942688 0.053558 0.053558
0.107178 0.084473 0.053558
0.128021 0.084473 0.053558
0.149323 0.084473 0.053558
0.171417 0.084473 0.053558
0.194794 0.084473 0.053558
0.219849 0.084473 0.053558
0.247009 0.084473 0.053558
0.276733 0.084473 0.053558
0.309448 0.084473 0.053558
0.345703 0.084473 0.053558
0.386047 0.084473 0.053558
0.430756 0.084473 0.053558
0.479065 0.084473 0.053558
0.529022 0.084473 0.053558
0.578796 0.084473 0.053558
0.626099 0.084473 0.053558
0.669067 0.084473 0.053558
0.707062 0.084473 0.053558
0.740509 0.084473 0.053558
0.769623 0.084473 0.053558
0.794769 0.084473 0.053558
0.816437 0.084473 0.053558
0.835083 0.084473 0.053558
0.851135 0.084473 0.053558
0.865173 0.084473 0.053558
0.877655 0.084473 0.053558
0.889191 0.084473 0.053558
0.900208 0.084473 0.053558
0.911163 0.084473 0.053558
0.922089 0.084473 0.053558
0.933044 0.084473 0.053558
0.942688 0.084473 0.053558
0.107178 0.115082 0.053558
0.128021 0.115082 0.053558
0.149323 0.115082 0.053558
0.171417 0.115082 0.053558
0.194794 0.115082 0.053558
0.219849 0.115082 0.053558
0.247009 0.115082 0.053558
0.276733 0.115082 0.053558
0.309448 0.115082 0.053558
0.345703 0.115082 0.053558
0.386047 0.115082 0.053558
0.430756 0.115082 0.053558
0.479065 0.115082 0.053558
0.529022 0.115082 0.053558
0.578796 0.115082 0.053558
0.626099 0.115082 0.053558
0.669067 0.115082 0.053558
0.707062 0.115082 0.053558
0.740509 0.115082 0.053558
0.769623 0.115082 0.053558
0.794769 0.115082 0.053558
0.816437 0.115082 0.053558
0.835083 0.115082 0.053558
0.851135 0.115082 0.053558
0.865173 0.115082 0.053558
0.877655 0.115082 0.053558
0.889191 0.115082 0.053558
0.900208 0.115082 0.053558
0.911163 0.115082 0.053558
0.922089 0.115082 0.053558
0.933044 0.115082 0.053558
0.942688 0.115082 0.053558
0.107178 0.144897 0.053558
0.128021 0.144897 0.053558
0.149323 0.144897 0.053558
0.171417 0.144897 0.053558
0.194794 0.144897 0.053558
0.219849 0.144897 0.053558
0.247009 0.144897 0.053558
0.276733 0.144897 0.053558
0.309448 0.144897 0.053558
0.345703 0.144897 0.053558
0.386047 0.144897 0.053558
0.430756 0.144897 0.053558
0.479065 0.144897 0.053558
0.529022 0.144897 0.053558
0.578796 0.144897 0.053558
0.626099 0.144897 0.053558
0.669067 0.144897 0.053558
0.707062 0.144897 0.053558
0.740509 0.144897 0.053558
0.769623 0.144897 0.053558
0.794769 0.144897 0.053558
0.816437 0.144897 0.053558
0.835083 0.144897 0.053558
0.851135 0.144897 0.053558
0.865173 0.144897 0.053558
0.877655 0.144897 0.053558
0.889191 0.144897 0.053558
0.900208 0.144897 0.053558
0.911163 0.144897 0.053558
0.922089 0.144897 0.053558
0.933044 0.144897 0.053558
0.942688 0.144897 0.053558
0.107178 0.173584 0.053558
0.128021 0.173584 0.053558
0.149323 0.173584 0.053558
0.171417 0.173584 0.053558
0.194794 0.173584 0.053558
0.219849 0.173584 0.053558
0.247009 0.173584 0.053558
0.276733 0.173584 0.053558
0.309448 0.173584 0.053558
0.345703 0.173584 0.053558
0.386047 0.173584 0.053558
0.430756 0.173584 0.053558
0.479065 0.173584 0.053558
0.529022 0.173584 0.053558
0.578796 0.173584 0.053558
0.626099 0.173584 0.053558
0.669067 0.173584 0.053558
0.707062 0.173584 0.053558
0.740509 0.173584 0.053558
0.769623 0.173584 0.053558
0.794769 0.173584 0.053558
0.816437 0.173584 0.053558
0.835083 0.173584 0.053558
0.851135 0.173584 0.053558
0.865173 0.173584 0.053558
0.877655 0.173584 0.053558
0.889191 0.173584 0.053558
0.900208 0.173584 0.053558
0.911163 0.173584 0.053558
0.922089 0.173584 0.053558
0.933044 0.173584 0.053558
0.942688 0.173584 0.053558
0.107178 0.200714 0.053558
0.128021 0.200714 0.053558
0.149323 0.200714 0.053558
0.171417 0.200714 0.053558
0.194794 0.200714 0.053558
0.219849 0.200714 0.053558
0.247009 0.200714 0.053558
0.276733 0.200714 0.053558
0.309448 0.200714 0.053558
0.345703 0.200714 0.053558
0.386047 0.200714 0.053558
0.430756 0.200714 0.053558
0.479065 0.200714 0.053558
0.529022 0.200714 0.053558
0.578796 0.200714 0.053558
0.626099 0.200714 0.053558
0.669067 0.200714 0.053558
0.707062 0.200714 0.053558
0.740509 0.200714 0.053558
0.769623 0.200714 0.053558
0.794769 0.200714 0.053558
0.816437 0.200714 0.053558
0.835083 0.200714 0.053558
0.851135 0.200714 0.053558
0.865173 0.200714 0.053558
0.877655 0.200714 0.053558
0.889191 0.200714 0.053558
0.900208 0.200714 0.053558
0.911163 0.200714 0.053558
0.922089 0.200714 0.053558
0.933044 0.200714 0.053558
0.942688 0.200714 0.053558
0.107178 0.226471 0.053558
0.128021 0.226471 0.053558
0.149323 0.226471 0.053558
0.171417 0.226471 0.053558
0.194794 0.226471 0.053558
0.219849 0.226471 0.053558
0.247009 0.226471 0.053558
0.276733 0.226471 0.053558
0.309448 0.226471 0.053558
0.345703 0.226471 0.053558
0.386047 0.226471 0.053558
0.430756 0.226471 0.053558
0.479065 0.226471 0.053558
0.529022 0.226471 0.053558
0.578796 0.226471 0.053558
0.626099 0.226471 0.053558
0.669067 0.226471 0.053558
0.707062 0.226471 0.053558
0.740509 0.226471 0.053558
0.769623 0.226471 0.053558
0.794769 0.226471 0.053558
0.816437 0.226471 0.053558
0.835083 0.226471 0.053558
0.851135 0.226471 0.053558
0.865173 0.226471 0.053558
0.877655 0.226471 0.053558
0.889191 0.226471 0.053558
0.900208 0.226471 0.053558
0.911163 0.226471 0.053558
0.922089 0.226471 0.053558
0.933044 0.226471 0.053558
0.942688 0.226471 0.053558
0.107178 0.252716 0.053558
0.128021 0.252716 0.053558
0.149323 0.252716 0.053558
0.171417 0.252716 0.053558
0.194794 0.252716 0.053558
0.219849 0.252716 0.053558
0.247009 0.252716 0.053558
0.276733 0.252716 0.053558
0.309448 0.252716 0.053558
0.345703 0.252716 0.053558
0.386047 0.252716 0.053558
0.430756 0.252716 0.053558
0.479065 0.252716 0.053558
0.529022 0.252716 0.053558
0.578796 0.252716 0.053558
0.626099 0.252716 0.053558
0.669067 0.252716 0.053558
0.707062 0.252716 0.053558
0.740509 0.252716 0.053558
0.769623 0.252716 0.053558
0.794769 0.252716 0.053558
0.816437 0.252716 0.053558
0.835083 0.252716 0.053558
0.851135 0.252716 0.053558
0.865173 0.252716 0.053558
0.877655 0.252716 0.053558
0.889191 0.252716 0.053558
0.900208 0.252716 0.053558
0.911163 0.252716 0.053558
0.922089 0.252716 0.053558
0.933044 0.252716 0.053558
0.942688 0.252716 0.053558
0.107178 0.281586 0.053558
0.128021 0.281586 0.053558
0.149323 0.281586 0.053558
0.171417 0.281586 0.053558
0.194794 0.281586 0.053558
0.219849 0.281586 0.053558
0.247009 0.281586 0.053558
0.276733 0.281586 0.053558
0.309448 0.281586 0.053558
0.345703 0.281586 0.053558
0.386047 0.281586 0.053558
0.430756 0.281586 0.053558
0.479065 0.281586 0.053558
0.529022 0.281586 0.053558
0.578796 0.281586 0.053558
0.626099 0.281586 0.053558
0.669067 0.281586 0.053558
0.707062 0.281586 0.053558
0.740509 0.281586 0.053558
0.769623 0.281586 0.053558
0.794769 0.281586 0.053558
0.816437 0.281586 0.053558
0.835083 0.281586 0.053558
0.851135 0.281586 0.053558
0.865173 0.281586 0.053558
0.877655 0.281586 0.053558
0.889191 0.281586 0.053558
0.900208 0.281586 0.053558
0.911163 0.281586 0.053558
0.922089 0.281586 0.053558
0.933044 0.281586 0.053558
0.942688 0.281586 0.053558
0.107178 0.315338 0.053558
0.128021 0.315338 0.053558
0.149323 0.315338 0.053558
0.171417 0.315338 0.053558
0.194794 0.315338 0.053558
0.219849 0.315338 0.053558
0.247009 0.315338 0.053558
0.276733 0.315338 0.053558
0.309448 0.315338 0.053558
0.345703 0.315338 0.053558
0.386047 0.315338 0.053558
0.430756 0.315338 0.053558
0.479065 0.315338 0.053558
0.529022 0.315338 0.053558
0.578796 0.315338 0.053558
0.626099 0.315338 0.053558
0.669067 0.315338 0.053558
0.707062 0.315338 0.053558
0.740509 0.315338 0.053558
0.769623 0.315338 0.053558
0.794769 0.315338 0.053558
0.816437 0.315338 0.053558
0.835083 0.315338 0.053558
0.851135 0.315338 0.053558
0.865173 0.315338 0.053558
0.877655 0.315338 0.053558
0.889191 0.315338 0.053558
0.900208 0.315338 0.053558
0.911163 0.315338 0.053558
0.922089 0.315338 0.053558
0.933044 0.315338 0.053558
0.942688 0.315338 0.053558
0.107178 0.356201 0.053558
0.128021 0.356201 0.053558
0.149323 0.356201 0.053558
0.171417 0.356201 0.053558
0.194794 0.356201 0.053558
0.219849 0.356201 0.053558
0.247009 0.356201 0.053558
0.276733 0.356201 0.053558
0.309448 0.356201 0.053558
0.345703 0.356201 0.053558
0.386047 0.356201 0.053558
0.430756 0.356201 0.053558
0.479065 0.356201 0.053558
0.529022 0.356201 0.053558
0.578796 0.356201 0.053558
0.626099 0.356201 0.053558
0.669067 0.356201 0.053558
0.707062 0.356201 0.053558
0.740509 0.356201 0.053558
0.769623 0.356201 0.053558
0.794769 0.356201 0.053558
0.816437 0.356201 0.053558
0.835083 0.356201 0.053558
0.851135 0.356201 0.053558
0.865173 0.356201 0.053558
0.877655 0.356201 0.053558
0.889191 0.356201 0.053558
0.900208 0.356201 0.053558
0.911163 0.356201 0.053558
0.922089 0.356201 0.053558
0.933044 0.356201 0.053558
0.942688 0.356201 0.053558
0.107178 0.404907 0.053558
0.128021 0.404907 0.053558
0.149323 0.404907 0.053558
0.171417 0.404907 0.053558
0.194794 0.404907 0.053558
0.219849 0.404907 0.053558
0.247009 0.404907 0.053558
0.276733 0.404907 0.053558
0.309448 0.404907 0.053558
0.345703 0.404907 0.053558
0.386047 0.404907 0.053558
0.430756 0.404907 0.053558
0.479065 0.404907 0.053558
0.529022 0.404907 0.053558
0.578796 0.404907 0.053558
0.626099 0.404907 0.053558
0.669067 0.404907 0.053558
0.707062 0.404907 0.053558
0.740509 0.404907 0.053558
0.769623 0.404907 0.053558
0.794769 0.404907 0.053558
0.816437 0.404907 0.053558
0.835083 0.404907 0.053558
0.851135 0.404907 0.053558
0.865173 0.404907 0.053558
0.877655 0.404907 0.053558
0.889191 0.404907 0.053558
0.900208 0.404907 0.053558
0.911163 0.404907 0.053558
0.922089 0.404907 0.053558
0.933044 0.404907 0.053558
0.942688 0.404907 0.053558
0.107178 0.459595 0.053558
0.128021 0.459595 0.053558
0.149323 0.459595 0.053558
0.171417 0.459595 0.053558
0.194794 0.459595 0.053558
0.219849 0.459595 0.053558
0.247009 0.459595 0.053558
0.276733 0.459595 0.053558
0.309448 0.459595 0.053558
0.345703 0.459595 0.053558
0.386047 0.459595 0.053558
0.430756 0.459595 0.053558
0.479065 0.459595 0.053558
0.529022 0.459595 0.053558
0.578796 0.459595 0.053558
0.626099 0.459595 0.053558
0.669067 0.459595 0.053558
0.707062 0.459595 0.053558
0.740509 0.459595 0.053558
0.769623 0.459595 0.053558
0.794769 0.459595 0.053558
0.816437 0.459595 0.053558
0.835083 0.459595 0.053558
0.851135 0.459595 0.053558
0.865173 0.459595 0.053558
0.877655 0.459595 0.053558
0.889191 0.459595 0.053558
0.900208 0.459595 0.053558
0.911163 0.459595 0.053558
0.922089 0.459595 0.053558
0.933044 0.459595 0.053558
0.942688 0.459595 0.053558
0.107178 0.517761 0.053558
0.128021 0.517761 0.053558
0.149323 0.517761 0.053558
0.171417 0.517761 0.053558
0.194794 0.517761 0.053558
0.219849 0.517761 0.053558
0.247009 0.517761 0.053558
0.276733 0.517761 0.053558
0.309448 0.517761 0.053558
0.345703 0.517761 0.053558
0.386047 0.517761 0.053558
0.430756 0.517761 0.053558
0.479065 0.517761 0.053558
0.529022 0.517761 0.053558
0.578796 0.517761 0.053558
0.626099 0.517761 0.053558
0.669067 0.517761 0.053558
0.707062 0.517761 0.053558
0.740509 0.517761 0.053558
0.769623 0.517761 0.053558
0.794769 0.517761 0.053558
0.816437 0.517761 0.053558
0.835083 0.517761 0.053558
0.851135 0.517761 0.053558
0.865173 0.517761 0.053558
0.877655 0.517761 0.053558
0.889191 0.517761 0.053558
0.900208 0.517761 0.053558
0.911163 0.517761 0.053558
0.922089 0.517761 0.053558
0.933044 0.517761 0.053558
0.942688 0.517761 0.053558
0.107178 0.577087 0.053558
0.128021 0.577087 0.053558
0.149323 0.577087 0.053558
0.171417 0.577087 0.053558
0.194794 0.577087 0.053558
0.219849 0.577087 0.053558
0.247009 0.577087 0.053558
0.276733 0.577087 0.053558
0.309448 0.577087 0.053558
0.345703 0.577087 0.053558
0.386047 0.577087 0.053558
0.430756 0.577087 0.053558
0.479065 0.577087 0.053558
0.529022 0.577087 0.053558
0.578796 0.577087 0.053558
0.626099 0.577087 0.053558
0.669067 0.577087 0.053558
0.707062 0.577087 0.053558
0.740509 0.577087 0.053558
0.769623 0.577087 0.053558
0.794769 0.577087 0.053558
0.816437 0.577087 0.053558
0.835083 0.577087 0.053558
0.851135 0.577087 0.053558
0.865173 0.577087 0.053558
0.877655 0.577087 0.053558
0.889191 0.577087 0.053558
0.900208 0.577087 0.053558
0.911163 0.577087 0.053558
0.922089 0.577087 0.053558
0.933044 0.577087 0.053558
0.942688 0.577087 0.053558
0.107178 0.634644 0.053558
0.128021 0.634644 0.053558
0.149323 0.634644 0.053558
0.171417 0.634644 0.053558
0.194794 0.634644 0.053558
0.219849 0.634644 0.053558
0.247009 0.634644 0.053558
0.276733 0.634644 0.053558
0.309448 0.634644 0.053558
0.345703 0.634644 0.053558
0.386047 0.634644 0.053558
0.430756 0.634644 0.053558
0.479065 0.634644 0.053558
0.529022 0.634644 0.053558
0.578796 0.634644 0.053558
0.626099 0.634644 0.053558
0.669067 0.634644 0.053558
0.707062 0.634644 0.053558
0.740509 0.634644 0.053558
0.769623 0.634644 0.053558
0.794769 0.634644 0.053558
0.816437 0.634644 0.053558
0.835083 0.634644 0.053558
0.851135 0.634644 0.053558
0.865173 0.634644 0.053558
0.877655 0.634644 0.053558
0.889191 0.634644 0.053558
0.900208 0.634644 0.053558
0.911163 0.634644 0.053558
0.922089 0.634644 0.053558
0.933044 0.634644 0.053558
0.942688 0.634644 0.053558
0.107178 0.687622 0.053558
0.128021 0.687622 0.053558
0.149323 0.687622 0.053558
0.171417 0.687622 0.053558
0.194794 0.687622 0.053558
0.219849 0.687622 0.053558
0.247009 0.687622 0.053558
0.276733 0.687622 0.053558
0.309448 0.687622 0.053558
0.345703 0.687622 0.053558
0.386047 0.687622 0.053558
0.430756 0.687622 0.053558
0.479065 0.687622 0.053558
0.529022 0.687622 0.053558
0.578796 0.687622 0.053558
0.626099 0.687622 0.053558
0.669067 0.687622 0.053558
0.707062 0.687622 0.053558
0.740509 0.687622 0.053558
0.769623 0.687622 0.053558
0.794769 0.687622 0.053558
0.816437 0.687622 0.053558
0.835083 0.687622 0.053558
0.851135 0.687622 0.053558
0.865173 0.687622 0.053558
0.877655 0.687622 0.053558
0.889191 0.687622 0.053558
0.900208 0.687622 0.053558
0.911163 0.687622 0.053558
0.922089 0.687622 0.053558
0.933044 0.687622 0.053558
0.942688 0.687622 0.053558
0.107178 0.732666 0.053558
0.128021 0.732666 0.053558
0.149323 0.732666 0.053558
0.171417 0.732666 0.053558
0.194794 0.732666 0.053558
0.219849 0.732666 0.053558
0.247009 0.732666 0.053558
0.276733 0.732666 0.053558
0.309448 0.732666 0.053558
0.345703 0.732666 0.053558
0.386047 0.732666 0.053558
0.430756 0.732666 0.053558
0.479065 0.732666 0.053558
0.529022 0.732666 0.053558
0.578796 0.732666 0.053558
0.626099 0.732666 0.053558
0.669067 0.732666 0.053558
0.707062 0.732666 0.053558
0.740509 0.732666 0.053558
0.769623 0.732666 0.053558
0.794769 0.732666 0.053558
0.816437 0.732666 0.053558
0.835083 0.732666 0.053558
0.851135 0.732666 0.053558
0.865173 0.732666 0.053558
0.877655 0.732666 0.053558
0.889191 0.732666 0.053558
0.900208 0.732666 0.053558
0.911163 0.732666 0.053558
0.922089 0.732666 0.053558
0.933044 0.732666 0.053558
0.942688 0.732666 0.053558
0.107178 0.766907 0.053558
0.128021 0.766907 0.053558
0.149323 0.766907 0.053558
0.171417 0.766907 0.053558
0.194794 0.766907 0.053558
0.219849 0.766907 0.053558
0.247009 0.766907 0.053558
0.276733 0.766907 0.053558
0.309448 0.766907 0.053558
0.345703 0.766907 0.053558
0.386047 0.766907 0.053558
0.430756 0.766907 0.053558
0.479065 0.766907 0.053558
0.529022 0.766907 0.053558
0.578796 0.766907 0.053558
0.626099 0.766907 0.053558
0.669067 0.766907 0.053558
0.707062 0.766907 0.053558
0.740509 0.766907 0.053558
0.769623 0.766907 0.053558
0.794769 0.766907 0.053558
0.816437 0.766907 0.053558
0.835083 0.766907 0.053558
0.851135 0.766907 0.053558
0.865173 0.766907 0.053558
0.877655 0.766907 0.053558
0.889191 0.766907 0.053558
0.900208 0.766907 0.053558
0.911163 0.766907 0.053558
0.922089 0.766907 0.053558
0.933044 0.766907 0.053558
0.942688 0.766907 0.053558
0.107178 0.790527 0.053558
0.128021 0.790527 0.053558
0.149323 0.790527 0.053558
0.171417 0.790527 0.053558
0.194794 0.790527 0.053558
0.219849 0.790527 0.053558
0.247009 0.790527 0.053558
0.276733 0.790527 0.053558
0.309448 0.790527 0.053558
0.345703 0.790527 0.053558
0.386047 0.790527 0.053558
0.430756 0.790527 0.053558
0.479065 0.790527 0.053558
0.529022 0.790527 0.053558
0.578796 0.790527 0.053558
0.626099 0.790527 0.053558
0.669067 0.790527 0.053558
0.707062 0.790527 0.053558
0.740509 0.790527 0.053558
0.769623 0.790527 0.053558
0.794769 0.790527 0.053558
0.816437 0.790527 0.053558
0.835083 0.790527 0.053558
0.851135 0.790527 0.053558
0.865173 0.790527 0.053558
0.877655 0.790527 0.053558
0.889191 0.790527 0.053558
0.900208 0.790527 0.053558
0.911163 0.790527 0.053558
0.922089 0.790527 0.053558
0.933044 0.790527 0.053558
0.942688 0.790527 0.053558
0.107178 0.805725 0.053558
0.128021 0.805725 0.053558
0.149323 0.805725 0.053558
0.171417 0.805725 0.053558
0.194794 0.805725 0.053558
0.219849 0.805725 0.053558
0.247009 0.805725 0.053558
0.276733 0.805725 0.053558
0.309448 0.805725 0.053558
0.345703 0.805725 0.053558
0.386047 0.805725 0.053558
0.430756 0.805725 0.053558
0.479065 0.805725 0.053558
0.529022 0.805725 0.053558
0.578796 0.805725 0.053558
0.626099 0.805725 0.053558
0.669067 0.805725 0.053558
0.707062 0.805725 0.053558
0.740509 0.805725 0.053558
0.769623 0.805725 0.053558
0.794769 0.805725 0.053558
0.816437 0.805725 0.053558
0.835083 0.805725 0.053558
0.851135 0.805725 0.053558
0.865173 0.805725 0.053558
0.877655 0.805725 0.053558
0.889191 0.805725 0.053558
0.900208 0.805725 0.053558
0.911163 0.805725 0.053558
0.922089 0.805725 0.053558
0.933044 0.805725 0.053558
0.942688 0.805725 0.053558
0.107178 0.814941 0.053558
0.128021 0.814941 0.053558
0.149323 0.814941 0.053558
0.171417 0.814941 0.053558
0.194794 0.814941 0.053558
0.219849 0.814941 0.053558
0.247009 0.814941 0.053558
0.276733 0.814941 0.053558
0.309448 0.814941 0.053558
0.345703 0.814941 0.053558
0.386047 0.814941 0.053558
0.430756 0.814941 0.053558
0.479065 0.814941 0.053558
0.529022 0.814941 0.053558
0.578796 0.814941 0.053558
0.626099 0.814941 0.053558
0.669067 0.814941 0.053558
0.707062 0.814941 0.053558
0.740509 0.814941 0.053558
0.769623 0.814941 0.053558
0.794769 0.814941 0.053558
0.816437 0.814941 0.053558
0.835083 0.814941 0.053558
0.851135 0.814941 0.053558
0.865173 0.814941 0.053558
0.877655 0.814941 0.053558
0.889191 0.814941 0.053558
0.900208 0.814941 0.053558
0.911163 0.814941 0.053558
0.922089 0.814941 0.053558
0.933044 0.814941 0.053558
0.942688 0.814941 0.053558
0.107178 0.820679 0.053558
0.128021 0.820679 0.053558
0.149323 0.820679 0.053558
0.171417 0.820679 0.053558
0.194794 0.820679 0.053558
0.219849 0.820679 0.053558
0.247009 0.820679 0.053558
0.276733 0.820679 0.053558
0.309448 0.820679 0.053558
0.345703 0.820679 0.053558
0.386047 0.820679 0.053558
0.430756 0.820679 0.053558
0.479065 0.820679 0.053558
0.529022 0.820679 0.053558
0.578796 0.820679 0.053558
0.626099 0.820679 0.053558
0.669067 0.820679 0.053558
0.707062 0.820679 0.053558
0.740509 0.820679 0.053558
0.769623 0.820679 0.053558
0.794769 0.820679 0.053558
0.816437 0.820679 0.053558
0.835083 0.820679 0.053558
0.851135 0.820679 0.053558
0.865173 0.820679 0.053558
0.877655 0.820679 0.053558
0.889191 0.820679 0.053558
0.900208 0.820679 0.053558
0.911163 0.820679 0.053558
0.922089 0.820679 0.053558
0.933044 0.820679 0.053558
0.942688 0.820679 0.053558
0.107178 0.825378 0.053558
0.128021 0.825378 0.053558
0.149323 0.825378 0.053558
0.171417 0.825378 0.053558
0.194794 0.825378 0.053558
0.219849 0.825378 0.053558
0.247009 0.825378 0.053558
0.276733 0.825378 0.053558
0.309448 0.825378 0.053558
0.345703 0.825378 0.053558
0.386047 0.825378 0.053558
0.430756 0.825378 0.053558
0.479065 0.825378 0.053558
0.529022 0.825378 0.053558
0.578796 0.825378 0.053558
0.626099 0.825378 0.053558
0.669067 0.825378 0.053558
0.707062 0.825378 0.053558
0.740509 0.825378 0.053558
0.769623 0.825378 0.053558
0.794769 0.825378 0.053558
0.816437 0.825378 0.053558
0.835083 0.825378 0.053558
0.851135 0.825378 0.053558
0.865173 0.825378 0.053558
0.877655 0.825378 0.053558
0.889191 0.825378 0.053558
0.900208 0.825378 0.053558
0.911163 0.825378 0.053558
0.922089 0.825378 0.053558
0.933044 0.825378 0.053558
0.942688 0.825378 0.053558
0.107178 0.830902 0.053558
0.128021 0.830902 0.053558
0.149323 0.830902 0.053558
0.171417 0.830902 0.053558
0.194794 0.830902 0.053558
0.219849 0.830902 0.053558
0.247009 0.830902 0.053558
0.276733 0.830902 0.053558
0.309448 0.830902 0.053558
0.345703 0.830902 0.053558
0.386047 0.830902 0.053558
0.430756 0.830902 0.053558
0.479065 0.830902 0.053558
0.529022 0.830902 0.053558
0.578796 0.830902 0.053558
0.626099 0.830902 0.053558
0.669067 0.830902 0.053558
0.707062 0.830902 0.053558
0.740509 0.830902 0.053558
0.769623 0.830902 0.053558
0.794769 0.830902 0.053558
0.816437 0.830902 0.053558
0.835083 0.830902 0.053558
0.851135 0.830902 0.053558
0.865173 0.830902 0.053558
0.877655 0.830902 0.053558
0.889191 0.830902 0.053558
0.900208 0.830902 0.053558
0.911163 0.830902 0.053558
0.922089 0.830902 0.053558
0.933044 0.830902 0.053558
0.942688 0.830902 0.053558
0.107178 0.837433 0.053558
0.128021 0.837433 0.053558
0.149323 0.837433 0.053558
0.171417 0.837433 0.053558
0.194794 0.837433 0.053558
0.219849 0.837433 0.053558
0.247009 0.837433 0.053558
0.276733 0.837433 0.053558
0.309448 0.837433 0.053558
0.345703 0.837433 0.053558
0.386047 0.837433 0.053558
0.430756 0.837433 0.053558
0.479065 0.837433 0.053558
0.529022 0.837433 0.053558
0.578796 0.837433 0.053558
0.626099 0.837433 0.053558
0.669067 0.837433 0.053558
0.707062 0.837433 0.053558
0.740509 0.837433 0.053558
0.769623 0.837433 0.053558
0.794769 0.837433 0.053558
0.816437 0.837433 0.053558
0.835083 0.837433 0.053558
0.851135 0.837433 0.053558
0.865173 0.837433 0.053558
0.877655 0.837433 0.053558
0.889191 0.837433 0.053558
0.900208 0.837433 0.053558
0.911163 0.837433 0.053558
0.922089 0.837433 0.053558
0.933044 0.837433 0.053558
0.942688 0.837433 0.053558
0.107178 0.844818 0.053558
0.128021 0.844818 0.053558
0.149323 0.844818 0.053558
0.171417 0.844818 0.053558
0.194794 0.844818 0.053558
0.219849 0.844818 0.053558
0.247009 0.844818 0.053558
0.276733 0.844818 0.053558
0.309448 0.844818 0.053558
0.345703 0.844818 0.053558
0.386047 0.844818 0.053558
0.430756 0.844818 0.053558
0.479065 0.844818 0.053558
0.529022 0.844818 0.053558
0.578796 0.844818 0.053558
0.626099 0.844818 0.053558
0.669067 0.844818 0.053558
0.707062 0.844818 0.053558
0.740509 0.844818 0.053558
0.769623 0.844818 0.053558
0.794769 0.844818 0.053558
0.816437 0.844818 0.053558
0.835083 0.844818 0.053558
0.851135 0.844818 0.053558
0.865173 0.844818 0.053558
0.877655 0.844818 0.053558
0.889191 0.844818 0.053558
0.900208 0.844818 0.053558
0.911163 0.844818 0.053558
0.922089 0.844818 0.053558
0.933044 0.844818 0.053558
0.942688 0.844818 0.053558
0.107178 0.852936 0.053558
0.128021 0.852936 0.053558
0.149323 0.852936 0.053558
0.171417 0.852936 0.053558
0.194794 0.852936 0.053558
0.219849 0.852936 0.053558
0.247009 0.852936 0.053558
0.276733 0.852936 0.053558
0.309448 0.852936 0.053558
0.345703 0.852936 0.053558
0.386047 0.852936 0.053558
0.430756 0.852936 0.053558
0.479065 0.852936 0.053558
0.529022 0.852936 0.053558
0.578796 0.852936 0.053558
0.626099 0.852936 0.053558
0.669067 0.852936 0.053558
0.707062 0.852936 0.053558
