Project 5 - Parkour/Graphics/LUTS Instagram/Mayfair.cube
#Created by: Adobe Photoshop Export Color Lookup Plugin
TITLE "Mayfair"
#LUT size
LUT_3D_SIZE 5
#data domain
#LUT data points
DOMAIN_MIN 0.000000 0.000000 0.000000
DOMAIN_MAX 0.903226 0.903226 0.903226
0.107178 0.053558 0.053558
0.276733 0.053558 0.053558
0.578796 0.053558 0.053558
0.816437 0.053558 0.053558
0.911163 0.053558 0.053558
0.107178 0.252716 0.053558
0.276733 0.252716 0.053558
0.578796 0.252716 0.053558
0.816437 0.252716 0.053558
0.911163 0.252716 0.053558
0.107178 0.577087 0.053558
0.276733 0.577087 0.053558
0.578796 0.577087 0.053558
0.816437 0.577087 0.053558
0.911163 0.577087 0.053558
0.107178 0.814941 0.053558
0.276733 0.814941 0.053558
0.578796 0.814941 0.053558
0.816437 0.814941 0.053558
0.911163 0.814941 0.053558
0.107178 0.861664 0.053558
0.276733 0.861664 0.053558
0.578796 0.861664 0.053558
0.816437 0.861664 0.053558
0.911163 0.861664 0.053558
0.107178 0.053558 0.273132
0.276733 0.053558 0.273132
0.578796 0.053558 0.273132
0.816437 0.053558 0.273132
0.911163 0.053558 0.273132
0.107178 0.252716 0.273132
0.276733 0.252716 0.273132
0.578796 0.252716 0.273132
0.816437 0.252716 0.273132
0.911163 0.252716 0.273132
0.107178 0.577087 0.273132
0.276733 0.577087 0.273132
0.578796 0.577087 0.273132
0.816437 0.577087 0.273132
0.911163 0.577087 0.273132
0.107178 0.814941 0.273132
0.276733 0.814941 0.273132
0.578796 0.814941 0.273132
0.816437 0.814941 0.273132
0.911163 0.814941 0.273132
0.107178 0.861664 0.273132
0.276733 0.861664 0.273132
0.578796 0.861664 0.273132
0.816437 0.861664 0.273132
0.911163 0.861664 0.273132
0.107178 0.053558 0.594543
0.276733 0.053558 0.594543
0.578796 0.053558 0.594543
0.816437 0.053558 0.594543
0.911163 0.053558 0.594543
0.107178 0.252716 0.594543
0.276733 0.252716 0.594543
0.578796 0.252716 0.594543
0.816437 0.252716 0.594543
0.911163 0.252716 0.594543
0.107178 0.577087 0.594543
0.276733 0.577087 0.594543
0.578796 0.577087 0.594543
0.816437 0.577087 0.594543
0.911163 0.577087 0.594543
0.107178 0.814941 0.594543
0.276733 0.814941 0.594543
0.578796 0.814941 0.594543
0.816437 0.814941 0.594543
0.911163 0.814941 0.594543
0.107178 0.861664 0.594543
0.276733 0.861664 0.594543
0.578796 0.861664 0.594543
0.816437 0.861664 0.594543
0.911163 0.861664 0.594543
0.107178 0.053558 0.813293
0.276733 0.053558 0.813293
0.578796 0.053558 0.813293
0.816437 0.053558 0.813293
0.911163 0.053558 0.813293
0.107178 0.252716 0.813293
0.276733 0.252716 0.813293
0.578796 0.252716 0.813293
0.816437 0.252716 0.813293
0.911163 0.252716 0.813293
0.107178 0.577087 0.813293
0.276733 0.577087 0.813293
0.578796 0.577087 0.813293
0.816437 0.577087 0.813293
0.911163 0.577087 0.813293
0.107178 0.814941 0.813293
0.276733 0.814941 0.813293
0.578796 0.814941 0.813293
0.816437 0.814941 0.813293
0.911163 0.814941 0.813293
0.107178 0.861664 0.813293
0.276733 0.861664 0.813293
0.578796 0.861664 0.813293
0.816437 0.861664 0.813293
0.911163 0.861664 0.813293
0.107178 0.053558 0.872894
0.276733 0.053558 0.872894
0.578796 0.053558 0.872894
0.816437 0.053558 0.872894
0.911163 0.053558 0.872894
0.107178 0.252716 0.872894
0.276733 0.252716 0.872894
0.578796 0.252716 0.872894
0.816437 0.252716 0.872894
0.911163 0.252716 0.872894
0.107178 0.577087 0.872894
0.276733 0.577087 0.872894
0.578796 0.577087 0.872894
0.816437 0.577087 0.872894
0.911163 0.577087 0.872894
0.107178 0.814941 0.872894
0.276733 0.814941 0.872894
0.578796 0.814941 0.872894
0.816437 0.814941 0.872894
0.911163 0.814941 0.872894
0.107178 0.861664 0.872894
0.276733 0.861664 0.872894
0.578796 0.861664 0.872894
0.816437 0.861664 0.872894
0.911163 0.861664 0.872894
