Project 5 - Parkour/Graphics/LUTS Instagram/Mayfair.cube
#Created by: Adobe Photoshop Export Color Lookup Plugin
TITLE "Mayfair"
#LUT size
LUT_3D_SIZE 8
#data domain
#LUT data points
DOMAIN_MIN 0.000000 0.000000 0.000000
DOMAIN_MAX 0.903226 0.903226 0.903226
0.107178 0.053558 0.053558
0.194794 0.053558 0.053558
0.309448 0.053558 0.053558
0.479065 0.053558 0.053558
0.669067 0.053558 0.053558
0.794769 0.053558 0.053558
0.865173 0.053558 0.053558
0.911163 0.053558 0.053558
0.107178 0.173584 0.053558
0.194794 0.173584 0.053558
0.309448 0.173584 0.053558
0.479065 0.173584 0.053558
0.669067 0.173584 0.053558
0.794769 0.173584 0.053558
0.865173 0.173584 0.053558
0.911163 0.173584 0.053558
0.107178 0.281586 0.053558
0.194794 0.281586 0.053558
0.309448 0.281586 0.053558
0.479065 0.281586 0.053558
0.669067 0.281586 0.053558
0.794769 0.281586 0.053558
0.865173 0.281586 0.053558
0.911163 0.281586 0.053558
0.107178 0.459595 0.053558
0.194794 0.459595 0.053558
0.309448 0.459595 0.053558
0.479065 0.459595 0.053558
0.669067 0.459595 0.053558
0.794769 0.459595 0.053558
0.865173 0.459595 0.053558
0.911163 0.459595 0.053558
0.107178 0.687622 0.053558
0.194794 0.687622 0.053558
0.309448 0.687622 0.053558
0.479065 0.687622 0.053558
0.669067 0.687622 0.053558
0.794769 0.687622 0.053558
0.865173 0.687622 0.053558
0.911163 0.687622 0.053558
0.107178 0.805725 0.053558
0.194794 0.805725 0.053558
0.309448 0.805725 0.053558
0.479065 0.805725 0.053558
0.669067 0.805725 0.053558
0.794769 0.805725 0.053558
0.865173 0.805725 0.053558
0.911163 0.805725 0.053558
0.107178 0.830902 0.053558
0.194794 0.830902 0.053558
0.309448 0.830902 0.053558
0.479065 0.830902 0.053558
0.669067 0.830902 0.053558
0.794769 0.830902 0.053558
0.865173 0.830902 0.053558
0.911163 0.830902 0.053558
0.107178 0.861664 0.053558
0.194794 0.861664 0.053558
0.309448 0.861664 0.053558
0.479065 0.861664 0.053558
0.669067 0.861664 0.053558
0.794769 0.861664 0.053558
0.865173 0.861664 0.053558
0.911163 0.861664 0.053558
0.107178 0.053558 0.166412
0.194794 0.053558 0.166412
0.309448 0.053558 0.166412
0.479065 0.053558 0.166412
0.669067 0.053558 0.166412
0.794769 0.053558 0.166412
0.865173 0.053558 0.166412
0.911163 0.053558 0.166412
0.107178 0.173584 0.166412
0.194794 0.173584 0.166412
0.309448 0.173584 0.166412
0.479065 0.173584 0.166412
0.669067 0.173584 0.166412
0.794769 0.173584 0.166412
0.865173 0.173584 0.166412
0.911163 0.173584 0.166412
0.107178 0.281586 0.166412
0.194794 0.281586 0.166412
0.309448 0.281586 0.166412
0.479065 0.281586 0.166412
0.669067 0.281586 0.166412
0.794769 0.281586 0.166412
0.865173 0.281586 0.166412
0.911163 0.281586 0.166412
0.107178 0.459595 0.166412
0.194794 0.459595 0.166412
0.309448 0.459595 0.166412
0.479065 0.459595 0.166412
0.669067 0.459595 0.166412
0.794769 0.459595 0.166412
0.865173 0.459595 0.166412
0.911163 0.459595 0.166412
0.107178 0.687622 0.166412
0.194794 0.687622 0.166412
0.309448 0.687622 0.166412
0.479065 0.687622 0.166412
0.669067 0.687622 0.166412
0.794769 0.687622 0.166412
0.865173 0.687622 0.166412
0.911163 0.687622 0.166412
0.107178 0.805725 0.166412
0.194794 0.805725 0.166412
0.309448 0.805725 0.166412
0.479065 0.805725 0.166412
0.669067 0.805725 0.166412
0.794769 0.805725 0.166412
0.865173 0.805725 0.166412
0.911163 0.805725 0.166412
0.107178 0.830902 0.166412
0.194794 0.830902 0.166412
0.309448 0.830902 0.166412
0.479065 0.830902 0.166412
0.669067 0.830902 0.166412
0.794769 0.830902 0.166412
0.865173 0.830902 0.166412
0.911163 0.830902 0.166412
0.107178 0.861664 0.166412
0.194794 0.861664 0.166412
0.309448 0.861664 0.166412
0.479065 0.861664 0.166412
0.669067 0.861664 0.166412
0.794769 0.861664 0.166412
0.865173 0.861664 0.166412
0.911163 0.861664 0.166412
0.107178 0.053558 0.314362
0.194794 0.053558 0.314362
0.309448 0.053558 0.314362
0.479065 0.053558 0.314362
0.669067 0.053558 0.314362
0.794769 0.053558 0.314362
0.865173 0.053558 0.314362
0.911163 0.053558 0.314362
0.107178 0.173584 0.314362
0.194794 0.173584 0.314362
0.309448 0.173584 0.314362
0.479065 0.173584 0.314362
0.669067 0.173584 0.314362
0.794769 0.173584 0.314362
0.865173 0.173584 0.314362
0.911163 0.173584 0.314362
0.107178 0.281586 0.314362
0.194794 0.281586 0.314362
0.309448 0.281586 0.314362
0.479065 0.281586 0.314362
0.669067 0.281586 0.314362
0.794769 0.281586 0.314362
0.865173 0.281586 0.314362
0.911163 0.281586 0.314362
0.107178 0.459595 0.314362
0.194794 0.459595 0.314362
0.309448 0.459595 0.314362
0.479065 0.459595 0.314362
0.669067 0.459595 0.314362
0.794769 0.459595 0.314362
0.865173 0.459595 0.314362
0.911163 0.459595 0.314362
0.107178 0.687622 0.314362
0.194794 0.687622 0.314362
0.309448 0.687622 0.314362
0.479065 0.687622 0.314362
0.669067 0.687622 0.314362
0.794769 0.687622 0.314362
0.865173 0.687622 0.314362
0.911163 0.687622 0.314362
0.107178 0.805725 0.314362
0.194794 0.805725 0.314362
0.309448 0.805725 0.314362
0.479065 0.805725 0.314362
0.669067 0.805725 0.314362
0.794769 0.805725 0.314362
0.865173 0.805725 0.314362
0.911163 0.805725 0.314362
0.107178 0.830902 0.314362
0.194794 0.830902 0.314362
0.309448 0.830902 0.314362
0.479065 0.830902 0.314362
0.669067 0.830902 0.314362
0.794769 0.830902 0.314362
0.865173 0.830902 0.314362
0.911163 0.830902 0.314362
0.107178 0.861664 0.314362
0.194794 0.861664 0.314362
0.309448 0.861664 0.314362
0.479065 0.861664 0.314362
0.669067 0.861664 0.314362
0.794769 0.861664 0.314362
0.865173 0.861664 0.314362
0.911163 0.861664 0.314362
0.107178 0.053558 0.499176
0.194794 0.053558 0.499176
0.309448 0.053558 0.499176
0.479065 0.053558 0.499176
0.669067 0.053558 0.499176
0.794769 0.053558 0.499176
0.865173 0.053558 0.499176
0.911163 0.053558 0.499176
0.107178 0.173584 0.499176
0.194794 0.173584 0.499176
0.309448 0.173584 0.499176
0.479065 0.173584 0.499176
0.669067 0.173584 0.499176
0.794769 0.173584 0.499176
0.865173 0.173584 0.499176
0.911163 0.173584 0.499176
0.107178 0.281586 0.499176
0.194794 0.281586 0.499176
0.309448 0.281586 0.499176
0.479065 0.281586 0.499176
0.669067 0.281586 0.499176
0.794769 0.281586 0.499176
0.865173 0.281586 0.499176
0.911163 0.281586 0.499176
0.107178 0.459595 0.499176
0.194794 0.459595 0.499176
0.309448 0.459595 0.499176
0.479065 0.459595 0.499176
0.669067 0.459595 0.499176
0.794769 0.459595 0.499176
0.865173 0.459595 0.499176
0.911163 0.459595 0.499176
0.107178 0.687622 0.499176
0.194794 0.687622 0.499176
0.309448 0.687622 0.499176
0.479065 0.687622 0.499176
0.669067 0.687622 0.499176
0.794769 0.687622 0.499176
0.865173 0.687622 0.499176
0.911163 0.687622 0.499176
0.107178 0.805725 0.499176
0.194794 0.805725 0.499176
0.309448 0.805725 0.499176
0.479065 0.805725 0.499176
0.669067 0.805725 0.499176
0.794769 0.805725 0.499176
0.865173 0.805725 0.499176
0.911163 0.805725 0.499176
0.107178 0.830902 0.499176
0.194794 0.830902 0.499176
0.309448 0.830902 0.499176
0.479065 0.830902 0.499176
0.669067 0.830902 0.499176
0.794769 0.830902 0.499176
0.865173 0.830902 0.499176
0.911163 0.830902 0.499176
0.107178 0.861664 0.499176
0.194794 0.861664 0.499176
0.309448 0.861664 0.499176
0.479065 0.861664 0.499176
0.669067 0.861664 0.499176
0.794769 0.861664 0.499176
0.865173 0.861664 0.499176
0.911163 0.861664 0.499176
0.107178 0.053558 0.681091
0.194794 0.053558 0.681091
0.309448 0.053558 0.681091
0.479065 0.053558 0.681091
0.669067 0.053558 0.681091
0.794769 0.053558 0.681091
0.865173 0.053558 0.681091
0.911163 0.053558 0.681091
0.107178 0.173584 0.681091
0.194794 0.173584 0.681091
0.309448 0.173584 0.681091
0.479065 0.173584 0.681091
0.669067 0.173584 0.681091
0.794769 0.173584 0.681091
0.865173 0.173584 0.681091
0.911163 0.173584 0.681091
0.107178 0.281586 0.681091
0.194794 0.281586 0.681091
0.309448 0.281586 0.681091
0.479065 0.281586 0.681091
0.669067 0.281586 0.681091
0.794769 0.281586 0.681091
0.865173 0.281586 0.681091
0.911163 0.281586 0.681091
0.107178 0.459595 0.681091
0.194794 0.459595 0.681091
0.309448 0.459595 0.681091
0.479065 0.459595 0.681091
0.669067 0.459595 0.681091
0.794769 0.459595 0.681091
0.865173 0.459595 0.681091
0.911163 0.459595 0.681091
0.107178 0.687622 0.681091
0.194794 0.687622 0.681091
0.309448 0.687622 0.681091
0.479065 0.687622 0.681091
0.669067 0.687622 0.681091
0.794769 0.687622 0.681091
0.865173 0.687622 0.681091
0.911163 0.687622 0.681091
0.107178 0.805725 0.681091
0.194794 0.805725 0.681091
0.309448 0.805725 0.681091
0.479065 0.805725 0.681091
0.669067 0.805725 0.681091
0.794769 0.805725 0.681091
0.865173 0.805725 0.681091
0.911163 0.805725 0.681091
0.107178 0.830902 0.681091
0.194794 0.830902 0.681091
0.309448 0.830902 0.681091
0.479065 0.830902 0.681091
0.669067 0.830902 0.681091
0.794769 0.830902 0.681091
0.865173 0.830902 0.681091
0.911163 0.830902 0.681091
0.107178 0.861664 0.681091
0.194794 0.861664 0.681091
0.309448 0.861664 0.681091
0.479065 0.861664 0.681091
0.669067 0.861664 0.681091
0.794769 0.861664 0.681091
0.865173 0.861664 0.681091
0.911163 0.861664 0.681091
0.107178 0.053558 0.797607
0.194794 0.053558 0.797607
0.309448 0.053558 0.797607
0.479065 0.053558 0.797607
0.669067 0.053558 0.797607
0.794769 0.053558 0.797607
0.865173 0.053558 0.797607
0.911163 0.053558 0.797607
0.107178 0.173584 0.797607
0.194794 0.173584 0.797607
0.309448 0.173584 0.797607
0.479065 0.173584 0.797607
0.669067 0.173584 0.797607
0.794769 0.173584 0.797607
0.865173 0.173584 0.797607
0.911163 0.173584 0.797607
0.107178 0.281586 0.797607
0.194794 0.281586 0.797607
0.309448 0.281586 0.797607
0.479065 0.281586 0.797607
0.669067 0.281586 0.797607
0.794769 0.281586 0.797607
0.865173 0.281586 0.797607
0.911163 0.281586 0.797607
0.107178 0.459595 0.797607
0.194794 0.459595 0.797607
0.309448 0.459595 0.797607
0.479065 0.459595 0.797607
0.669067 0.459595 0.797607
0.794769 0.459595 0.797607
0.865173 0.459595 0.797607
0.911163 0.459595 0.797607
0.107178 0.687622 0.797607
0.194794 0.687622 0.797607
0.309448 0.687622 0.797607
0.479065 0.687622 0.797607
0.669067 0.687622 0.797607
0.794769 0.687622 0.797607
0.865173 0.687622 0.797607
0.911163 0.687622 0.797607
0.107178 0.805725 0.797607
0.194794 0.805725 0.797607
0.309448 0.805725 0.797607
0.479065 0.805725 0.797607
0.669067 0.805725 0.797607
0.794769 0.805725 0.797607
0.865173 0.805725 0.797607
0.911163 0.805725 0.797607
0.107178 0.830902 0.797607
0.194794 0.830902 0.797607
0.309448 0.830902 0.797607
0.479065 0.830902 0.797607
0.669067 0.830902 0.797607
0.794769 0.830902 0.797607
0.865173 0.830902 0.797607
0.911163 0.830902 0.797607
0.107178 0.861664 0.797607
0.194794 0.861664 0.797607
0.309448 0.861664 0.797607
0.479065 0.861664 0.797607
0.669067 0.861664 0.797607
0.794769 0.861664 0.797607
0.865173 0.861664 0.797607
0.911163 0.861664 0.797607
0.107178 0.053558 0.831512
0.194794 0.053558 0.831512
0.309448 0.053558 0.831512
0.479065 0.053558 0.831512
0.669067 0.053558 0.831512
0.794769 0.053558 0.831512
0.865173 0.053558 0.831512
0.911163 0.053558 0.831512
0.107178 0.173584 0.831512
0.194794 0.173584 0.831512
0.309448 0.173584 0.831512
0.479065 0.173584 0.831512
0.669067 0.173584 0.831512
0.794769 0.173584 0.831512
0.865173 0.173584 0.831512
0.911163 0.173584 0.831512
0.107178 0.281586 0.831512
0.194794 0.281586 0.831512
0.309448 0.281586 0.831512
0.479065 0.281586 0.831512
0.669067 0.281586 0.831512
0.794769 0.281586 0.831512
0.865173 0.281586 0.831512
0.911163 0.281586 0.831512
0.107178 0.459595 0.831512
0.194794 0.459595 0.831512
0.309448 0.459595 0.831512
0.479065 0.459595 0.831512
0.669067 0.459595 0.831512
0.794769 0.459595 0.831512
0.865173 0.459595 0.831512
0.911163 0.459595 0.831512
0.107178 0.687622 0.831512
0.194794 0.687622 0.831512
0.309448 0.687622 0.831512
0.479065 0.687622 0.831512
0.669067 0.687622 0.831512
0.794769 0.687622 0.831512
0.865173 0.687622 0.831512
0.911163 0.687622 0.831512
0.107178 0.805725 0.831512
0.194794 0.805725 0.831512
0.309448 0.805725 0.831512
0.479065 0.805725 0.831512
0.669067 0.805725 0.831512
0.794769 0.805725 0.831512
0.865173 0.805725 0.831512
0.911163 0.805725 0.831512
0.107178 0.830902 0.831512
0.194794 0.830902 0.831512
0.309448 0.830902 0.831512
0.479065 0.830902 0.831512
0.669067 0.830902 0.831512
0.794769 0.830902 0.831512
0.865173 0.830902 0.831512
0.911163 0.830902 0.831512
0.107178 0.861664 0.831512
0.194794 0.861664 0.831512
0.309448 0.861664 0.831512
0.479065 0.861664 0.831512
0.669067 0.861664 0.831512
0.794769 0.861664 0.831512
0.865173 0.861664 0.831512
0.911163 0.861664 0.831512
0.107178 0.053558 0.872894
0.194794 0.053558 0.872894
0.309448 0.053558 0.872894
0.479065 0.053558 0.872894
0.669067 0.053558 0.872894
0.794769 0.053558 0.872894
0.865173 0.053558 0.872894
0.911163 0.053558 0.872894
0.107178 0.173584 0.872894
0.194794 0.173584 0.872894
0.309448 0.173584 0.872894
0.479065 0.173584 0.872894
0.669067 0.173584 0.872894
0.794769 0.173584 0.872894
0.865173 0.173584 0.872894
0.911163 0.173584 0.872894
0.107178 0.281586 0.872894
0.194794 0.281586 0.872894
0.309448 0.281586 0.872894
0.479065 0.281586 0.872894
0.669067 0.281586 0.872894
0.794769 0.281586 0.872894
0.865173 0.281586 0.872894
0.911163 0.281586 0.872894
0.107178 0.459595 0.872894
0.194794 0.459595 0.872894
0.309448 0.459595 0.872894
0.479065 0.459595 0.872894
0.669067 0.459595 0.872894
0.794769 0.459595 0.872894
0.865173 0.459595 0.872894
0.911163 0.459595 0.872894
0.107178 0.687622 0.872894
0.194794 0.687622 0.872894
0.309448 0.687622 0.872894
0.479065 0.687622 0.872894
0.669067 0.687622 0.872894
0.794769 0.687622 0.872894
0.865173 0.687622 0.872894
0.911163 0.687622 0.872894
0.107178 0.805725 0.872894
0.194794 0.805725 0.872894
0.309448 0.805725 0.872894
0.479065 0.805725 0.872894
0.669067 0.805725 0.872894
0.794769 0.805725 0.872894
0.865173 0.805725 0.872894
0.911163 0.805725 0.872894
0.107178 0.830902 0.872894
0.194794 0.830902 0.872894
0.309448 0.830902 0.872894
0.479065 0.830902 0.872894
0.669067 0.830902 0.872894
0.794769 0.830902 0.872894
0.865173 0.830902 0.872894
0.911163 0.830902 0.872894
0.107178 0.861664 0.872894
0.194794 0.861664 0.872894
0.309448 0.861664 0.872894
0.479065 0.861664 0.872894
0.669067 0.861664 0.872894
0.794769 0.861664 0.872894
0.865173 0.861664 0.872894
0.911163 0.861664 0.872894
