Project 5 - Parkour/Graphics/LUTS Instagram/Slumber.cube
#Created by: Adobe Photoshop Export Color Lookup Plugin
TITLE "Slumber"
#LUT size
LUT_3D_SIZE 5
#data domain
#LUT data points
DOMAIN_MIN 0.000000 0.000000 0.000000
DOMAIN_MAX 0.903226 0.903226 0.903226
0.000000 0.000000 0.000000
0.265381 0.000000 0.000000
0.370056 0.000000 0.000000
0.658295 0.000000 0.000000
0.987854 0.000000 0.000000
0.000000 0.196838 0.000000
0.265381 0.196838 0.000000
0.370056 0.196838 0.000000
0.658295 0.196838 0.000000
0.987854 0.196838 0.000000
0.000000 0.403595 0.000000
0.265381 0.403595 0.000000
0.370056 0.403595 0.000000
0.658295 0.403595 0.000000
0.987854 0.403595 0.000000
0.000000 0.630096 0.000000
0.265381 0.630096 0.000000
0.370056 0.630096 0.000000
0.658295 0.630096 0.000000
0.987854 0.630096 0.000000
0.000000 0.884827 0.000000
0.265381 0.884827 0.000000
0.370056 0.884827 0.000000
0.658295 0.884827 0.000000
0.987854 0.884827 0.000000
0.000000 0.000000 0.196838
0.265381 0.000000 0.196838
0.370056 0.000000 0.196838
0.658295 0.000000 0.196838
0.987854 0.000000 0.196838
0.000000 0.196838 0.196838
0.265381 0.196838 0.196838
0.370056 0.196838 0.196838
0.658295 0.196838 0.196838
0.987854 0.196838 0.196838
0.000000 0.403595 0.196838
0.265381 0.403595 0.196838
0.370056 0.403595 0.196838
0.658295 0.403595 0.196838
0.987854 0.403595 0.196838
0.000000 0.630096 0.196838
0.265381 0.630096 0.196838
0.370056 0.630096 0.196838
0.658295 0.630096 0.196838
0.987854 0.630096 0.196838
0.000000 0.884827 0.196838
0.265381 0.884827 0.196838
0.370056 0.884827 0.196838
0.658295 0.884827 0.196838
0.987854 0.884827 0.196838
0.000000 0.000000 0.403595
0.265381 0.000000 0.403595
0.370056 0.000000 0.403595
0.658295 0.000000 0.403595
0.987854 0.000000 0.403595
0.000000 0.196838 0.403595
0.265381 0.196838 0.403595
0.370056 0.196838 0.403595
0.658295 0.196838 0.403595
0.987854 0.196838 0.403595
0.000000 0.403595 0.403595
0.265381 0.403595 0.403595
0.370056 0.403595 0.403595
0.658295 0.403595 0.403595
0.987854 0.403595 0.403595
0.000000 0.630096 0.403595
0.265381 0.630096 0.403595
0.370056 0.630096 0.403595
0.658295 0.630096 0.403595
0.987854 0.630096 0.403595
0.000000 0.884827 0.403595
0.265381 0.884827 0.403595
0.370056 0.884827 0.403595
0.658295 0.884827 0.403595
0.987854 0.884827 0.403595
0.000000 0.000000 0.630096
0.265381 0.000000 0.630096
0.370056 0.000000 0.630096
0.658295 0.000000 0.630096
0.987854 0.000000 0.630096
0.000000 0.196838 0.630096
0.265381 0.196838 0.630096
0.370056 0.196838 0.630096
0.658295 0.196838 0.630096
0.987854 0.196838 0.630096
0.000000 0.403595 0.630096
0.265381 0.403595 0.630096
0.370056 0.403595 0.630096
0.658295 0.403595 0.630096
0.987854 0.403595 0.630096
0.000000 0.630096 0.630096
0.265381 0.630096 0.630096
0.370056 0.630096 0.630096
0.658295 0.630096 0.630096
0.987854 0.630096 0.630096
0.000000 0.884827 0.630096
0.265381 0.884827 0.630096
0.370056 0.884827 0.630096
0.658295 0.884827 0.630096
0.987854 0.884827 0.630096
0.000000 0.000000 0.884827
0.265381 0.000000 0.884827
0.370056 0.000000 0.884827
0.658295 0.000000 0.884827
0.987854 0.000000 0.884827
0.000000 0.196838 0.884827
0.265381 0.196838 0.884827
0.370056 0.196838 0.884827
0.658295 0.196838 0.884827
0.987854 0.196838 0.884827
0.000000 0.403595 0.884827
0.265381 0.403595 0.884827
0.370056 0.403595 0.884827
0.658295 0.403595 0.884827
0.987854 0.403595 0.884827
0.000000 0.630096 0.884827
0.265381 0.630096 0.884827
0.370056 0.630096 0.884827
0.658295 0.630096 0.884827
0.987854 0.630096 0.884827
0.000000 0.884827 0.884827
0.265381 0.884827 0.884827
0.370056 0.884827 0.884827
0.658295 0.884827 0.884827
0.987854 0.884827 0.884827
