Project 5 - Parkour/Graphics/LUTS Instagram/Slumber.cube
#Created by: Adobe Photoshop Export Color Lookup Plugin
TITLE "Slumber"
#LUT size
LUT_3D_SIZE 32
#data domain
DOMAIN_MIN 0.0 0.0 0.0
DOMAIN_MAX 1.0 1.0 1.0
#LUT data points
0.000000 0.000000 0.000000
0.053040 0.000000 0.000000
0.104034 0.000000 0.000000
0.150726 0.000000 0.000000
0.190826 0.000000 0.000000
0.222656 0.000000 0.000000
0.247040 0.000000 0.000000
0.265381 0.000000 0.000000
0.279541 0.000000 0.000000
0.291046 0.000000 0.000000
0.301636 0.000000 0.000000
0.313019 0.000000 0.000000
0.327026 0.000000 0.000000
0.345367 0.000000 0.000000
0.370056 0.000000 0.000000
0.402832 0.000000 0.000000
0.443542 0.000000 0.000000
0.488983 0.000000 0.000000
0.535736 0.000000 0.000000
0.579865 0.000000 0.000000
0.620270 0.000000 0.000000
0.658295 0.000000 0.000000
0.695648 0.000000 0.000000
0.734100 0.000000 0.000000
0.775665 0.000000 0.000000
0.822144 0.000000 0.000000
0.874023 0.000000 0.000000
0.929840 0.000000 0.000000
0.987854 0.000000 0.000000
1.000000 0.000000 0.000000
1.000000 0.000000 0.000000
1.000000 0.000000 0.000000
0.000000 0.027893 0.000000
0.053040 0.027893 0.000000
0.104034 0.027893 0.000000
0.150726 0.027893 0.000000
0.190826 0.027893 0.000000
0.222656 0.027893 0.000000
0.247040 0.027893 0.000000
0.265381 0.027893 0.000000
0.279541 0.027893 0.000000
0.291046 0.027893 0.000000
0.301636 0.027893 0.000000
0.313019 0.027893 0.000000
0.327026 0.027893 0.000000
0.345367 0.027893 0.000000
0.370056 0.027893 0.000000
0.402832 0.027893 0.000000
0.443542 0.027893 0.000000
0.488983 0.027893 0.000000
0.535736 0.027893 0.000000
0.579865 0.027893 0.000000
0.620270 0.027893 0.000000
0.658295 0.027893 0.000000
0.695648 0.027893 0.000000
0.734100 0.027893 0.000000
0.775665 0.027893 0.000000
0.822144 0.027893 0.000000
0.874023 0.027893 0.000000
0.929840 0.027893 0.000000
0.987854 0.027893 0.000000
1.000000 0.027893 0.000000
1.000000 0.027893 0.000000
1.000000 0.027893 0.000000
0.000000 0.055847 0.000000
0.053040 0.055847 0.000000
0.104034 0.055847 0.000000
0.150726 0.055847 0.000000
0.190826 0.055847 0.000000
0.222656 0.055847 0.000000
0.247040 0.055847 0.000000
0.265381 0.055847 0.000000
0.279541 0.055847 0.000000
0.291046 0.055847 0.000000
0.301636 0.055847 0.000000
0.313019 0.055847 0.000000
0.327026 0.055847 0.000000
0.345367 0.055847 0.000000
0.370056 0.055847 0.000000
0.402832 0.055847 0.000000
0.443542 0.055847 0.000000
0.488983 0.055847 0.000000
0.535736 0.055847 0.000000
0.579865 0.055847 0.000000
0.620270 0.055847 0.000000
0.658295 0.055847 0.000000
0.695648 0.055847 0.000000
0.734100 0.055847 0.000000
0.775665 0.055847 0.000000
0.822144 0.055847 0.000000
0.874023 0.055847 0.000000
0.929840 0.055847 0.000000
0.987854 0.055847 0.000000
1.000000 0.055847 0.000000
1.000000 0.055847 0.000000
1.000000 0.055847 0.000000
0.000000 0.083801 0.000000
0.053040 0.083801 0.000000
0.104034 0.083801 0.000000
0.150726 0.083801 0.000000
0.190826 0.083801 0.000000
0.222656 0.083801 0.000000
0.247040 0.083801 0.000000
0.265381 0.083801 0.000000
0.279541 0.083801 0.000000
0.291046 0.083801 0.000000
0.301636 0.083801 0.000000
0.313019 0.083801 0.000000
0.327026 0.083801 0.000000
0.345367 0.083801 0.000000
0.370056 0.083801 0.000000
0.402832 0.083801 0.000000
0.443542 0.083801 0.000000
0.488983 0.083801 0.000000
0.535736 0.083801 0.000000
0.579865 0.083801 0.000000
0.620270 0.083801 0.000000
0.658295 0.083801 0.000000
0.695648 0.083801 0.000000
0.734100 0.083801 0.000000
0.775665 0.083801 0.000000
0.822144 0.083801 0.000000
0.874023 0.083801 0.000000
0.929840 0.083801 0.000000
0.987854 0.083801 0.000000
1.000000 0.083801 0.000000
1.000000 0.083801 0.000000
1.000000 0.083801 0.000000
0.000000 0.111877 0.000000
0.053040 0.111877 0.000000
0.104034 0.111877 0.000000
0.150726 0.111877 0.000000
0.190826 0.111877 0.000000
0.222656 0.111877 0.000000
0.247040 0.111877 0.000000
0.265381 0.111877 0.000000
0.279541 0.111877 0.000000
0.291046 0.111877 0.000000
0.301636 0.111877 0.000000
0.313019 0.111877 0.000000
0.327026 0.111877 0.000000
0.345367 0.111877 0.000000
0.370056 0.111877 0.000000
0.402832 0.111877 0.000000
0.443542 0.111877 0.000000
0.488983 0.111877 0.000000
0.535736 0.111877 0.000000
0.579865 0.111877 0.000000
0.620270 0.111877 0.000000
0.658295 0.111877 0.000000
0.695648 0.111877 0.000000
0.734100 0.111877 0.000000
0.775665 0.111877 0.000000
0.822144 0.111877 0.000000
0.874023 0.111877 0.000000
0.929840 0.111877 0.000000
0.987854 0.111877 0.000000
1.000000 0.111877 0.000000
1.000000 0.111877 0.000000
1.000000 0.111877 0.000000
0.000000 0.140015 0.000000
0.053040 0.140015 0.000000
0.104034 0.140015 0.000000
0.150726 0.140015 0.000000
0.190826 0.140015 0.000000
0.222656 0.140015 0.000000
0.247040 0.140015 0.000000
0.265381 0.140015 0.000000
0.279541 0.140015 0.000000
0.291046 0.140015 0.000000
0.301636 0.140015 0.000000
0.313019 0.140015 0.000000
0.327026 0.140015 0.000000
0.345367 0.140015 0.000000
0.370056 0.140015 0.000000
0.402832 0.140015 0.000000
0.443542 0.140015 0.000000
0.488983 0.140015 0.000000
0.535736 0.140015 0.000000
0.579865 0.140015 0.000000
0.620270 0.140015 0.000000
0.658295 0.140015 0.000000
0.695648 0.140015 0.000000
0.734100 0.140015 0.000000
0.775665 0.140015 0.000000
0.822144 0.140015 0.000000
0.874023 0.140015 0.000000
0.929840 0.140015 0.000000
0.987854 0.140015 0.000000
1.000000 0.140015 0.000000
1.000000 0.140015 0.000000
1.000000 0.140015 0.000000
0.000000 0.168365 0.000000
0.053040 0.168365 0.000000
0.104034 0.168365 0.000000
0.150726 0.168365 0.000000
0.190826 0.168365 0.000000
0.222656 0.168365 0.000000
0.247040 0.168365 0.000000
0.265381 0.168365 0.000000
0.279541 0.168365 0.000000
0.291046 0.168365 0.000000
0.301636 0.168365 0.000000
0.313019 0.168365 0.000000
0.327026 0.168365 0.000000
0.345367 0.168365 0.000000
0.370056 0.168365 0.000000
0.402832 0.168365 0.000000
0.443542 0.168365 0.000000
0.488983 0.168365 0.000000
0.535736 0.168365 0.000000
0.579865 0.168365 0.000000
0.620270 0.168365 0.000000
0.658295 0.168365 0.000000
0.695648 0.168365 0.000000
0.734100 0.168365 0.000000
0.775665 0.168365 0.000000
0.822144 0.168365 0.000000
0.874023 0.168365 0.000000
0.929840 0.168365 0.000000
0.987854 0.168365 0.000000
1.000000 0.168365 0.000000
1.000000 0.168365 0.000000
1.000000 0.168365 0.000000
0.000000 0.196838 0.000000
0.053040 0.196838 0.000000
0.104034 0.196838 0.000000
0.150726 0.196838 0.000000
0.190826 0.196838 0.000000
0.222656 0.196838 0.000000
0.247040 0.196838 0.000000
0.265381 0.196838 0.000000
0.279541 0.196838 0.000000
0.291046 0.196838 0.000000
0.301636 0.196838 0.000000
0.313019 0.196838 0.000000
0.327026 0.196838 0.000000
0.345367 0.196838 0.000000
0.370056 0.196838 0.000000
0.402832 0.196838 0.000000
0.443542 0.196838 0.000000
0.488983 0.196838 0.000000
0.535736 0.196838 0.000000
0.579865 0.196838 0.000000
0.620270 0.196838 0.000000
0.658295 0.196838 0.000000
0.695648 0.196838 0.000000
0.734100 0.196838 0.000000
0.775665 0.196838 0.000000
0.822144 0.196838 0.000000
0.874023 0.196838 0.000000
0.929840 0.196838 0.000000
0.987854 0.196838 0.000000
1.000000 0.196838 0.000000
1.000000 0.196838 0.000000
1.000000 0.196838 0.000000
0.000000 0.225555 0.000000
0.053040 0.225555 0.000000
0.104034 0.225555 0.000000
0.150726 0.225555 0.000000
0.190826 0.225555 0.000000
0.222656 0.225555 0.000000
0.247040 0.225555 0.000000
0.265381 0.225555 0.000000
0.279541 0.225555 0.000000
0.291046 0.225555 0.000000
0.301636 0.225555 0.000000
0.313019 0.225555 0.000000
0.327026 0.225555 0.000000
0.345367 0.225555 0.000000
0.370056 0.225555 0.000000
0.402832 0.225555 0.000000
0.443542 0.225555 0.000000
0.488983 0.225555 0.000000
0.535736 0.225555 0.000000
0.579865 0.225555 0.000000
0.620270 0.225555 0.000000
0.658295 0.225555 0.000000
0.695648 0.225555 0.000000
0.734100 0.225555 0.000000
0.775665 0.225555 0.000000
0.822144 0.225555 0.000000
0.874023 0.225555 0.000000
0.929840 0.225555 0.000000
0.987854 0.225555 0.000000
1.000000 0.225555 0.000000
1.000000 0.225555 0.000000
1.000000 0.225555 0.000000
0.000000 0.254486 0.000000
0.053040 0.254486 0.000000
0.104034 0.254486 0.000000
0.150726 0.254486 0.000000
0.190826 0.254486 0.000000
0.222656 0.254486 0.000000
0.247040 0.254486 0.000000
0.265381 0.254486 0.000000
0.279541 0.254486 0.000000
0.291046 0.254486 0.000000
0.301636 0.254486 0.000000
0.313019 0.254486 0.000000
0.327026 0.254486 0.000000
0.345367 0.254486 0.000000
0.370056 0.254486 0.000000
0.402832 0.254486 0.000000
0.443542 0.254486 0.000000
0.488983 0.254486 0.000000
0.535736 0.254486 0.000000
0.579865 0.254486 0.000000
0.620270 0.254486 0.000000
0.658295 0.254486 0.000000
0.695648 0.254486 0.000000
0.734100 0.254486 0.000000
0.775665 0.254486 0.000000
0.822144 0.254486 0.000000
0.874023 0.254486 0.000000
0.929840 0.254486 0.000000
0.987854 0.254486 0.000000
1.000000 0.254486 0.000000
1.000000 0.254486 0.000000
1.000000 0.254486 0.000000
0.000000 0.283691 0.000000
0.053040 0.283691 0.000000
0.104034 0.283691 0.000000
0.150726 0.283691 0.000000
0.190826 0.283691 0.000000
0.222656 0.283691 0.000000
0.247040 0.283691 0.000000
0.265381 0.283691 0.000000
0.279541 0.283691 0.000000
0.291046 0.283691 0.000000
0.301636 0.283691 0.000000
0.313019 0.283691 0.000000
0.327026 0.283691 0.000000
0.345367 0.283691 0.000000
0.370056 0.283691 0.000000
0.402832 0.283691 0.000000
0.443542 0.283691 0.000000
0.488983 0.283691 0.000000
0.535736 0.283691 0.000000
0.579865 0.283691 0.000000
0.620270 0.283691 0.000000
0.658295 0.283691 0.000000
0.695648 0.283691 0.000000
0.734100 0.283691 0.000000
0.775665 0.283691 0.000000
0.822144 0.283691 0.000000
0.874023 0.283691 0.000000
0.929840 0.283691 0.000000
0.987854 0.283691 0.000000
1.000000 0.283691 0.000000
1.000000 0.283691 0.000000
1.000000 0.283691 0.000000
0.000000 0.313141 0.000000
0.053040 0.313141 0.000000
0.104034 0.313141 0.000000
0.150726 0.313141 0.000000
0.190826 0.313141 0.000000
0.222656 0.313141 0.000000
0.247040 0.313141 0.000000
0.265381 0.313141 0.000000
0.279541 0.313141 0.000000
0.291046 0.313141 0.000000
0.301636 0.313141 0.000000
0.313019 0.313141 0.000000
0.327026 0.313141 0.000000
0.345367 0.313141 0.000000
0.370056 0.313141 0.000000
0.402832 0.313141 0.000000
0.443542 0.313141 0.000000
0.488983 0.313141 0.000000
0.535736 0.313141 0.000000
0.579865 0.313141 0.000000
0.620270 0.313141 0.000000
0.658295 0.313141 0.000000
0.695648 0.313141 0.000000
0.734100 0.313141 0.000000
0.775665 0.313141 0.000000
0.822144 0.313141 0.000000
0.874023 0.313141 0.000000
0.929840 0.313141 0.000000
0.987854 0.313141 0.000000
1.000000 0.313141 0.000000
1.000000 0.313141 0.000000
1.000000 0.313141 0.000000
0.000000 0.342926 0.000000
0.053040 0.342926 0.000000
0.104034 0.342926 0.000000
0.150726 0.342926 0.000000
0.190826 0.342926 0.000000
0.222656 0.342926 0.000000
0.247040 0.342926 0.000000
0.265381 0.342926 0.000000
0.279541 0.342926 0.000000
0.291046 0.342926 0.000000
0.301636 0.342926 0.000000
0.313019 0.342926 0.000000
0.327026 0.342926 0.000000
0.345367 0.342926 0.000000
0.370056 0.342926 0.000000
0.402832 0.342926 0.000000
0.443542 0.342926 0.000000
0.488983 0.342926 0.000000
0.535736 0.342926 0.000000
0.579865 0.342926 0.000000
0.620270 0.342926 0.000000
0.658295 0.342926 0.000000
0.695648 0.342926 0.000000
0.734100 0.342926 0.000000
0.775665 0.342926 0.000000
0.822144 0.342926 0.000000
0.874023 0.342926 0.000000
0.929840 0.342926 0.000000
0.987854 0.342926 0.000000
1.000000 0.342926 0.000000
1.000000 0.342926 0.000000
1.000000 0.342926 0.000000
0.000000 0.373077 0.000000
0.053040 0.373077 0.000000
0.104034 0.373077 0.000000
0.150726 0.373077 0.000000
0.190826 0.373077 0.000000
0.222656 0.373077 0.000000
0.247040 0.373077 0.000000
0.265381 0.373077 0.000000
0.279541 0.373077 0.000000
0.291046 0.373077 0.000000
0.301636 0.373077 0.000000
0.313019 0.373077 0.000000
0.327026 0.373077 0.000000
0.345367 0.373077 0.000000
0.370056 0.373077 0.000000
0.402832 0.373077 0.000000
0.443542 0.373077 0.000000
0.488983 0.373077 0.000000
0.535736 0.373077 0.000000
0.579865 0.373077 0.000000
0.620270 0.373077 0.000000
0.658295 0.373077 0.000000
0.695648 0.373077 0.000000
0.734100 0.373077 0.000000
0.775665 0.373077 0.000000
0.822144 0.373077 0.000000
0.874023 0.373077 0.000000
0.929840 0.373077 0.000000
0.987854 0.373077 0.000000
1.000000 0.373077 0.000000
1.000000 0.373077 0.000000
1.000000 0.373077 0.000000
0.000000 0.403595 0.000000
0.053040 0.403595 0.000000
0.104034 0.403595 0.000000
0.150726 0.403595 0.000000
0.190826 0.403595 0.000000
0.222656 0.403595 0.000000
0.247040 0.403595 0.000000
0.265381 0.403595 0.000000
0.279541 0.403595 0.000000
0.291046 0.403595 0.000000
0.301636 0.403595 0.000000
0.313019 0.403595 0.000000
0.327026 0.403595 0.000000
0.345367 0.403595 0.000000
0.370056 0.403595 0.000000
0.402832 0.403595 0.000000
0.443542 0.403595 0.000000
0.488983 0.403595 0.000000
0.535736 0.403595 0.000000
0.579865 0.403595 0.000000
0.620270 0.403595 0.000000
0.658295 0.403595 0.000000
0.695648 0.403595 0.000000
0.734100 0.403595 0.000000
0.775665 0.403595 0.000000
0.822144 0.403595 0.000000
0.874023 0.403595 0.000000
0.929840 0.403595 0.000000
0.987854 0.403595 0.000000
1.000000 0.403595 0.000000
1.000000 0.403595 0.000000
1.000000 0.403595 0.000000
0.000000 0.434509 0.000000
0.053040 0.434509 0.000000
0.104034 0.434509 0.000000
0.150726 0.434509 0.000000
0.190826 0.434509 0.000000
0.222656 0.434509 0.000000
0.247040 0.434509 0.000000
0.265381 0.434509 0.000000
0.279541 0.434509 0.000000
0.291046 0.434509 0.000000
0.301636 0.434509 0.000000
0.313019 0.434509 0.000000
0.327026 0.434509 0.000000
0.345367 0.434509 0.000000
0.370056 0.434509 0.000000
0.402832 0.434509 0.000000
0.443542 0.434509 0.000000
0.488983 0.434509 0.000000
0.535736 0.434509 0.000000
0.579865 0.434509 0.000000
0.620270 0.434509 0.000000
0.658295 0.434509 0.000000
0.695648 0.434509 0.000000
0.734100 0.434509 0.000000
0.775665 0.434509 0.000000
0.822144 0.434509 0.000000
0.874023 0.434509 0.000000
0.929840 0.434509 0.000000
0.987854 0.434509 0.000000
1.000000 0.434509 0.000000
1.000000 0.434509 0.000000
1.000000 0.434509 0.000000
0.000000 0.465881 0.000000
0.053040 0.465881 0.000000
0.104034 0.465881 0.000000
0.150726 0.465881 0.000000
0.190826 0.465881 0.000000
0.222656 0.465881 0.000000
0.247040 0.465881 0.000000
0.265381 0.465881 0.000000
0.279541 0.465881 0.000000
0.291046 0.465881 0.000000
0.301636 0.465881 0.000000
0.313019 0.465881 0.000000
0.327026 0.465881 0.000000
0.345367 0.465881 0.000000
0.370056 0.465881 0.000000
0.402832 0.465881 0.000000
0.443542 0.465881 0.000000
0.488983 0.465881 0.000000
0.535736 0.465881 0.000000
0.579865 0.465881 0.000000
0.620270 0.465881 0.000000
0.658295 0.465881 0.000000
0.695648 0.465881 0.000000
0.734100 0.465881 0.000000
0.775665 0.465881 0.000000
0.822144 0.465881 0.000000
0.874023 0.465881 0.000000
0.929840 0.465881 0.000000
0.987854 0.465881 0.000000
1.000000 0.465881 0.000000
1.000000 0.465881 0.000000
1.000000 0.465881 0.000000
0.000000 0.497650 0.000000
0.053040 0.497650 0.000000
0.104034 0.497650 0.000000
0.150726 0.497650 0.000000
0.190826 0.497650 0.000000
0.222656 0.497650 0.000000
0.247040 0.497650 0.000000
0.265381 0.497650 0.000000
0.279541 0.497650 0.000000
0.291046 0.497650 0.000000
0.301636 0.497650 0.000000
0.313019 0.497650 0.000000
0.327026 0.497650 0.000000
0.345367 0.497650 0.000000
0.370056 0.497650 0.000000
0.402832 0.497650 0.000000
0.443542 0.497650 0.000000
0.488983 0.497650 0.000000
0.535736 0.497650 0.000000
0.579865 0.497650 0.000000
0.620270 0.497650 0.000000
0.658295 0.497650 0.000000
0.695648 0.497650 0.000000
0.734100 0.497650 0.000000
0.775665 0.497650 0.000000
0.822144 0.497650 0.000000
0.874023 0.497650 0.000000
0.929840 0.497650 0.000000
0.987854 0.497650 0.000000
1.000000 0.497650 0.000000
1.000000 0.497650 0.000000
1.000000 0.497650 0.000000
0.000000 0.529999 0.000000
0.053040 0.529999 0.000000
0.104034 0.529999 0.000000
0.150726 0.529999 0.000000
0.190826 0.529999 0.000000
0.222656 0.529999 0.000000
0.247040 0.529999 0.000000
0.265381 0.529999 0.000000
0.279541 0.529999 0.000000
0.291046 0.529999 0.000000
0.301636 0.529999 0.000000
0.313019 0.529999 0.000000
0.327026 0.529999 0.000000
0.345367 0.529999 0.000000
0.370056 0.529999 0.000000
0.402832 0.529999 0.000000
0.443542 0.529999 0.000000
0.488983 0.529999 0.000000
0.535736 0.529999 0.000000
0.579865 0.529999 0.000000
0.620270 0.529999 0.000000
0.658295 0.529999 0.000000
0.695648 0.529999 0.000000
0.734100 0.529999 0.000000
0.775665 0.529999 0.000000
0.822144 0.529999 0.000000
0.874023 0.529999 0.000000
0.929840 0.529999 0.000000
0.987854 0.529999 0.000000
1.000000 0.529999 0.000000
1.000000 0.529999 0.000000
1.000000 0.529999 0.000000
0.000000 0.562836 0.000000
0.053040 0.562836 0.000000
0.104034 0.562836 0.000000
0.150726 0.562836 0.000000
0.190826 0.562836 0.000000
0.222656 0.562836 0.000000
0.247040 0.562836 0.000000
0.265381 0.562836 0.000000
0.279541 0.562836 0.000000
0.291046 0.562836 0.000000
0.301636 0.562836 0.000000
0.313019 0.562836 0.000000
0.327026 0.562836 0.000000
0.345367 0.562836 0.000000
0.370056 0.562836 0.000000
0.402832 0.562836 0.000000
0.443542 0.562836 0.000000
0.488983 0.562836 0.000000
0.535736 0.562836 0.000000
0.579865 0.562836 0.000000
0.620270 0.562836 0.000000
0.658295 0.562836 0.000000
0.695648 0.562836 0.000000
0.734100 0.562836 0.000000
0.775665 0.562836 0.000000
0.822144 0.562836 0.000000
0.874023 0.562836 0.000000
0.929840 0.562836 0.000000
0.987854 0.562836 0.000000
1.000000 0.562836 0.000000
1.000000 0.562836 0.000000
1.000000 0.562836 0.000000
0.000000 0.596191 0.000000
0.053040 0.596191 0.000000
0.104034 0.596191 0.000000
0.150726 0.596191 0.000000
0.190826 0.596191 0.000000
0.222656 0.596191 0.000000
0.247040 0.596191 0.000000
0.265381 0.596191 0.000000
0.279541 0.596191 0.000000
0.291046 0.596191 0.000000
0.301636 0.596191 0.000000
0.313019 0.596191 0.000000
0.327026 0.596191 0.000000
0.345367 0.596191 0.000000
0.370056 0.596191 0.000000
0.402832 0.596191 0.000000
0.443542 0.596191 0.000000
0.488983 0.596191 0.000000
0.535736 0.596191 0.000000
0.579865 0.596191 0.000000
0.620270 0.596191 0.000000
0.658295 0.596191 0.000000
0.695648 0.596191 0.000000
0.734100 0.596191 0.000000
0.775665 0.596191 0.000000
0.822144 0.596191 0.000000
0.874023 0.596191 0.000000
0.929840 0.596191 0.000000
0.987854 0.596191 0.000000
1.000000 0.596191 0.000000
1.000000 0.596191 0.000000
1.000000 0.596191 0.000000
0.000000 0.630096 0.000000
0.053040 0.630096 0.000000
0.104034 0.630096 0.000000
0.150726 0.630096 0.000000
0.190826 0.630096 0.000000
0.222656 0.630096 0.000000
0.247040 0.630096 0.000000
0.265381 0.630096 0.000000
0.279541 0.630096 0.000000
0.291046 0.630096 0.000000
0.301636 0.630096 0.000000
0.313019 0.630096 0.000000
0.327026 0.630096 0.000000
0.345367 0.630096 0.000000
0.370056 0.630096 0.000000
0.402832 0.630096 0.000000
0.443542 0.630096 0.000000
0.488983 0.630096 0.000000
0.535736 0.630096 0.000000
0.579865 0.630096 0.000000
0.620270 0.630096 0.000000
0.658295 0.630096 0.000000
0.695648 0.630096 0.000000
0.734100 0.630096 0.000000
0.775665 0.630096 0.000000
0.822144 0.630096 0.000000
0.874023 0.630096 0.000000
0.929840 0.630096 0.000000
0.987854 0.630096 0.000000
1.000000 0.630096 0.000000
1.000000 0.630096 0.000000
1.000000 0.630096 0.000000
0.000000 0.664703 0.000000
0.053040 0.664703 0.000000
0.104034 0.664703 0.000000
0.150726 0.664703 0.000000
0.190826 0.664703 0.000000
0.222656 0.664703 0.000000
0.247040 0.664703 0.000000
0.265381 0.664703 0.000000
0.279541 0.664703 0.000000
0.291046 0.664703 0.000000
0.301636 0.664703 0.000000
0.313019 0.664703 0.000000
0.327026 0.664703 0.000000
0.345367 0.664703 0.000000
0.370056 0.664703 0.000000
0.402832 0.664703 0.000000
0.443542 0.664703 0.000000
0.488983 0.664703 0.000000
0.535736 0.664703 0.000000
0.579865 0.664703 0.000000
0.620270 0.664703 0.000000
0.658295 0.664703 0.000000
0.695648 0.664703 0.000000
0.734100 0.664703 0.000000
0.775665 0.664703 0.000000
0.822144 0.664703 0.000000
0.874023 0.664703 0.000000
0.929840 0.664703 0.000000
0.987854 0.664703 0.000000
1.000000 0.664703 0.000000
1.000000 0.664703 0.000000
1.000000 0.664703 0.000000
0.000000 0.699860 0.000000
0.053040 0.699860 0.000000
0.104034 0.699860 0.000000
0.150726 0.699860 0.000000
0.190826 0.699860 0.000000
0.222656 0.699860 0.000000
0.247040 0.699860 0.000000
0.265381 0.699860 0.000000
0.279541 0.699860 0.000000
0.291046 0.699860 0.000000
0.301636 0.699860 0.000000
0.313019 0.699860 0.000000
0.327026 0.699860 0.000000
0.345367 0.699860 0.000000
0.370056 0.699860 0.000000
0.402832 0.699860 0.000000
0.443542 0.699860 0.000000
0.488983 0.699860 0.000000
0.535736 0.699860 0.000000
0.579865 0.699860 0.000000
0.620270 0.699860 0.000000
0.658295 0.699860 0.000000
0.695648 0.699860 0.000000
0.734100 0.699860 0.000000
0.775665 0.699860 0.000000
0.822144 0.699860 0.000000
0.874023 0.699860 0.000000
0.929840 0.699860 0.000000
0.987854 0.699860 0.000000
1.000000 0.699860 0.000000
1.000000 0.699860 0.000000
1.000000 0.699860 0.000000
0.000000 0.735718 0.000000
0.053040 0.735718 0.000000
0.104034 0.735718 0.000000
0.150726 0.735718 0.000000
0.190826 0.735718 0.000000
0.222656 0.735718 0.000000
0.247040 0.735718 0.000000
0.265381 0.735718 0.000000
0.279541 0.735718 0.000000
0.291046 0.735718 0.000000
0.301636 0.735718 0.000000
0.313019 0.735718 0.000000
0.327026 0.735718 0.000000
0.345367 0.735718 0.000000
0.370056 0.735718 0.000000
0.402832 0.735718 0.000000
0.443542 0.735718 0.000000
0.488983 0.735718 0.000000
0.535736 0.735718 0.000000
0.579865 0.735718 0.000000
0.620270 0.735718 0.000000
0.658295 0.735718 0.000000
0.695648 0.735718 0.000000
0.734100 0.735718 0.000000
0.775665 0.735718 0.000000
0.822144 0.735718 0.000000
0.874023 0.735718 0.000000
0.929840 0.735718 0.000000
0.987854 0.735718 0.000000
1.000000 0.735718 0.000000
1.000000 0.735718 0.000000
1.000000 0.735718 0.000000
0.000000 0.772186 0.000000
0.053040 0.772186 0.000000
0.104034 0.772186 0.000000
0.150726 0.772186 0.000000
0.190826 0.772186 0.000000
0.222656 0.772186 0.000000
0.247040 0.772186 0.000000
0.265381 0.772186 0.000000
0.279541 0.772186 0.000000
0.291046 0.772186 0.000000
0.301636 0.772186 0.000000
0.313019 0.772186 0.000000
0.327026 0.772186 0.000000
0.345367 0.772186 0.000000
0.370056 0.772186 0.000000
0.402832 0.772186 0.000000
0.443542 0.772186 0.000000
0.488983 0.772186 0.000000
0.535736 0.772186 0.000000
0.579865 0.772186 0.000000
0.620270 0.772186 0.000000
0.658295 0.772186 0.000000
0.695648 0.772186 0.000000
0.734100 0.772186 0.000000
0.775665 0.772186 0.000000
0.822144 0.772186 0.000000
0.874023 0.772186 0.000000
0.929840 0.772186 0.000000
0.987854 0.772186 0.000000
1.000000 0.772186 0.000000
1.000000 0.772186 0.000000
1.000000 0.772186 0.000000
0.000000 0.809296 0.000000
0.053040 0.809296 0.000000
0.104034 0.809296 0.000000
0.150726 0.809296 0.000000
0.190826 0.809296 0.000000
0.222656 0.809296 0.000000
0.247040 0.809296 0.000000
0.265381 0.809296 0.000000
0.279541 0.809296 0.000000
0.291046 0.809296 0.000000
0.301636 0.809296 0.000000
0.313019 0.809296 0.000000
0.327026 0.809296 0.000000
0.345367 0.809296 0.000000
0.370056 0.809296 0.000000
0.402832 0.809296 0.000000
0.443542 0.809296 0.000000
0.488983 0.809296 0.000000
0.535736 0.809296 0.000000
0.579865 0.809296 0.000000
0.620270 0.809296 0.000000
0.658295 0.809296 0.000000
0.695648 0.809296 0.000000
0.734100 0.809296 0.000000
0.775665 0.809296 0.000000
0.822144 0.809296 0.000000
0.874023 0.809296 0.000000
0.929840 0.809296 0.000000
0.987854 0.809296 0.000000
1.000000 0.809296 0.000000
1.000000 0.809296 0.000000
1.000000 0.809296 0.000000
0.000000 0.846893 0.000000
0.053040 0.846893 0.000000
0.104034 0.846893 0.000000
0.150726 0.846893 0.000000
0.190826 0.846893 0.000000
0.222656 0.846893 0.000000
0.247040 0.846893 0.000000
0.265381 0.846893 0.000000
0.279541 0.846893 0.000000
0.291046 0.846893 0.000000
0.301636 0.846893 0.000000
0.313019 0.846893 0.000000
0.327026 0.846893 0.000000
0.345367 0.846893 0.000000
0.370056 0.846893 0.000000
0.402832 0.846893 0.000000
0.443542 0.846893 0.000000
0.488983 0.846893 0.000000
