Project 5 - Parkour/Graphics/LUTS Instagram/Slumber.cube
#Created by: Adobe Photoshop Export Color Lookup Plugin
TITLE "Slumber"
#LUT size
LUT_3D_SIZE 8
#data domain
#LUT data points
DOMAIN_MIN 0.000000 0.000000 0.000000
DOMAIN_MAX 0.903226 0.903226 0.903226
0.000000 0.000000 0.000000
0.190826 0.000000 0.000000
0.279541 0.000000 0.000000
0.327026 0.000000 0.000000
0.443542 0.000000 0.000000
0.620270 0.000000 0.000000
0.775665 0.000000 0.000000
0.987854 0.000000 0.000000
0.000000 0.111877 0.000000
0.190826 0.111877 0.000000
0.279541 0.111877 0.000000
0.327026 0.111877 0.000000
0.443542 0.111877 0.000000
0.620270 0.111877 0.000000
0.775665 0.111877 0.000000
0.987854 0.111877 0.000000
0.000000 0.225555 0.000000
0.190826 0.225555 0.000000
0.279541 0.225555 0.000000
0.327026 0.225555 0.000000
0.443542 0.225555 0.000000
0.620270 0.225555 0.000000
0.775665 0.225555 0.000000
0.987854 0.225555 0.000000
0.000000 0.342926 0.000000
0.190826 0.342926 0.000000
0.279541 0.342926 0.000000
0.327026 0.342926 0.000000
0.443542 0.342926 0.000000
0.620270 0.342926 0.000000
0.775665 0.342926 0.000000
0.987854 0.342926 0.000000
0.000000 0.465881 0.000000
0.190826 0.465881 0.000000
0.279541 0.465881 0.000000
0.327026 0.465881 0.000000
0.443542 0.465881 0.000000
0.620270 0.465881 0.000000
0.775665 0.465881 0.000000
0.987854 0.465881 0.000000
0.000000 0.596191 0.000000
0.190826 0.596191 0.000000
0.279541 0.596191 0.000000
0.327026 0.596191 0.000000
0.443542 0.596191 0.000000
0.620270 0.596191 0.000000
0.775665 0.596191 0.000000
0.987854 0.596191 0.000000
0.000000 0.735718 0.000000
0.190826 0.735718 0.000000
0.279541 0.735718 0.000000
0.327026 0.735718 0.000000
0.443542 0.735718 0.000000
0.620270 0.735718 0.000000
0.775665 0.735718 0.000000
0.987854 0.735718 0.000000
0.000000 0.884827 0.000000
0.190826 0.884827 0.000000
0.279541 0.884827 0.000000
0.327026 0.884827 0.000000
0.443542 0.884827 0.000000
0.620270 0.884827 0.000000
0.775665 0.884827 0.000000
0.987854 0.884827 0.000000
0.000000 0.000000 0.111877
0.190826 0.000000 0.111877
0.279541 0.000000 0.111877
0.327026 0.000000 0.111877
0.443542 0.000000 0.111877
0.620270 0.000000 0.111877
0.775665 0.000000 0.111877
0.987854 0.000000 0.111877
0.000000 0.111877 0.111877
0.190826 0.111877 0.111877
0.279541 0.111877 0.111877
0.327026 0.111877 0.111877
0.443542 0.111877 0.111877
0.620270 0.111877 0.111877
0.775665 0.111877 0.111877
0.987854 0.111877 0.111877
0.000000 0.225555 0.111877
0.190826 0.225555 0.111877
0.279541 0.225555 0.111877
0.327026 0.225555 0.111877
0.443542 0.225555 0.111877
0.620270 0.225555 0.111877
0.775665 0.225555 0.111877
0.987854 0.225555 0.111877
0.000000 0.342926 0.111877
0.190826 0.342926 0.111877
0.279541 0.342926 0.111877
0.327026 0.342926 0.111877
0.443542 0.342926 0.111877
0.620270 0.342926 0.111877
0.775665 0.342926 0.111877
0.987854 0.342926 0.111877
0.000000 0.465881 0.111877
0.190826 0.465881 0.111877
0.279541 0.465881 0.111877
0.327026 0.465881 0.111877
0.443542 0.465881 0.111877
0.620270 0.465881 0.111877
0.775665 0.465881 0.111877
0.987854 0.465881 0.111877
0.000000 0.596191 0.111877
0.190826 0.596191 0.111877
0.279541 0.596191 0.111877
0.327026 0.596191 0.111877
0.443542 0.596191 0.111877
0.620270 0.596191 0.111877
0.775665 0.596191 0.111877
0.987854 0.596191 0.111877
0.000000 0.735718 0.111877
0.190826 0.735718 0.111877
0.279541 0.735718 0.111877
0.327026 0.735718 0.111877
0.443542 0.735718 0.111877
0.620270 0.735718 0.111877
0.775665 0.735718 0.111877
0.987854 0.735718 0.111877
0.000000 0.884827 0.111877
0.190826 0.884827 0.111877
0.279541 0.884827 0.111877
0.327026 0.884827 0.111877
0.443542 0.884827 0.111877
0.620270 0.884827 0.111877
0.775665 0.884827 0.111877
0.987854 0.884827 0.111877
0.000000 0.000000 0.225555
0.190826 0.000000 0.225555
0.279541 0.000000 0.225555
0.327026 0.000000 0.225555
0.443542 0.000000 0.225555
0.620270 0.000000 0.225555
0.775665 0.000000 0.225555
0.987854 0.000000 0.225555
0.000000 0.111877 0.225555
0.190826 0.111877 0.225555
0.279541 0.111877 0.225555
0.327026 0.111877 0.225555
0.443542 0.111877 0.225555
0.620270 0.111877 0.225555
0.775665 0.111877 0.225555
0.987854 0.111877 0.225555
0.000000 0.225555 0.225555
0.190826 0.225555 0.225555
0.279541 0.225555 0.225555
0.327026 0.225555 0.225555
0.443542 0.225555 0.225555
0.620270 0.225555 0.225555
0.775665 0.225555 0.225555
0.987854 0.225555 0.225555
0.000000 0.342926 0.225555
0.190826 0.342926 0.225555
0.279541 0.342926 0.225555
0.327026 0.342926 0.225555
0.443542 0.342926 0.225555
0.620270 0.342926 0.225555
0.775665 0.342926 0.225555
0.987854 0.342926 0.225555
0.000000 0.465881 0.225555
0.190826 0.465881 0.225555
0.279541 0.465881 0.225555
0.327026 0.465881 0.225555
0.443542 0.465881 0.225555
0.620270 0.465881 0.225555
0.775665 0.465881 0.225555
0.987854 0.465881 0.225555
0.000000 0.596191 0.225555
0.190826 0.596191 0.225555
0.279541 0.596191 0.225555
0.327026 0.596191 0.225555
0.443542 0.596191 0.225555
0.620270 0.596191 0.225555
0.775665 0.596191 0.225555
0.987854 0.596191 0.225555
0.000000 0.735718 0.225555
0.190826 0.735718 0.225555
0.279541 0.735718 0.225555
0.327026 0.735718 0.225555
0.443542 0.735718 0.225555
0.620270 0.735718 0.225555
0.775665 0.735718 0.225555
0.987854 0.735718 0.225555
0.000000 0.884827 0.225555
0.190826 0.884827 0.225555
0.279541 0.884827 0.225555
0.327026 0.884827 0.225555
0.443542 0.884827 0.225555
0.620270 0.884827 0.225555
0.775665 0.884827 0.225555
0.987854 0.884827 0.225555
0.000000 0.000000 0.342926
0.190826 0.000000 0.342926
0.279541 0.000000 0.342926
0.327026 0.000000 0.342926
0.443542 0.000000 0.342926
0.620270 0.000000 0.342926
0.775665 0.000000 0.342926
0.987854 0.000000 0.342926
0.000000 0.111877 0.342926
0.190826 0.111877 0.342926
0.279541 0.111877 0.342926
0.327026 0.111877 0.342926
0.443542 0.111877 0.342926
0.620270 0.111877 0.342926
0.775665 0.111877 0.342926
0.987854 0.111877 0.342926
0.000000 0.225555 0.342926
0.190826 0.225555 0.342926
0.279541 0.225555 0.342926
0.327026 0.225555 0.342926
0.443542 0.225555 0.342926
0.620270 0.225555 0.342926
0.775665 0.225555 0.342926
0.987854 0.225555 0.342926
0.000000 0.342926 0.342926
0.190826 0.342926 0.342926
0.279541 0.342926 0.342926
0.327026 0.342926 0.342926
0.443542 0.342926 0.342926
0.620270 0.342926 0.342926
0.775665 0.342926 0.342926
0.987854 0.342926 0.342926
0.000000 0.465881 0.342926
0.190826 0.465881 0.342926
0.279541 0.465881 0.342926
0.327026 0.465881 0.342926
0.443542 0.465881 0.342926
0.620270 0.465881 0.342926
0.775665 0.465881 0.342926
0.987854 0.465881 0.342926
0.000000 0.596191 0.342926
0.190826 0.596191 0.342926
0.279541 0.596191 0.342926
0.327026 0.596191 0.342926
0.443542 0.596191 0.342926
0.620270 0.596191 0.342926
0.775665 0.596191 0.342926
0.987854 0.596191 0.342926
0.000000 0.735718 0.342926
0.190826 0.735718 0.342926
0.279541 0.735718 0.342926
0.327026 0.735718 0.342926
0.443542 0.735718 0.342926
0.620270 0.735718 0.342926
0.775665 0.735718 0.342926
0.987854 0.735718 0.342926
0.000000 0.884827 0.342926
0.190826 0.884827 0.342926
0.279541 0.884827 0.342926
0.327026 0.884827 0.342926
0.443542 0.884827 0.342926
0.620270 0.884827 0.342926
0.775665 0.884827 0.342926
0.987854 0.884827 0.342926
0.000000 0.000000 0.465881
0.190826 0.000000 0.465881
0.279541 0.000000 0.465881
0.327026 0.000000 0.465881
0.443542 0.000000 0.465881
0.620270 0.000000 0.465881
0.775665 0.000000 0.465881
0.987854 0.000000 0.465881
0.000000 0.111877 0.465881
0.190826 0.111877 0.465881
0.279541 0.111877 0.465881
0.327026 0.111877 0.465881
0.443542 0.111877 0.465881
0.620270 0.111877 0.465881
0.775665 0.111877 0.465881
0.987854 0.111877 0.465881
0.000000 0.225555 0.465881
0.190826 0.225555 0.465881
0.279541 0.225555 0.465881
0.327026 0.225555 0.465881
0.443542 0.225555 0.465881
0.620270 0.225555 0.465881
0.775665 0.225555 0.465881
0.987854 0.225555 0.465881
0.000000 0.342926 0.465881
0.190826 0.342926 0.465881
0.279541 0.342926 0.465881
0.327026 0.342926 0.465881
0.443542 0.342926 0.465881
0.620270 0.342926 0.465881
0.775665 0.342926 0.465881
0.987854 0.342926 0.465881
0.000000 0.465881 0.465881
0.190826 0.465881 0.465881
0.279541 0.465881 0.465881
0.327026 0.465881 0.465881
0.443542 0.465881 0.465881
0.620270 0.465881 0.465881
0.775665 0.465881 0.465881
0.987854 0.465881 0.465881
0.000000 0.596191 0.465881
0.190826 0.596191 0.465881
0.279541 0.596191 0.465881
0.327026 0.596191 0.465881
0.443542 0.596191 0.465881
0.620270 0.596191 0.465881
0.775665 0.596191 0.465881
0.987854 0.596191 0.465881
0.000000 0.735718 0.465881
0.190826 0.735718 0.465881
0.279541 0.735718 0.465881
0.327026 0.735718 0.465881
0.443542 0.735718 0.465881
0.620270 0.735718 0.465881
0.775665 0.735718 0.465881
0.987854 0.735718 0.465881
0.000000 0.884827 0.465881
0.190826 0.884827 0.465881
0.279541 0.884827 0.465881
0.327026 0.884827 0.465881
0.443542 0.884827 0.465881
0.620270 0.884827 0.465881
0.775665 0.884827 0.465881
0.987854 0.884827 0.465881
0.000000 0.000000 0.596191
0.190826 0.000000 0.596191
0.279541 0.000000 0.596191
0.327026 0.000000 0.596191
0.443542 0.000000 0.596191
0.620270 0.000000 0.596191
0.775665 0.000000 0.596191
0.987854 0.000000 0.596191
0.000000 0.111877 0.596191
0.190826 0.111877 0.596191
0.279541 0.111877 0.596191
0.327026 0.111877 0.596191
0.443542 0.111877 0.596191
0.620270 0.111877 0.596191
0.775665 0.111877 0.596191
0.987854 0.111877 0.596191
0.000000 0.225555 0.596191
0.190826 0.225555 0.596191
0.279541 0.225555 0.596191
0.327026 0.225555 0.596191
0.443542 0.225555 0.596191
0.620270 0.225555 0.596191
0.775665 0.225555 0.596191
0.987854 0.225555 0.596191
0.000000 0.342926 0.596191
0.190826 0.342926 0.596191
0.279541 0.342926 0.596191
0.327026 0.342926 0.596191
0.443542 0.342926 0.596191
0.620270 0.342926 0.596191
0.775665 0.342926 0.596191
0.987854 0.342926 0.596191
0.000000 0.465881 0.596191
0.190826 0.465881 0.596191
0.279541 0.465881 0.596191
0.327026 0.465881 0.596191
0.443542 0.465881 0.596191
0.620270 0.465881 0.596191
0.775665 0.465881 0.596191
0.987854 0.465881 0.596191
0.000000 0.596191 0.596191
0.190826 0.596191 0.596191
0.279541 0.596191 0.596191
0.327026 0.596191 0.596191
0.443542 0.596191 0.596191
0.620270 0.596191 0.596191
0.775665 0.596191 0.596191
0.987854 0.596191 0.596191
0.000000 0.735718 0.596191
0.190826 0.735718 0.596191
0.279541 0.735718 0.596191
0.327026 0.735718 0.596191
0.443542 0.735718 0.596191
0.620270 0.735718 0.596191
0.775665 0.735718 0.596191
0.987854 0.735718 0.596191
0.000000 0.884827 0.596191
0.190826 0.884827 0.596191
0.279541 0.884827 0.596191
0.327026 0.884827 0.596191
0.443542 0.884827 0.596191
0.620270 0.884827 0.596191
0.775665 0.884827 0.596191
0.987854 0.884827 0.596191
0.000000 0.000000 0.735718
0.190826 0.000000 0.735718
0.279541 0.000000 0.735718
0.327026 0.000000 0.735718
0.443542 0.000000 0.735718
0.620270 0.000000 0.735718
0.775665 0.000000 0.735718
0.987854 0.000000 0.735718
0.000000 0.111877 0.735718
0.190826 0.111877 0.735718
0.279541 0.111877 0.735718
0.327026 0.111877 0.735718
0.443542 0.111877 0.735718
0.620270 0.111877 0.735718
0.775665 0.111877 0.735718
0.987854 0.111877 0.735718
0.000000 0.225555 0.735718
0.190826 0.225555 0.735718
0.279541 0.225555 0.735718
0.327026 0.225555 0.735718
0.443542 0.225555 0.735718
0.620270 0.225555 0.735718
0.775665 0.225555 0.735718
0.987854 0.225555 0.735718
0.000000 0.342926 0.735718
0.190826 0.342926 0.735718
0.279541 0.342926 0.735718
0.327026 0.342926 0.735718
0.443542 0.342926 0.735718
0.620270 0.342926 0.735718
0.775665 0.342926 0.735718
0.987854 0.342926 0.735718
0.000000 0.465881 0.735718
0.190826 0.465881 0.735718
0.279541 0.465881 0.735718
0.327026 0.465881 0.735718
0.443542 0.465881 0.735718
0.620270 0.465881 0.735718
0.775665 0.465881 0.735718
0.987854 0.465881 0.735718
0.000000 0.596191 0.735718
0.190826 0.596191 0.735718
0.279541 0.596191 0.735718
0.327026 0.596191 0.735718
0.443542 0.596191 0.735718
0.620270 0.596191 0.735718
0.775665 0.596191 0.735718
0.987854 0.596191 0.735718
0.000000 0.735718 0.735718
0.190826 0.735718 0.735718
0.279541 0.735718 0.735718
0.327026 0.735718 0.735718
0.443542 0.735718 0.735718
0.620270 0.735718 0.735718
0.775665 0.735718 0.735718
0.987854 0.735718 0.735718
0.000000 0.884827 0.735718
0.190826 0.884827 0.735718
0.279541 0.884827 0.735718
0.327026 0.884827 0.735718
0.443542 0.884827 0.735718
0.620270 0.884827 0.735718
0.775665 0.884827 0.735718
0.987854 0.884827 0.735718
0.000000 0.000000 0.884827
0.190826 0.000000 0.884827
0.279541 0.000000 0.884827
0.327026 0.000000 0.884827
0.443542 0.000000 0.884827
0.620270 0.000000 0.884827
0.775665 0.000000 0.884827
0.987854 0.000000 0.884827
0.000000 0.111877 0.884827
0.190826 0.111877 0.884827
0.279541 0.111877 0.884827
0.327026 0.111877 0.884827
0.443542 0.111877 0.884827
0.620270 0.111877 0.884827
0.775665 0.111877 0.884827
0.987854 0.111877 0.884827
0.000000 0.225555 0.884827
0.190826 0.225555 0.884827
0.279541 0.225555 0.884827
0.327026 0.225555 0.884827
0.443542 0.225555 0.884827
0.620270 0.225555 0.884827
0.775665 0.225555 0.884827
0.987854 0.225555 0.884827
0.000000 0.342926 0.884827
0.190826 0.342926 0.884827
0.279541 0.342926 0.884827
0.327026 0.342926 0.884827
0.443542 0.342926 0.884827
0.620270 0.342926 0.884827
0.775665 0.342926 0.884827
0.987854 0.342926 0.884827
0.000000 0.465881 0.884827
0.190826 0.465881 0.884827
0.279541 0.465881 0.884827
0.327026 0.465881 0.884827
0.443542 0.465881 0.884827
0.620270 0.465881 0.884827
0.775665 0.465881 0.884827
0.987854 0.465881 0.884827
0.000000 0.596191 0.884827
0.190826 0.596191 0.884827
0.279541 0.596191 0.884827
0.327026 0.596191 0.884827
0.443542 0.596191 0.884827
0.620270 0.596191 0.884827
0.775665 0.596191 0.884827
0.987854 0.596191 0.884827
0.000000 0.735718 0.884827
0.190826 0.735718 0.884827
0.279541 0.735718 0.884827
0.327026 0.735718 0.884827
0.443542 0.735718 0.884827
0.620270 0.735718 0.884827
0.775665 0.735718 0.884827
0.987854 0.735718 0.884827
0.000000 0.884827 0.884827
0.190826 0.884827 0.884827
0.279541 0.884827 0.884827
0.327026 0.884827 0.884827
0.443542 0.884827 0.884827
0.620270 0.884827 0.884827
0.775665 0.884827 0.884827
0.987854 0.884827 0.884827
