Project 5 - Parkour/Graphics/LUTS Instagram/Valencia.cube
#Created by: Adobe Photoshop Export Color Lookup Plugin
TITLE "Valencia"
#LUT size
LUT_3D_SIZE 5
#data domain
#LUT data points
DOMAIN_MIN 0.000000 0.000000 0.000000
DOMAIN_MAX 0.903226 0.903226 0.903226
0.051849 0.000000 0.051849
0.293732 0.000000 0.051849
0.542236 0.000000 0.051849
0.724365 0.000000 0.051849
0.866058 0.000000 0.051849
0.051849 0.208893 0.051849
0.293732 0.208893 0.051849
0.542236 0.208893 0.051849
0.724365 0.208893 0.051849
0.866058 0.208893 0.051849
0.051849 0.504700 0.051849
0.293732 0.504700 0.051849
0.542236 0.504700 0.051849
0.724365 0.504700 0.051849
0.866058 0.504700 0.051849
0.051849 0.746277 0.051849
0.293732 0.746277 0.051849
0.542236 0.746277 0.051849
0.724365 0.746277 0.051849
0.866058 0.746277 0.051849
0.051849 0.917297 0.051849
0.293732 0.917297 0.051849
0.542236 0.917297 0.051849
0.724365 0.917297 0.051849
0.866058 0.917297 0.051849
0.051849 0.000000 0.257446
0.293732 0.000000 0.257446
0.542236 0.000000 0.257446
0.724365 0.000000 0.257446
0.866058 0.000000 0.257446
0.051849 0.208893 0.257446
0.293732 0.208893 0.257446
0.542236 0.208893 0.257446
0.724365 0.208893 0.257446
0.866058 0.208893 0.257446
0.051849 0.504700 0.257446
0.293732 0.504700 0.257446
0.542236 0.504700 0.257446
0.724365 0.504700 0.257446
0.866058 0.504700 0.257446
0.051849 0.746277 0.257446
0.293732 0.746277 0.257446
0.542236 0.746277 0.257446
0.724365 0.746277 0.257446
0.866058 0.746277 0.257446
0.051849 0.917297 0.257446
0.293732 0.917297 0.257446
0.542236 0.917297 0.257446
0.724365 0.917297 0.257446
0.866058 0.917297 0.257446
0.051849 0.000000 0.482849
0.293732 0.000000 0.482849
0.542236 0.000000 0.482849
0.724365 0.000000 0.482849
0.866058 0.000000 0.482849
0.051849 0.208893 0.482849
0.293732 0.208893 0.482849
0.542236 0.208893 0.482849
0.724365 0.208893 0.482849
0.866058 0.208893 0.482849
0.051849 0.504700 0.482849
0.293732 0.504700 0.482849
0.542236 0.504700 0.482849
0.724365 0.504700 0.482849
0.866058 0.504700 0.482849
0.051849 0.746277 0.482849
0.293732 0.746277 0.482849
0.542236 0.746277 0.482849
0.724365 0.746277 0.482849
0.866058 0.746277 0.482849
0.051849 0.917297 0.482849
0.293732 0.917297 0.482849
0.542236 0.917297 0.482849
0.724365 0.917297 0.482849
0.866058 0.917297 0.482849
0.051849 0.000000 0.683533
0.293732 0.000000 0.683533
0.542236 0.000000 0.683533
0.724365 0.000000 0.683533
0.866058 0.000000 0.683533
0.051849 0.208893 0.683533
0.293732 0.208893 0.683533
0.542236 0.208893 0.683533
0.724365 0.208893 0.683533
0.866058 0.208893 0.683533
0.051849 0.504700 0.683533
0.293732 0.504700 0.683533
0.542236 0.504700 0.683533
0.724365 0.504700 0.683533
0.866058 0.504700 0.683533
0.051849 0.746277 0.683533
0.293732 0.746277 0.683533
0.542236 0.746277 0.683533
0.724365 0.746277 0.683533
0.866058 0.746277 0.683533
0.051849 0.917297 0.683533
0.293732 0.917297 0.683533
0.542236 0.917297 0.683533
0.724365 0.917297 0.683533
0.866058 0.917297 0.683533
0.051849 0.000000 0.822968
0.293732 0.000000 0.822968
0.542236 0.000000 0.822968
0.724365 0.000000 0.822968
0.866058 0.000000 0.822968
0.051849 0.208893 0.822968
0.293732 0.208893 0.822968
0.542236 0.208893 0.822968
0.724365 0.208893 0.822968
0.866058 0.208893 0.822968
0.051849 0.504700 0.822968
0.293732 0.504700 0.822968
0.542236 0.504700 0.822968
0.724365 0.504700 0.822968
0.866058 0.504700 0.822968
0.051849 0.746277 0.822968
0.293732 0.746277 0.822968
0.542236 0.746277 0.822968
0.724365 0.746277 0.822968
0.866058 0.746277 0.822968
0.051849 0.917297 0.822968
0.293732 0.917297 0.822968
0.542236 0.917297 0.822968
0.724365 0.917297 0.822968
0.866058 0.917297 0.822968
