Project 5 - Parkour/Graphics/LUTS Instagram/Valencia.cube
#Created by: Adobe Photoshop Export Color Lookup Plugin
TITLE "Valencia"
#LUT size
LUT_3D_SIZE 8
#data domain
#LUT data points
DOMAIN_MIN 0.000000 0.000000 0.000000
DOMAIN_MAX 0.903226 0.903226 0.903226
0.051849 0.000000 0.051849
0.184753 0.000000 0.051849
0.330688 0.000000 0.051849
0.475372 0.000000 0.051849
0.602631 0.000000 0.051849
0.702637 0.000000 0.051849
0.785461 0.000000 0.051849
0.866058 0.000000 0.051849
0.051849 0.080688 0.051849
0.184753 0.080688 0.051849
0.330688 0.080688 0.051849
0.475372 0.080688 0.051849
0.602631 0.080688 0.051849
0.702637 0.080688 0.051849
0.785461 0.080688 0.051849
0.866058 0.080688 0.051849
0.051849 0.253876 0.051849
0.184753 0.253876 0.051849
0.330688 0.253876 0.051849
0.475372 0.253876 0.051849
0.602631 0.253876 0.051849
0.702637 0.253876 0.051849
0.785461 0.253876 0.051849
0.866058 0.253876 0.051849
0.051849 0.422058 0.051849
0.184753 0.422058 0.051849
0.330688 0.422058 0.051849
0.475372 0.422058 0.051849
0.602631 0.422058 0.051849
0.702637 0.422058 0.051849
0.785461 0.422058 0.051849
0.866058 0.422058 0.051849
0.051849 0.585510 0.051849
0.184753 0.585510 0.051849
0.330688 0.585510 0.051849
0.475372 0.585510 0.051849
0.602631 0.585510 0.051849
0.702637 0.585510 0.051849
0.785461 0.585510 0.051849
0.866058 0.585510 0.051849
0.051849 0.719543 0.051849
0.184753 0.719543 0.051849
0.330688 0.719543 0.051849
0.475372 0.719543 0.051849
0.602631 0.719543 0.051849
0.702637 0.719543 0.051849
0.785461 0.719543 0.051849
0.866058 0.719543 0.051849
0.051849 0.818207 0.051849
0.184753 0.818207 0.051849
0.330688 0.818207 0.051849
0.475372 0.818207 0.051849
0.602631 0.818207 0.051849
0.702637 0.818207 0.051849
0.785461 0.818207 0.051849
0.866058 0.818207 0.051849
0.051849 0.917297 0.051849
0.184753 0.917297 0.051849
0.330688 0.917297 0.051849
0.475372 0.917297 0.051849
0.602631 0.917297 0.051849
0.702637 0.917297 0.051849
0.785461 0.917297 0.051849
0.866058 0.917297 0.051849
0.051849 0.000000 0.158600
0.184753 0.000000 0.158600
0.330688 0.000000 0.158600
0.475372 0.000000 0.158600
0.602631 0.000000 0.158600
0.702637 0.000000 0.158600
0.785461 0.000000 0.158600
0.866058 0.000000 0.158600
0.051849 0.080688 0.158600
0.184753 0.080688 0.158600
0.330688 0.080688 0.158600
0.475372 0.080688 0.158600
0.602631 0.080688 0.158600
0.702637 0.080688 0.158600
0.785461 0.080688 0.158600
0.866058 0.080688 0.158600
0.051849 0.253876 0.158600
0.184753 0.253876 0.158600
0.330688 0.253876 0.158600
0.475372 0.253876 0.158600
0.602631 0.253876 0.158600
0.702637 0.253876 0.158600
0.785461 0.253876 0.158600
0.866058 0.253876 0.158600
0.051849 0.422058 0.158600
0.184753 0.422058 0.158600
0.330688 0.422058 0.158600
0.475372 0.422058 0.158600
0.602631 0.422058 0.158600
0.702637 0.422058 0.158600
0.785461 0.422058 0.158600
0.866058 0.422058 0.158600
0.051849 0.585510 0.158600
0.184753 0.585510 0.158600
0.330688 0.585510 0.158600
0.475372 0.585510 0.158600
0.602631 0.585510 0.158600
0.702637 0.585510 0.158600
0.785461 0.585510 0.158600
0.866058 0.585510 0.158600
0.051849 0.719543 0.158600
0.184753 0.719543 0.158600
0.330688 0.719543 0.158600
0.475372 0.719543 0.158600
0.602631 0.719543 0.158600
0.702637 0.719543 0.158600
0.785461 0.719543 0.158600
0.866058 0.719543 0.158600
0.051849 0.818207 0.158600
0.184753 0.818207 0.158600
0.330688 0.818207 0.158600
0.475372 0.818207 0.158600
0.602631 0.818207 0.158600
0.702637 0.818207 0.158600
0.785461 0.818207 0.158600
0.866058 0.818207 0.158600
0.051849 0.917297 0.158600
0.184753 0.917297 0.158600
0.330688 0.917297 0.158600
0.475372 0.917297 0.158600
0.602631 0.917297 0.158600
0.702637 0.917297 0.158600
0.785461 0.917297 0.158600
0.866058 0.917297 0.158600
0.051849 0.000000 0.292725
0.184753 0.000000 0.292725
0.330688 0.000000 0.292725
0.475372 0.000000 0.292725
0.602631 0.000000 0.292725
0.702637 0.000000 0.292725
0.785461 0.000000 0.292725
0.866058 0.000000 0.292725
0.051849 0.080688 0.292725
0.184753 0.080688 0.292725
0.330688 0.080688 0.292725
0.475372 0.080688 0.292725
0.602631 0.080688 0.292725
0.702637 0.080688 0.292725
0.785461 0.080688 0.292725
0.866058 0.080688 0.292725
0.051849 0.253876 0.292725
0.184753 0.253876 0.292725
0.330688 0.253876 0.292725
0.475372 0.253876 0.292725
0.602631 0.253876 0.292725
0.702637 0.253876 0.292725
0.785461 0.253876 0.292725
0.866058 0.253876 0.292725
0.051849 0.422058 0.292725
0.184753 0.422058 0.292725
0.330688 0.422058 0.292725
0.475372 0.422058 0.292725
0.602631 0.422058 0.292725
0.702637 0.422058 0.292725
0.785461 0.422058 0.292725
0.866058 0.422058 0.292725
0.051849 0.585510 0.292725
0.184753 0.585510 0.292725
0.330688 0.585510 0.292725
0.475372 0.585510 0.292725
0.602631 0.585510 0.292725
0.702637 0.585510 0.292725
0.785461 0.585510 0.292725
0.866058 0.585510 0.292725
0.051849 0.719543 0.292725
0.184753 0.719543 0.292725
0.330688 0.719543 0.292725
0.475372 0.719543 0.292725
0.602631 0.719543 0.292725
0.702637 0.719543 0.292725
0.785461 0.719543 0.292725
0.866058 0.719543 0.292725
0.051849 0.818207 0.292725
0.184753 0.818207 0.292725
0.330688 0.818207 0.292725
0.475372 0.818207 0.292725
0.602631 0.818207 0.292725
0.702637 0.818207 0.292725
0.785461 0.818207 0.292725
0.866058 0.818207 0.292725
0.051849 0.917297 0.292725
0.184753 0.917297 0.292725
0.330688 0.917297 0.292725
0.475372 0.917297 0.292725
0.602631 0.917297 0.292725
0.702637 0.917297 0.292725
0.785461 0.917297 0.292725
0.866058 0.917297 0.292725
0.051849 0.000000 0.423981
0.184753 0.000000 0.423981
0.330688 0.000000 0.423981
0.475372 0.000000 0.423981
0.602631 0.000000 0.423981
0.702637 0.000000 0.423981
0.785461 0.000000 0.423981
0.866058 0.000000 0.423981
0.051849 0.080688 0.423981
0.184753 0.080688 0.423981
0.330688 0.080688 0.423981
0.475372 0.080688 0.423981
0.602631 0.080688 0.423981
0.702637 0.080688 0.423981
0.785461 0.080688 0.423981
0.866058 0.080688 0.423981
0.051849 0.253876 0.423981
0.184753 0.253876 0.423981
0.330688 0.253876 0.423981
0.475372 0.253876 0.423981
0.602631 0.253876 0.423981
0.702637 0.253876 0.423981
0.785461 0.253876 0.423981
0.866058 0.253876 0.423981
0.051849 0.422058 0.423981
0.184753 0.422058 0.423981
0.330688 0.422058 0.423981
0.475372 0.422058 0.423981
0.602631 0.422058 0.423981
0.702637 0.422058 0.423981
0.785461 0.422058 0.423981
0.866058 0.422058 0.423981
0.051849 0.585510 0.423981
0.184753 0.585510 0.423981
0.330688 0.585510 0.423981
0.475372 0.585510 0.423981
0.602631 0.585510 0.423981
0.702637 0.585510 0.423981
0.785461 0.585510 0.423981
0.866058 0.585510 0.423981
0.051849 0.719543 0.423981
0.184753 0.719543 0.423981
0.330688 0.719543 0.423981
0.475372 0.719543 0.423981
0.602631 0.719543 0.423981
0.702637 0.719543 0.423981
0.785461 0.719543 0.423981
0.866058 0.719543 0.423981
0.051849 0.818207 0.423981
0.184753 0.818207 0.423981
0.330688 0.818207 0.423981
0.475372 0.818207 0.423981
0.602631 0.818207 0.423981
0.702637 0.818207 0.423981
0.785461 0.818207 0.423981
0.866058 0.818207 0.423981
0.051849 0.917297 0.423981
0.184753 0.917297 0.423981
0.330688 0.917297 0.423981
0.475372 0.917297 0.423981
0.602631 0.917297 0.423981
0.702637 0.917297 0.423981
0.785461 0.917297 0.423981
0.866058 0.917297 0.423981
0.051849 0.000000 0.542297
0.184753 0.000000 0.542297
0.330688 0.000000 0.542297
0.475372 0.000000 0.542297
0.602631 0.000000 0.542297
0.702637 0.000000 0.542297
0.785461 0.000000 0.542297
0.866058 0.000000 0.542297
0.051849 0.080688 0.542297
0.184753 0.080688 0.542297
0.330688 0.080688 0.542297
0.475372 0.080688 0.542297
0.602631 0.080688 0.542297
0.702637 0.080688 0.542297
0.785461 0.080688 0.542297
0.866058 0.080688 0.542297
0.051849 0.253876 0.542297
0.184753 0.253876 0.542297
0.330688 0.253876 0.542297
0.475372 0.253876 0.542297
0.602631 0.253876 0.542297
0.702637 0.253876 0.542297
0.785461 0.253876 0.542297
0.866058 0.253876 0.542297
0.051849 0.422058 0.542297
0.184753 0.422058 0.542297
0.330688 0.422058 0.542297
0.475372 0.422058 0.542297
0.602631 0.422058 0.542297
0.702637 0.422058 0.542297
0.785461 0.422058 0.542297
0.866058 0.422058 0.542297
0.051849 0.585510 0.542297
0.184753 0.585510 0.542297
0.330688 0.585510 0.542297
0.475372 0.585510 0.542297
0.602631 0.585510 0.542297
0.702637 0.585510 0.542297
0.785461 0.585510 0.542297
0.866058 0.585510 0.542297
0.051849 0.719543 0.542297
0.184753 0.719543 0.542297
0.330688 0.719543 0.542297
0.475372 0.719543 0.542297
0.602631 0.719543 0.542297
0.702637 0.719543 0.542297
0.785461 0.719543 0.542297
0.866058 0.719543 0.542297
0.051849 0.818207 0.542297
0.184753 0.818207 0.542297
0.330688 0.818207 0.542297
0.475372 0.818207 0.542297
0.602631 0.818207 0.542297
0.702637 0.818207 0.542297
0.785461 0.818207 0.542297
0.866058 0.818207 0.542297
0.051849 0.917297 0.542297
0.184753 0.917297 0.542297
0.330688 0.917297 0.542297
0.475372 0.917297 0.542297
0.602631 0.917297 0.542297
0.702637 0.917297 0.542297
0.785461 0.917297 0.542297
0.866058 0.917297 0.542297
0.051849 0.000000 0.658508
0.184753 0.000000 0.658508
0.330688 0.000000 0.658508
0.475372 0.000000 0.658508
0.602631 0.000000 0.658508
0.702637 0.000000 0.658508
0.785461 0.000000 0.658508
0.866058 0.000000 0.658508
0.051849 0.080688 0.658508
0.184753 0.080688 0.658508
0.330688 0.080688 0.658508
0.475372 0.080688 0.658508
0.602631 0.080688 0.658508
0.702637 0.080688 0.658508
0.785461 0.080688 0.658508
0.866058 0.080688 0.658508
0.051849 0.253876 0.658508
0.184753 0.253876 0.658508
0.330688 0.253876 0.658508
0.475372 0.253876 0.658508
0.602631 0.253876 0.658508
0.702637 0.253876 0.658508
0.785461 0.253876 0.658508
0.866058 0.253876 0.658508
0.051849 0.422058 0.658508
0.184753 0.422058 0.658508
0.330688 0.422058 0.658508
0.475372 0.422058 0.658508
0.602631 0.422058 0.658508
0.702637 0.422058 0.658508
0.785461 0.422058 0.658508
0.866058 0.422058 0.658508
0.051849 0.585510 0.658508
0.184753 0.585510 0.658508
0.330688 0.585510 0.658508
0.475372 0.585510 0.658508
0.602631 0.585510 0.658508
0.702637 0.585510 0.658508
0.785461 0.585510 0.658508
0.866058 0.585510 0.658508
0.051849 0.719543 0.658508
0.184753 0.719543 0.658508
0.330688 0.719543 0.658508
0.475372 0.719543 0.658508
0.602631 0.719543 0.658508
0.702637 0.719543 0.658508
0.785461 0.719543 0.658508
0.866058 0.719543 0.658508
0.051849 0.818207 0.658508
0.184753 0.818207 0.658508
0.330688 0.818207 0.658508
0.475372 0.818207 0.658508
0.602631 0.818207 0.658508
0.702637 0.818207 0.658508
0.785461 0.818207 0.658508
0.866058 0.818207 0.658508
0.051849 0.917297 0.658508
0.184753 0.917297 0.658508
0.330688 0.917297 0.658508
0.475372 0.917297 0.658508
0.602631 0.917297 0.658508
0.702637 0.917297 0.658508
0.785461 0.917297 0.658508
0.866058 0.917297 0.658508
0.051849 0.000000 0.746307
0.184753 0.000000 0.746307
0.330688 0.000000 0.746307
0.475372 0.000000 0.746307
0.602631 0.000000 0.746307
0.702637 0.000000 0.746307
0.785461 0.000000 0.746307
0.866058 0.000000 0.746307
0.051849 0.080688 0.746307
0.184753 0.080688 0.746307
0.330688 0.080688 0.746307
0.475372 0.080688 0.746307
0.602631 0.080688 0.746307
0.702637 0.080688 0.746307
0.785461 0.080688 0.746307
0.866058 0.080688 0.746307
0.051849 0.253876 0.746307
0.184753 0.253876 0.746307
0.330688 0.253876 0.746307
0.475372 0.253876 0.746307
0.602631 0.253876 0.746307
0.702637 0.253876 0.746307
0.785461 0.253876 0.746307
0.866058 0.253876 0.746307
0.051849 0.422058 0.746307
0.184753 0.422058 0.746307
0.330688 0.422058 0.746307
0.475372 0.422058 0.746307
0.602631 0.422058 0.746307
0.702637 0.422058 0.746307
0.785461 0.422058 0.746307
0.866058 0.422058 0.746307
0.051849 0.585510 0.746307
0.184753 0.585510 0.746307
0.330688 0.585510 0.746307
0.475372 0.585510 0.746307
0.602631 0.585510 0.746307
0.702637 0.585510 0.746307
0.785461 0.585510 0.746307
0.866058 0.585510 0.746307
0.051849 0.719543 0.746307
0.184753 0.719543 0.746307
0.330688 0.719543 0.746307
0.475372 0.719543 0.746307
0.602631 0.719543 0.746307
0.702637 0.719543 0.746307
0.785461 0.719543 0.746307
0.866058 0.719543 0.746307
0.051849 0.818207 0.746307
0.184753 0.818207 0.746307
0.330688 0.818207 0.746307
0.475372 0.818207 0.746307
0.602631 0.818207 0.746307
0.702637 0.818207 0.746307
0.785461 0.818207 0.746307
0.866058 0.818207 0.746307
0.051849 0.917297 0.746307
0.184753 0.917297 0.746307
0.330688 0.917297 0.746307
0.475372 0.917297 0.746307
0.602631 0.917297 0.746307
0.702637 0.917297 0.746307
0.785461 0.917297 0.746307
0.866058 0.917297 0.746307
0.051849 0.000000 0.822968
0.184753 0.000000 0.822968
0.330688 0.000000 0.822968
0.475372 0.000000 0.822968
0.602631 0.000000 0.822968
0.702637 0.000000 0.822968
0.785461 0.000000 0.822968
0.866058 0.000000 0.822968
0.051849 0.080688 0.822968
0.184753 0.080688 0.822968
0.330688 0.080688 0.822968
0.475372 0.080688 0.822968
0.602631 0.080688 0.822968
0.702637 0.080688 0.822968
0.785461 0.080688 0.822968
0.866058 0.080688 0.822968
0.051849 0.253876 0.822968
0.184753 0.253876 0.822968
0.330688 0.253876 0.822968
0.475372 0.253876 0.822968
0.602631 0.253876 0.822968
0.702637 0.253876 0.822968
0.785461 0.253876 0.822968
0.866058 0.253876 0.822968
0.051849 0.422058 0.822968
0.184753 0.422058 0.822968
0.330688 0.422058 0.822968
0.475372 0.422058 0.822968
0.602631 0.422058 0.822968
0.702637 0.422058 0.822968
0.785461 0.422058 0.822968
0.866058 0.422058 0.822968
0.051849 0.585510 0.822968
0.184753 0.585510 0.822968
0.330688 0.585510 0.822968
0.475372 0.585510 0.822968
0.602631 0.585510 0.822968
0.702637 0.585510 0.822968
0.785461 0.585510 0.822968
0.866058 0.585510 0.822968
0.051849 0.719543 0.822968
0.184753 0.719543 0.822968
0.330688 0.719543 0.822968
0.475372 0.719543 0.822968
0.602631 0.719543 0.822968
0.702637 0.719543 0.822968
0.785461 0.719543 0.822968
0.866058 0.719543 0.822968
0.051849 0.818207 0.822968
0.184753 0.818207 0.822968
0.330688 0.818207 0.822968
0.475372 0.818207 0.822968
0.602631 0.818207 0.822968
0.702637 0.818207 0.822968
0.785461 0.818207 0.822968
0.866058 0.818207 0.822968
0.051849 0.917297 0.822968
0.184753 0.917297 0.822968
0.330688 0.917297 0.822968
0.475372 0.917297 0.822968
0.602631 0.917297 0.822968
0.702637 0.917297 0.822968
0.785461 0.917297 0.822968
0.866058 0.917297 0.822968
