Project 5 - Parkour/Graphics/LUTS Instagram/Valencia.cube
#Created by: Adobe Photoshop Export Color Lookup Plugin
TITLE "Valencia"
#LUT size
LUT_3D_SIZE 32
#data domain
DOMAIN_MIN 0.0 0.0 0.0
DOMAIN_MAX 1.0 1.0 1.0
#LUT data points
0.051849 0.000000 0.051849
0.082855 0.000000 0.051849
0.115662 0.000000 0.051849
0.149689 0.000000 0.051849
0.184753 0.000000 0.051849
0.220551 0.000000 0.051849
0.256958 0.000000 0.051849
0.293732 0.000000 0.051849
0.330688 0.000000 0.051849
0.367615 0.000000 0.051849
0.404205 0.000000 0.051849
0.440216 0.000000 0.051849
0.475372 0.000000 0.051849
0.509460 0.000000 0.051849
0.542236 0.000000 0.051849
0.573364 0.000000 0.051849
0.602631 0.000000 0.051849
0.630005 0.000000 0.051849
0.655670 0.000000 0.051849
0.679779 0.000000 0.051849
0.702637 0.000000 0.051849
0.724365 0.000000 0.051849
0.745300 0.000000 0.051849
0.765533 0.000000 0.051849
0.785461 0.000000 0.051849
0.805206 0.000000 0.051849
0.825104 0.000000 0.051849
0.845306 0.000000 0.051849
0.866058 0.000000 0.051849
0.887543 0.000000 0.051849
0.909607 0.000000 0.051849
0.931915 0.000000 0.051849
0.051849 0.009674 0.051849
0.082855 0.009674 0.051849
0.115662 0.009674 0.051849
0.149689 0.009674 0.051849
0.184753 0.009674 0.051849
0.220551 0.009674 0.051849
0.256958 0.009674 0.051849
0.293732 0.009674 0.051849
0.330688 0.009674 0.051849
0.367615 0.009674 0.051849
0.404205 0.009674 0.051849
0.440216 0.009674 0.051849
0.475372 0.009674 0.051849
0.509460 0.009674 0.051849
0.542236 0.009674 0.051849
0.573364 0.009674 0.051849
0.602631 0.009674 0.051849
0.630005 0.009674 0.051849
0.655670 0.009674 0.051849
0.679779 0.009674 0.051849
0.702637 0.009674 0.051849
0.724365 0.009674 0.051849
0.745300 0.009674 0.051849
0.765533 0.009674 0.051849
0.785461 0.009674 0.051849
0.805206 0.009674 0.051849
0.825104 0.009674 0.051849
0.845306 0.009674 0.051849
0.866058 0.009674 0.051849
0.887543 0.009674 0.051849
0.909607 0.009674 0.051849
0.931915 0.009674 0.051849
0.051849 0.024994 0.051849
0.082855 0.024994 0.051849
0.115662 0.024994 0.051849
0.149689 0.024994 0.051849
0.184753 0.024994 0.051849
0.220551 0.024994 0.051849
0.256958 0.024994 0.051849
0.293732 0.024994 0.051849
0.330688 0.024994 0.051849
0.367615 0.024994 0.051849
0.404205 0.024994 0.051849
0.440216 0.024994 0.051849
0.475372 0.024994 0.051849
0.509460 0.024994 0.051849
0.542236 0.024994 0.051849
0.573364 0.024994 0.051849
0.602631 0.024994 0.051849
0.630005 0.024994 0.051849
0.655670 0.024994 0.051849
0.679779 0.024994 0.051849
0.702637 0.024994 0.051849
0.724365 0.024994 0.051849
0.745300 0.024994 0.051849
0.765533 0.024994 0.051849
0.785461 0.024994 0.051849
0.805206 0.024994 0.051849
0.825104 0.024994 0.051849
0.845306 0.024994 0.051849
0.866058 0.024994 0.051849
0.887543 0.024994 0.051849
0.909607 0.024994 0.051849
0.931915 0.024994 0.051849
0.051849 0.048523 0.051849
0.082855 0.048523 0.051849
0.115662 0.048523 0.051849
0.149689 0.048523 0.051849
0.184753 0.048523 0.051849
0.220551 0.048523 0.051849
0.256958 0.048523 0.051849
0.293732 0.048523 0.051849
0.330688 0.048523 0.051849
0.367615 0.048523 0.051849
0.404205 0.048523 0.051849
0.440216 0.048523 0.051849
0.475372 0.048523 0.051849
0.509460 0.048523 0.051849
0.542236 0.048523 0.051849
0.573364 0.048523 0.051849
0.602631 0.048523 0.051849
0.630005 0.048523 0.051849
0.655670 0.048523 0.051849
0.679779 0.048523 0.051849
0.702637 0.048523 0.051849
0.724365 0.048523 0.051849
0.745300 0.048523 0.051849
0.765533 0.048523 0.051849
0.785461 0.048523 0.051849
0.805206 0.048523 0.051849
0.825104 0.048523 0.051849
0.845306 0.048523 0.051849
0.866058 0.048523 0.051849
0.887543 0.048523 0.051849
0.909607 0.048523 0.051849
0.931915 0.048523 0.051849
0.051849 0.080688 0.051849
0.082855 0.080688 0.051849
0.115662 0.080688 0.051849
0.149689 0.080688 0.051849
0.184753 0.080688 0.051849
0.220551 0.080688 0.051849
0.256958 0.080688 0.051849
0.293732 0.080688 0.051849
0.330688 0.080688 0.051849
0.367615 0.080688 0.051849
0.404205 0.080688 0.051849
0.440216 0.080688 0.051849
0.475372 0.080688 0.051849
0.509460 0.080688 0.051849
0.542236 0.080688 0.051849
0.573364 0.080688 0.051849
0.602631 0.080688 0.051849
0.630005 0.080688 0.051849
0.655670 0.080688 0.051849
0.679779 0.080688 0.051849
0.702637 0.080688 0.051849
0.724365 0.080688 0.051849
0.745300 0.080688 0.051849
0.765533 0.080688 0.051849
0.785461 0.080688 0.051849
0.805206 0.080688 0.051849
0.825104 0.080688 0.051849
0.845306 0.080688 0.051849
0.866058 0.080688 0.051849
0.887543 0.080688 0.051849
0.909607 0.080688 0.051849
0.931915 0.080688 0.051849
0.051849 0.119720 0.051849
0.082855 0.119720 0.051849
0.115662 0.119720 0.051849
0.149689 0.119720 0.051849
0.184753 0.119720 0.051849
0.220551 0.119720 0.051849
0.256958 0.119720 0.051849
0.293732 0.119720 0.051849
0.330688 0.119720 0.051849
0.367615 0.119720 0.051849
0.404205 0.119720 0.051849
0.440216 0.119720 0.051849
0.475372 0.119720 0.051849
0.509460 0.119720 0.051849
0.542236 0.119720 0.051849
0.573364 0.119720 0.051849
0.602631 0.119720 0.051849
0.630005 0.119720 0.051849
0.655670 0.119720 0.051849
0.679779 0.119720 0.051849
0.702637 0.119720 0.051849
0.724365 0.119720 0.051849
0.745300 0.119720 0.051849
0.765533 0.119720 0.051849
0.785461 0.119720 0.051849
0.805206 0.119720 0.051849
0.825104 0.119720 0.051849
0.845306 0.119720 0.051849
0.866058 0.119720 0.051849
0.887543 0.119720 0.051849
0.909607 0.119720 0.051849
0.931915 0.119720 0.051849
0.051849 0.163330 0.051849
0.082855 0.163330 0.051849
0.115662 0.163330 0.051849
0.149689 0.163330 0.051849
0.184753 0.163330 0.051849
0.220551 0.163330 0.051849
0.256958 0.163330 0.051849
0.293732 0.163330 0.051849
0.330688 0.163330 0.051849
0.367615 0.163330 0.051849
0.404205 0.163330 0.051849
0.440216 0.163330 0.051849
0.475372 0.163330 0.051849
0.509460 0.163330 0.051849
0.542236 0.163330 0.051849
0.573364 0.163330 0.051849
0.602631 0.163330 0.051849
0.630005 0.163330 0.051849
0.655670 0.163330 0.051849
0.679779 0.163330 0.051849
0.702637 0.163330 0.051849
0.724365 0.163330 0.051849
0.745300 0.163330 0.051849
0.765533 0.163330 0.051849
0.785461 0.163330 0.051849
0.805206 0.163330 0.051849
0.825104 0.163330 0.051849
0.845306 0.163330 0.051849
0.866058 0.163330 0.051849
0.887543 0.163330 0.051849
0.909607 0.163330 0.051849
0.931915 0.163330 0.051849
0.051849 0.208893 0.051849
0.082855 0.208893 0.051849
0.115662 0.208893 0.051849
0.149689 0.208893 0.051849
0.184753 0.208893 0.051849
0.220551 0.208893 0.051849
0.256958 0.208893 0.051849
0.293732 0.208893 0.051849
0.330688 0.208893 0.051849
0.367615 0.208893 0.051849
0.404205 0.208893 0.051849
0.440216 0.208893 0.051849
0.475372 0.208893 0.051849
0.509460 0.208893 0.051849
0.542236 0.208893 0.051849
0.573364 0.208893 0.051849
0.602631 0.208893 0.051849
0.630005 0.208893 0.051849
0.655670 0.208893 0.051849
0.679779 0.208893 0.051849
0.702637 0.208893 0.051849
0.724365 0.208893 0.051849
0.745300 0.208893 0.051849
0.765533 0.208893 0.051849
0.785461 0.208893 0.051849
0.805206 0.208893 0.051849
0.825104 0.208893 0.051849
0.845306 0.208893 0.051849
0.866058 0.208893 0.051849
0.887543 0.208893 0.051849
0.909607 0.208893 0.051849
0.931915 0.208893 0.051849
0.051849 0.253876 0.051849
0.082855 0.253876 0.051849
0.115662 0.253876 0.051849
0.149689 0.253876 0.051849
0.184753 0.253876 0.051849
0.220551 0.253876 0.051849
0.256958 0.253876 0.051849
0.293732 0.253876 0.051849
0.330688 0.253876 0.051849
0.367615 0.253876 0.051849
0.404205 0.253876 0.051849
0.440216 0.253876 0.051849
0.475372 0.253876 0.051849
0.509460 0.253876 0.051849
0.542236 0.253876 0.051849
0.573364 0.253876 0.051849
0.602631 0.253876 0.051849
0.630005 0.253876 0.051849
0.655670 0.253876 0.051849
0.679779 0.253876 0.051849
0.702637 0.253876 0.051849
0.724365 0.253876 0.051849
0.745300 0.253876 0.051849
0.765533 0.253876 0.051849
0.785461 0.253876 0.051849
0.805206 0.253876 0.051849
0.825104 0.253876 0.051849
0.845306 0.253876 0.051849
0.866058 0.253876 0.051849
0.887543 0.253876 0.051849
0.909607 0.253876 0.051849
0.931915 0.253876 0.051849
0.051849 0.297363 0.051849
0.082855 0.297363 0.051849
0.115662 0.297363 0.051849
0.149689 0.297363 0.051849
0.184753 0.297363 0.051849
0.220551 0.297363 0.051849
0.256958 0.297363 0.051849
0.293732 0.297363 0.051849
0.330688 0.297363 0.051849
0.367615 0.297363 0.051849
0.404205 0.297363 0.051849
0.440216 0.297363 0.051849
0.475372 0.297363 0.051849
0.509460 0.297363 0.051849
0.542236 0.297363 0.051849
0.573364 0.297363 0.051849
0.602631 0.297363 0.051849
0.630005 0.297363 0.051849
0.655670 0.297363 0.051849
0.679779 0.297363 0.051849
0.702637 0.297363 0.051849
0.724365 0.297363 0.051849
0.745300 0.297363 0.051849
0.765533 0.297363 0.051849
0.785461 0.297363 0.051849
0.805206 0.297363 0.051849
0.825104 0.297363 0.051849
0.845306 0.297363 0.051849
0.866058 0.297363 0.051849
0.887543 0.297363 0.051849
0.909607 0.297363 0.051849
0.931915 0.297363 0.051849
0.051849 0.339630 0.051849
0.082855 0.339630 0.051849
0.115662 0.339630 0.051849
0.149689 0.339630 0.051849
0.184753 0.339630 0.051849
0.220551 0.339630 0.051849
0.256958 0.339630 0.051849
0.293732 0.339630 0.051849
0.330688 0.339630 0.051849
0.367615 0.339630 0.051849
0.404205 0.339630 0.051849
0.440216 0.339630 0.051849
0.475372 0.339630 0.051849
0.509460 0.339630 0.051849
0.542236 0.339630 0.051849
0.573364 0.339630 0.051849
0.602631 0.339630 0.051849
0.630005 0.339630 0.051849
0.655670 0.339630 0.051849
0.679779 0.339630 0.051849
0.702637 0.339630 0.051849
0.724365 0.339630 0.051849
0.745300 0.339630 0.051849
0.765533 0.339630 0.051849
0.785461 0.339630 0.051849
0.805206 0.339630 0.051849
0.825104 0.339630 0.051849
0.845306 0.339630 0.051849
0.866058 0.339630 0.051849
0.887543 0.339630 0.051849
0.909607 0.339630 0.051849
0.931915 0.339630 0.051849
0.051849 0.381012 0.051849
0.082855 0.381012 0.051849
0.115662 0.381012 0.051849
0.149689 0.381012 0.051849
0.184753 0.381012 0.051849
0.220551 0.381012 0.051849
0.256958 0.381012 0.051849
0.293732 0.381012 0.051849
0.330688 0.381012 0.051849
0.367615 0.381012 0.051849
0.404205 0.381012 0.051849
0.440216 0.381012 0.051849
0.475372 0.381012 0.051849
0.509460 0.381012 0.051849
0.542236 0.381012 0.051849
0.573364 0.381012 0.051849
0.602631 0.381012 0.051849
0.630005 0.381012 0.051849
0.655670 0.381012 0.051849
0.679779 0.381012 0.051849
0.702637 0.381012 0.051849
0.724365 0.381012 0.051849
0.745300 0.381012 0.051849
0.765533 0.381012 0.051849
0.785461 0.381012 0.051849
0.805206 0.381012 0.051849
0.825104 0.381012 0.051849
0.845306 0.381012 0.051849
0.866058 0.381012 0.051849
0.887543 0.381012 0.051849
0.909607 0.381012 0.051849
0.931915 0.381012 0.051849
0.051849 0.422058 0.051849
0.082855 0.422058 0.051849
0.115662 0.422058 0.051849
0.149689 0.422058 0.051849
0.184753 0.422058 0.051849
0.220551 0.422058 0.051849
0.256958 0.422058 0.051849
0.293732 0.422058 0.051849
0.330688 0.422058 0.051849
0.367615 0.422058 0.051849
0.404205 0.422058 0.051849
0.440216 0.422058 0.051849
0.475372 0.422058 0.051849
0.509460 0.422058 0.051849
0.542236 0.422058 0.051849
0.573364 0.422058 0.051849
0.602631 0.422058 0.051849
0.630005 0.422058 0.051849
0.655670 0.422058 0.051849
0.679779 0.422058 0.051849
0.702637 0.422058 0.051849
0.724365 0.422058 0.051849
0.745300 0.422058 0.051849
0.765533 0.422058 0.051849
0.785461 0.422058 0.051849
0.805206 0.422058 0.051849
0.825104 0.422058 0.051849
0.845306 0.422058 0.051849
0.866058 0.422058 0.051849
0.887543 0.422058 0.051849
0.909607 0.422058 0.051849
0.931915 0.422058 0.051849
0.051849 0.463226 0.051849
0.082855 0.463226 0.051849
0.115662 0.463226 0.051849
0.149689 0.463226 0.051849
0.184753 0.463226 0.051849
0.220551 0.463226 0.051849
0.256958 0.463226 0.051849
0.293732 0.463226 0.051849
0.330688 0.463226 0.051849
0.367615 0.463226 0.051849
0.404205 0.463226 0.051849
0.440216 0.463226 0.051849
0.475372 0.463226 0.051849
0.509460 0.463226 0.051849
0.542236 0.463226 0.051849
0.573364 0.463226 0.051849
0.602631 0.463226 0.051849
0.630005 0.463226 0.051849
0.655670 0.463226 0.051849
0.679779 0.463226 0.051849
0.702637 0.463226 0.051849
0.724365 0.463226 0.051849
0.745300 0.463226 0.051849
0.765533 0.463226 0.051849
0.785461 0.463226 0.051849
0.805206 0.463226 0.051849
0.825104 0.463226 0.051849
0.845306 0.463226 0.051849
0.866058 0.463226 0.051849
0.887543 0.463226 0.051849
0.909607 0.463226 0.051849
0.931915 0.463226 0.051849
0.051849 0.504700 0.051849
0.082855 0.504700 0.051849
0.115662 0.504700 0.051849
0.149689 0.504700 0.051849
0.184753 0.504700 0.051849
0.220551 0.504700 0.051849
0.256958 0.504700 0.051849
0.293732 0.504700 0.051849
0.330688 0.504700 0.051849
0.367615 0.504700 0.051849
0.404205 0.504700 0.051849
0.440216 0.504700 0.051849
0.475372 0.504700 0.051849
0.509460 0.504700 0.051849
0.542236 0.504700 0.051849
0.573364 0.504700 0.051849
0.602631 0.504700 0.051849
0.630005 0.504700 0.051849
0.655670 0.504700 0.051849
0.679779 0.504700 0.051849
0.702637 0.504700 0.051849
0.724365 0.504700 0.051849
0.745300 0.504700 0.051849
0.765533 0.504700 0.051849
0.785461 0.504700 0.051849
0.805206 0.504700 0.051849
0.825104 0.504700 0.051849
0.845306 0.504700 0.051849
0.866058 0.504700 0.051849
0.887543 0.504700 0.051849
0.909607 0.504700 0.051849
0.931915 0.504700 0.051849
0.051849 0.545685 0.051849
0.082855 0.545685 0.051849
0.115662 0.545685 0.051849
0.149689 0.545685 0.051849
0.184753 0.545685 0.051849
0.220551 0.545685 0.051849
0.256958 0.545685 0.051849
0.293732 0.545685 0.051849
0.330688 0.545685 0.051849
0.367615 0.545685 0.051849
0.404205 0.545685 0.051849
0.440216 0.545685 0.051849
0.475372 0.545685 0.051849
0.509460 0.545685 0.051849
0.542236 0.545685 0.051849
0.573364 0.545685 0.051849
0.602631 0.545685 0.051849
0.630005 0.545685 0.051849
0.655670 0.545685 0.051849
0.679779 0.545685 0.051849
0.702637 0.545685 0.051849
0.724365 0.545685 0.051849
0.745300 0.545685 0.051849
0.765533 0.545685 0.051849
0.785461 0.545685 0.051849
0.805206 0.545685 0.051849
0.825104 0.545685 0.051849
0.845306 0.545685 0.051849
0.866058 0.545685 0.051849
0.887543 0.545685 0.051849
0.909607 0.545685 0.051849
0.931915 0.545685 0.051849
0.051849 0.585510 0.051849
0.082855 0.585510 0.051849
0.115662 0.585510 0.051849
0.149689 0.585510 0.051849
0.184753 0.585510 0.051849
0.220551 0.585510 0.051849
0.256958 0.585510 0.051849
0.293732 0.585510 0.051849
0.330688 0.585510 0.051849
0.367615 0.585510 0.051849
0.404205 0.585510 0.051849
0.440216 0.585510 0.051849
0.475372 0.585510 0.051849
0.509460 0.585510 0.051849
0.542236 0.585510 0.051849
0.573364 0.585510 0.051849
0.602631 0.585510 0.051849
0.630005 0.585510 0.051849
0.655670 0.585510 0.051849
0.679779 0.585510 0.051849
0.702637 0.585510 0.051849
0.724365 0.585510 0.051849
0.745300 0.585510 0.051849
0.765533 0.585510 0.051849
0.785461 0.585510 0.051849
0.805206 0.585510 0.051849
0.825104 0.585510 0.051849
0.845306 0.585510 0.051849
0.866058 0.585510 0.051849
0.887543 0.585510 0.051849
0.909607 0.585510 0.051849
0.931915 0.585510 0.051849
0.051849 0.623413 0.051849
0.082855 0.623413 0.051849
0.115662 0.623413 0.051849
0.149689 0.623413 0.051849
0.184753 0.623413 0.051849
0.220551 0.623413 0.051849
0.256958 0.623413 0.051849
0.293732 0.623413 0.051849
0.330688 0.623413 0.051849
0.367615 0.623413 0.051849
0.404205 0.623413 0.051849
0.440216 0.623413 0.051849
0.475372 0.623413 0.051849
0.509460 0.623413 0.051849
0.542236 0.623413 0.051849
0.573364 0.623413 0.051849
0.602631 0.623413 0.051849
0.630005 0.623413 0.051849
0.655670 0.623413 0.051849
0.679779 0.623413 0.051849
0.702637 0.623413 0.051849
0.724365 0.623413 0.051849
0.745300 0.623413 0.051849
0.765533 0.623413 0.051849
0.785461 0.623413 0.051849
0.805206 0.623413 0.051849
0.825104 0.623413 0.051849
0.845306 0.623413 0.051849
0.866058 0.623413 0.051849
0.887543 0.623413 0.051849
0.909607 0.623413 0.051849
0.931915 0.623413 0.051849
0.051849 0.658600 0.051849
0.082855 0.658600 0.051849
0.115662 0.658600 0.051849
0.149689 0.658600 0.051849
0.184753 0.658600 0.051849
0.220551 0.658600 0.051849
0.256958 0.658600 0.051849
0.293732 0.658600 0.051849
0.330688 0.658600 0.051849
0.367615 0.658600 0.051849
0.404205 0.658600 0.051849
0.440216 0.658600 0.051849
0.475372 0.658600 0.051849
0.509460 0.658600 0.051849
0.542236 0.658600 0.051849
0.573364 0.658600 0.051849
0.602631 0.658600 0.051849
0.630005 0.658600 0.051849
0.655670 0.658600 0.051849
0.679779 0.658600 0.051849
0.702637 0.658600 0.051849
0.724365 0.658600 0.051849
0.745300 0.658600 0.051849
0.765533 0.658600 0.051849
0.785461 0.658600 0.051849
0.805206 0.658600 0.051849
0.825104 0.658600 0.051849
0.845306 0.658600 0.051849
0.866058 0.658600 0.051849
0.887543 0.658600 0.051849
0.909607 0.658600 0.051849
0.931915 0.658600 0.051849
0.051849 0.690552 0.051849
0.082855 0.690552 0.051849
0.115662 0.690552 0.051849
0.149689 0.690552 0.051849
0.184753 0.690552 0.051849
0.220551 0.690552 0.051849
0.256958 0.690552 0.051849
0.293732 0.690552 0.051849
0.330688 0.690552 0.051849
0.367615 0.690552 0.051849
0.404205 0.690552 0.051849
0.440216 0.690552 0.051849
0.475372 0.690552 0.051849
0.509460 0.690552 0.051849
0.542236 0.690552 0.051849
0.573364 0.690552 0.051849
0.602631 0.690552 0.051849
0.630005 0.690552 0.051849
0.655670 0.690552 0.051849
0.679779 0.690552 0.051849
0.702637 0.690552 0.051849
0.724365 0.690552 0.051849
0.745300 0.690552 0.051849
0.765533 0.690552 0.051849
0.785461 0.690552 0.051849
0.805206 0.690552 0.051849
0.825104 0.690552 0.051849
0.845306 0.690552 0.051849
0.866058 0.690552 0.051849
0.887543 0.690552 0.051849
0.909607 0.690552 0.051849
0.931915 0.690552 0.051849
0.051849 0.719543 0.051849
0.082855 0.719543 0.051849
0.115662 0.719543 0.051849
0.149689 0.719543 0.051849
0.184753 0.719543 0.051849
0.220551 0.719543 0.051849
0.256958 0.719543 0.051849
0.293732 0.719543 0.051849
0.330688 0.719543 0.051849
0.367615 0.719543 0.051849
0.404205 0.719543 0.051849
0.440216 0.719543 0.051849
0.475372 0.719543 0.051849
0.509460 0.719543 0.051849
0.542236 0.719543 0.051849
0.573364 0.719543 0.051849
0.602631 0.719543 0.051849
0.630005 0.719543 0.051849
0.655670 0.719543 0.051849
0.679779 0.719543 0.051849
0.702637 0.719543 0.051849
0.724365 0.719543 0.051849
0.745300 0.719543 0.051849
0.765533 0.719543 0.051849
0.785461 0.719543 0.051849
0.805206 0.719543 0.051849
0.825104 0.719543 0.051849
0.845306 0.719543 0.051849
0.866058 0.719543 0.051849
0.887543 0.719543 0.051849
0.909607 0.719543 0.051849
0.931915 0.719543 0.051849
0.051849 0.746277 0.051849
0.082855 0.746277 0.051849
0.115662 0.746277 0.051849
0.149689 0.746277 0.051849
0.184753 0.746277 0.051849
0.220551 0.746277 0.051849
0.256958 0.746277 0.051849
0.293732 0.746277 0.051849
0.330688 0.746277 0.051849
0.367615 0.746277 0.051849
0.404205 0.746277 0.051849
0.440216 0.746277 0.051849
0.475372 0.746277 0.051849
0.509460 0.746277 0.051849
0.542236 0.746277 0.051849
0.573364 0.746277 0.051849
0.602631 0.746277 0.051849
0.630005 0.746277 0.051849
0.655670 0.746277 0.051849
0.679779 0.746277 0.051849
0.702637 0.746277 0.051849
0.724365 0.746277 0.051849
0.745300 0.746277 0.051849
0.765533 0.746277 0.051849
0.785461 0.746277 0.051849
0.805206 0.746277 0.051849
0.825104 0.746277 0.051849
0.845306 0.746277 0.051849
0.866058 0.746277 0.051849
0.887543 0.746277 0.051849
0.909607 0.746277 0.051849
0.931915 0.746277 0.051849
0.051849 0.771179 0.051849
0.082855 0.771179 0.051849
0.115662 0.771179 0.051849
0.149689 0.771179 0.051849
0.184753 0.771179 0.051849
0.220551 0.771179 0.051849
0.256958 0.771179 0.051849
0.293732 0.771179 0.051849
0.330688 0.771179 0.051849
0.367615 0.771179 0.051849
0.404205 0.771179 0.051849
0.440216 0.771179 0.051849
0.475372 0.771179 0.051849
0.509460 0.771179 0.051849
0.542236 0.771179 0.051849
0.573364 0.771179 0.051849
0.602631 0.771179 0.051849
0.630005 0.771179 0.051849
0.655670 0.771179 0.051849
0.679779 0.771179 0.051849
0.702637 0.771179 0.051849
0.724365 0.771179 0.051849
0.745300 0.771179 0.051849
0.765533 0.771179 0.051849
0.785461 0.771179 0.051849
0.805206 0.771179 0.051849
0.825104 0.771179 0.051849
0.845306 0.771179 0.051849
0.866058 0.771179 0.051849
0.887543 0.771179 0.051849
0.909607 0.771179 0.051849
0.931915 0.771179 0.051849
0.051849 0.794983 0.051849
0.082855 0.794983 0.051849
0.115662 0.794983 0.051849
0.149689 0.794983 0.051849
0.184753 0.794983 0.051849
0.220551 0.794983 0.051849
0.256958 0.794983 0.051849
0.293732 0.794983 0.051849
0.330688 0.794983 0.051849
0.367615 0.794983 0.051849
0.404205 0.794983 0.051849
0.440216 0.794983 0.051849
0.475372 0.794983 0.051849
0.509460 0.794983 0.051849
0.542236 0.794983 0.051849
0.573364 0.794983 0.051849
0.602631 0.794983 0.051849
0.630005 0.794983 0.051849
0.655670 0.794983 0.051849
0.679779 0.794983 0.051849
0.702637 0.794983 0.051849
0.724365 0.794983 0.051849
0.745300 0.794983 0.051849
0.765533 0.794983 0.051849
0.785461 0.794983 0.051849
0.805206 0.794983 0.051849
0.825104 0.794983 0.051849
0.845306 0.794983 0.051849
0.866058 0.794983 0.051849
0.887543 0.794983 0.051849
0.909607 0.794983 0.051849
0.931915 0.794983 0.051849
0.051849 0.818207 0.051849
0.082855 0.818207 0.051849
0.115662 0.818207 0.051849
0.149689 0.818207 0.051849
0.184753 0.818207 0.051849
0.220551 0.818207 0.051849
0.256958 0.818207 0.051849
0.293732 0.818207 0.051849
0.330688 0.818207 0.051849
0.367615 0.818207 0.051849
0.404205 0.818207 0.051849
0.440216 0.818207 0.051849
0.475372 0.818207 0.051849
0.509460 0.818207 0.051849
0.542236 0.818207 0.051849
0.573364 0.818207 0.051849
0.602631 0.818207 0.051849
0.630005 0.818207 0.051849
0.655670 0.818207 0.051849
0.679779 0.818207 0.051849
0.702637 0.818207 0.051849
0.724365 0.818207 0.051849
0.745300 0.818207 0.051849
0.765533 0.818207 0.051849
0.785461 0.818207 0.051849
0.805206 0.818207 0.051849
0.825104 0.818207 0.051849
0.845306 0.818207 0.051849
0.866058 0.818207 0.051849
0.887543 0.818207 0.051849
0.909607 0.818207 0.051849
0.931915 0.818207 0.051849
0.051849 0.841583 0.051849
0.082855 0.841583 0.051849
0.115662 0.841583 0.051849
0.149689 0.841583 0.051849
0.184753 0.841583 0.051849
0.220551 0.841583 0.051849
0.256958 0.841583 0.051849
0.293732 0.841583 0.051849
0.330688 0.841583 0.051849
0.367615 0.841583 0.051849
0.404205 0.841583 0.051849
0.440216 0.841583 0.051849
0.475372 0.841583 0.051849
0.509460 0.841583 0.051849
0.542236 0.841583 0.051849
0.573364 0.841583 0.051849
0.602631 0.841583 0.051849
0.630005 0.841583 0.051849
0.655670 0.841583 0.051849
0.679779 0.841583 0.051849
0.702637 0.841583 0.051849
0.724365 0.841583 0.051849
0.745300 0.841583 0.051849
0.765533 0.841583 0.051849
0.785461 0.841583 0.051849
0.805206 0.841583 0.051849
0.825104 0.841583 0.051849
0.845306 0.841583 0.051849
0.866058 0.841583 0.051849
0.887543 0.841583 0.051849
0.909607 0.841583 0.051849
0.931915 0.841583 0.051849
0.051849 0.865723 0.051849
0.082855 0.865723 0.051849
0.115662 0.865723 0.051849
0.149689 0.865723 0.051849
0.184753 0.865723 0.051849
0.220551 0.865723 0.051849
0.256958 0.865723 0.051849
0.293732 0.865723 0.051849
0.330688 0.865723 0.051849
0.367615 0.865723 0.051849
0.404205 0.865723 0.051849
0.440216 0.865723 0.051849
0.475372 0.865723 0.051849
0.509460 0.865723 0.051849
0.542236 0.865723 0.051849
0.573364 0.865723 0.051849
0.602631 0.865723 0.051849
0.630005 0.865723 0.051849
0.655670 0.865723 0.051849
0.679779 0.865723 0.051849
0.702637 0.865723 0.051849
0.724365 0.865723 0.051849
0.745300 0.865723 0.051849
0.765533 0.865723 0.051849
0.785461 0.865723 0.051849
0.805206 0.865723 0.051849
0.825104 0.865723 0.051849
0.845306 0.865723 0.051849
0.866058 0.865723 0.051849
0.887543 0.865723 0.051849
0.909607 0.865723 0.051849
0.931915 0.865723 0.051849
0.051849 0.890991 0.051849
0.082855 0.890991 0.051849
0.115662 0.890991 0.051849
0.149689 0.890991 0.051849
0.184753 0.890991 0.051849
0.220551 0.890991 0.051849
0.256958 0.890991 0.051849
0.293732 0.890991 0.051849
0.330688 0.890991 0.051849
0.367615 0.890991 0.051849
0.404205 0.890991 0.051849
0.440216 0.890991 0.051849
0.475372 0.890991 0.051849
0.509460 0.890991 0.051849
0.542236 0.890991 0.051849
0.573364 0.890991 0.051849
0.602631 0.890991 0.051849
0.630005 0.890991 0.051849
