Project 5 - Parkour/Graphics/LUTS Instagram/X-Pro II.cube
#Created by: Adobe Photoshop Export Color Lookup Plugin
TITLE "X-Pro II"
#LUT size
LUT_3D_SIZE 32
#data domain
DOMAIN_MIN 0.0 0.0 0.0
DOMAIN_MAX 1.0 1.0 1.0
#LUT data points
0.000000 0.000000 0.091461
0.018616 0.000000 0.091461
0.037598 0.000000 0.091461
0.057220 0.000000 0.091461
0.077942 0.000000 0.091461
0.100189 0.000000 0.091461
0.124603 0.000000 0.091461
0.151398 0.000000 0.091461
0.180786 0.000000 0.091461
0.212830 0.000000 0.091461
0.247345 0.000000 0.091461
0.284271 0.000000 0.091461
0.323456 0.000000 0.091461
0.364594 0.000000 0.091461
0.407532 0.000000 0.091461
0.452057 0.000000 0.091461
0.497894 0.000000 0.091461
0.544800 0.000000 0.091461
0.592499 0.000000 0.091461
0.639954 0.000000 0.091461
0.685699 0.000000 0.091461
0.728424 0.000000 0.091461
0.767090 0.000000 0.091461
0.801697 0.000000 0.091461
0.832825 0.000000 0.091461
0.861115 0.000000 0.091461
0.887238 0.000000 0.091461
0.911652 0.000000 0.091461
0.934784 0.000000 0.091461
0.957031 0.000000 0.091461
0.978668 0.000000 0.091461
1.000000 0.000000 0.091461
0.000000 0.017456 0.091461
0.018616 0.017456 0.091461
0.037598 0.017456 0.091461
0.057220 0.017456 0.091461
0.077942 0.017456 0.091461
0.100189 0.017456 0.091461
0.124603 0.017456 0.091461
0.151398 0.017456 0.091461
0.180786 0.017456 0.091461
0.212830 0.017456 0.091461
0.247345 0.017456 0.091461
0.284271 0.017456 0.091461
0.323456 0.017456 0.091461
0.364594 0.017456 0.091461
0.407532 0.017456 0.091461
0.452057 0.017456 0.091461
0.497894 0.017456 0.091461
0.544800 0.017456 0.091461
0.592499 0.017456 0.091461
0.639954 0.017456 0.091461
0.685699 0.017456 0.091461
0.728424 0.017456 0.091461
0.767090 0.017456 0.091461
0.801697 0.017456 0.091461
0.832825 0.017456 0.091461
0.861115 0.017456 0.091461
0.887238 0.017456 0.091461
0.911652 0.017456 0.091461
0.934784 0.017456 0.091461
0.957031 0.017456 0.091461
0.978668 0.017456 0.091461
1.000000 0.017456 0.091461
0.000000 0.035370 0.091461
0.018616 0.035370 0.091461
0.037598 0.035370 0.091461
0.057220 0.035370 0.091461
0.077942 0.035370 0.091461
0.100189 0.035370 0.091461
0.124603 0.035370 0.091461
0.151398 0.035370 0.091461
0.180786 0.035370 0.091461
0.212830 0.035370 0.091461
0.247345 0.035370 0.091461
0.284271 0.035370 0.091461
0.323456 0.035370 0.091461
0.364594 0.035370 0.091461
0.407532 0.035370 0.091461
0.452057 0.035370 0.091461
0.497894 0.035370 0.091461
0.544800 0.035370 0.091461
0.592499 0.035370 0.091461
0.639954 0.035370 0.091461
0.685699 0.035370 0.091461
0.728424 0.035370 0.091461
0.767090 0.035370 0.091461
0.801697 0.035370 0.091461
0.832825 0.035370 0.091461
0.861115 0.035370 0.091461
0.887238 0.035370 0.091461
0.911652 0.035370 0.091461
0.934784 0.035370 0.091461
0.957031 0.035370 0.091461
0.978668 0.035370 0.091461
1.000000 0.035370 0.091461
0.000000 0.054077 0.091461
0.018616 0.054077 0.091461
0.037598 0.054077 0.091461
0.057220 0.054077 0.091461
0.077942 0.054077 0.091461
0.100189 0.054077 0.091461
0.124603 0.054077 0.091461
0.151398 0.054077 0.091461
0.180786 0.054077 0.091461
0.212830 0.054077 0.091461
0.247345 0.054077 0.091461
0.284271 0.054077 0.091461
0.323456 0.054077 0.091461
0.364594 0.054077 0.091461
0.407532 0.054077 0.091461
0.452057 0.054077 0.091461
0.497894 0.054077 0.091461
0.544800 0.054077 0.091461
0.592499 0.054077 0.091461
0.639954 0.054077 0.091461
0.685699 0.054077 0.091461
0.728424 0.054077 0.091461
0.767090 0.054077 0.091461
0.801697 0.054077 0.091461
0.832825 0.054077 0.091461
0.861115 0.054077 0.091461
0.887238 0.054077 0.091461
0.911652 0.054077 0.091461
0.934784 0.054077 0.091461
0.957031 0.054077 0.091461
0.978668 0.054077 0.091461
1.000000 0.054077 0.091461
0.000000 0.074036 0.091461
0.018616 0.074036 0.091461
0.037598 0.074036 0.091461
0.057220 0.074036 0.091461
0.077942 0.074036 0.091461
0.100189 0.074036 0.091461
0.124603 0.074036 0.091461
0.151398 0.074036 0.091461
0.180786 0.074036 0.091461
0.212830 0.074036 0.091461
0.247345 0.074036 0.091461
0.284271 0.074036 0.091461
0.323456 0.074036 0.091461
0.364594 0.074036 0.091461
0.407532 0.074036 0.091461
0.452057 0.074036 0.091461
0.497894 0.074036 0.091461
0.544800 0.074036 0.091461
0.592499 0.074036 0.091461
0.639954 0.074036 0.091461
0.685699 0.074036 0.091461
0.728424 0.074036 0.091461
0.767090 0.074036 0.091461
0.801697 0.074036 0.091461
0.832825 0.074036 0.091461
0.861115 0.074036 0.091461
0.887238 0.074036 0.091461
0.911652 0.074036 0.091461
0.934784 0.074036 0.091461
0.957031 0.074036 0.091461
0.978668 0.074036 0.091461
1.000000 0.074036 0.091461
0.000000 0.095978 0.091461
0.018616 0.095978 0.091461
0.037598 0.095978 0.091461
0.057220 0.095978 0.091461
0.077942 0.095978 0.091461
0.100189 0.095978 0.091461
0.124603 0.095978 0.091461
0.151398 0.095978 0.091461
0.180786 0.095978 0.091461
0.212830 0.095978 0.091461
0.247345 0.095978 0.091461
0.284271 0.095978 0.091461
0.323456 0.095978 0.091461
0.364594 0.095978 0.091461
0.407532 0.095978 0.091461
0.452057 0.095978 0.091461
0.497894 0.095978 0.091461
0.544800 0.095978 0.091461
0.592499 0.095978 0.091461
0.639954 0.095978 0.091461
0.685699 0.095978 0.091461
0.728424 0.095978 0.091461
0.767090 0.095978 0.091461
0.801697 0.095978 0.091461
0.832825 0.095978 0.091461
0.861115 0.095978 0.091461
0.887238 0.095978 0.091461
0.911652 0.095978 0.091461
0.934784 0.095978 0.091461
0.957031 0.095978 0.091461
0.978668 0.095978 0.091461
1.000000 0.095978 0.091461
0.000000 0.120605 0.091461
0.018616 0.120605 0.091461
0.037598 0.120605 0.091461
0.057220 0.120605 0.091461
0.077942 0.120605 0.091461
0.100189 0.120605 0.091461
0.124603 0.120605 0.091461
0.151398 0.120605 0.091461
0.180786 0.120605 0.091461
0.212830 0.120605 0.091461
0.247345 0.120605 0.091461
0.284271 0.120605 0.091461
0.323456 0.120605 0.091461
0.364594 0.120605 0.091461
0.407532 0.120605 0.091461
0.452057 0.120605 0.091461
0.497894 0.120605 0.091461
0.544800 0.120605 0.091461
0.592499 0.120605 0.091461
0.639954 0.120605 0.091461
0.685699 0.120605 0.091461
0.728424 0.120605 0.091461
0.767090 0.120605 0.091461
0.801697 0.120605 0.091461
0.832825 0.120605 0.091461
0.861115 0.120605 0.091461
0.887238 0.120605 0.091461
0.911652 0.120605 0.091461
0.934784 0.120605 0.091461
0.957031 0.120605 0.091461
0.978668 0.120605 0.091461
1.000000 0.120605 0.091461
0.000000 0.148224 0.091461
0.018616 0.148224 0.091461
0.037598 0.148224 0.091461
0.057220 0.148224 0.091461
0.077942 0.148224 0.091461
0.100189 0.148224 0.091461
0.124603 0.148224 0.091461
0.151398 0.148224 0.091461
0.180786 0.148224 0.091461
0.212830 0.148224 0.091461
0.247345 0.148224 0.091461
0.284271 0.148224 0.091461
0.323456 0.148224 0.091461
0.364594 0.148224 0.091461
0.407532 0.148224 0.091461
0.452057 0.148224 0.091461
0.497894 0.148224 0.091461
0.544800 0.148224 0.091461
0.592499 0.148224 0.091461
0.639954 0.148224 0.091461
0.685699 0.148224 0.091461
0.728424 0.148224 0.091461
0.767090 0.148224 0.091461
0.801697 0.148224 0.091461
0.832825 0.148224 0.091461
0.861115 0.148224 0.091461
0.887238 0.148224 0.091461
0.911652 0.148224 0.091461
0.934784 0.148224 0.091461
0.957031 0.148224 0.091461
0.978668 0.148224 0.091461
1.000000 0.148224 0.091461
0.000000 0.179016 0.091461
0.018616 0.179016 0.091461
0.037598 0.179016 0.091461
0.057220 0.179016 0.091461
0.077942 0.179016 0.091461
0.100189 0.179016 0.091461
0.124603 0.179016 0.091461
0.151398 0.179016 0.091461
0.180786 0.179016 0.091461
0.212830 0.179016 0.091461
0.247345 0.179016 0.091461
0.284271 0.179016 0.091461
0.323456 0.179016 0.091461
0.364594 0.179016 0.091461
0.407532 0.179016 0.091461
0.452057 0.179016 0.091461
0.497894 0.179016 0.091461
0.544800 0.179016 0.091461
0.592499 0.179016 0.091461
0.639954 0.179016 0.091461
0.685699 0.179016 0.091461
0.728424 0.179016 0.091461
0.767090 0.179016 0.091461
0.801697 0.179016 0.091461
0.832825 0.179016 0.091461
0.861115 0.179016 0.091461
0.887238 0.179016 0.091461
0.911652 0.179016 0.091461
0.934784 0.179016 0.091461
0.957031 0.179016 0.091461
0.978668 0.179016 0.091461
1.000000 0.179016 0.091461
0.000000 0.212952 0.091461
0.018616 0.212952 0.091461
0.037598 0.212952 0.091461
0.057220 0.212952 0.091461
0.077942 0.212952 0.091461
0.100189 0.212952 0.091461
0.124603 0.212952 0.091461
0.151398 0.212952 0.091461
0.180786 0.212952 0.091461
0.212830 0.212952 0.091461
0.247345 0.212952 0.091461
0.284271 0.212952 0.091461
0.323456 0.212952 0.091461
0.364594 0.212952 0.091461
0.407532 0.212952 0.091461
0.452057 0.212952 0.091461
0.497894 0.212952 0.091461
0.544800 0.212952 0.091461
0.592499 0.212952 0.091461
0.639954 0.212952 0.091461
0.685699 0.212952 0.091461
0.728424 0.212952 0.091461
0.767090 0.212952 0.091461
0.801697 0.212952 0.091461
0.832825 0.212952 0.091461
0.861115 0.212952 0.091461
0.887238 0.212952 0.091461
0.911652 0.212952 0.091461
0.934784 0.212952 0.091461
0.957031 0.212952 0.091461
0.978668 0.212952 0.091461
1.000000 0.212952 0.091461
0.000000 0.249908 0.091461
0.018616 0.249908 0.091461
0.037598 0.249908 0.091461
0.057220 0.249908 0.091461
0.077942 0.249908 0.091461
0.100189 0.249908 0.091461
0.124603 0.249908 0.091461
0.151398 0.249908 0.091461
0.180786 0.249908 0.091461
0.212830 0.249908 0.091461
0.247345 0.249908 0.091461
0.284271 0.249908 0.091461
0.323456 0.249908 0.091461
0.364594 0.249908 0.091461
0.407532 0.249908 0.091461
0.452057 0.249908 0.091461
0.497894 0.249908 0.091461
0.544800 0.249908 0.091461
0.592499 0.249908 0.091461
0.639954 0.249908 0.091461
0.685699 0.249908 0.091461
0.728424 0.249908 0.091461
0.767090 0.249908 0.091461
0.801697 0.249908 0.091461
0.832825 0.249908 0.091461
0.861115 0.249908 0.091461
0.887238 0.249908 0.091461
0.911652 0.249908 0.091461
0.934784 0.249908 0.091461
0.957031 0.249908 0.091461
0.978668 0.249908 0.091461
1.000000 0.249908 0.091461
0.000000 0.289551 0.091461
0.018616 0.289551 0.091461
0.037598 0.289551 0.091461
0.057220 0.289551 0.091461
0.077942 0.289551 0.091461
0.100189 0.289551 0.091461
0.124603 0.289551 0.091461
0.151398 0.289551 0.091461
0.180786 0.289551 0.091461
0.212830 0.289551 0.091461
0.247345 0.289551 0.091461
0.284271 0.289551 0.091461
0.323456 0.289551 0.091461
0.364594 0.289551 0.091461
0.407532 0.289551 0.091461
0.452057 0.289551 0.091461
0.497894 0.289551 0.091461
0.544800 0.289551 0.091461
0.592499 0.289551 0.091461
0.639954 0.289551 0.091461
0.685699 0.289551 0.091461
0.728424 0.289551 0.091461
0.767090 0.289551 0.091461
0.801697 0.289551 0.091461
0.832825 0.289551 0.091461
0.861115 0.289551 0.091461
0.887238 0.289551 0.091461
0.911652 0.289551 0.091461
0.934784 0.289551 0.091461
0.957031 0.289551 0.091461
0.978668 0.289551 0.091461
1.000000 0.289551 0.091461
0.000000 0.331451 0.091461
0.018616 0.331451 0.091461
0.037598 0.331451 0.091461
0.057220 0.331451 0.091461
0.077942 0.331451 0.091461
0.100189 0.331451 0.091461
0.124603 0.331451 0.091461
0.151398 0.331451 0.091461
0.180786 0.331451 0.091461
0.212830 0.331451 0.091461
0.247345 0.331451 0.091461
0.284271 0.331451 0.091461
0.323456 0.331451 0.091461
0.364594 0.331451 0.091461
0.407532 0.331451 0.091461
0.452057 0.331451 0.091461
0.497894 0.331451 0.091461
0.544800 0.331451 0.091461
0.592499 0.331451 0.091461
0.639954 0.331451 0.091461
0.685699 0.331451 0.091461
0.728424 0.331451 0.091461
0.767090 0.331451 0.091461
0.801697 0.331451 0.091461
0.832825 0.331451 0.091461
0.861115 0.331451 0.091461
0.887238 0.331451 0.091461
0.911652 0.331451 0.091461
0.934784 0.331451 0.091461
0.957031 0.331451 0.091461
0.978668 0.331451 0.091461
1.000000 0.331451 0.091461
0.000000 0.374786 0.091461
0.018616 0.374786 0.091461
0.037598 0.374786 0.091461
0.057220 0.374786 0.091461
0.077942 0.374786 0.091461
0.100189 0.374786 0.091461
0.124603 0.374786 0.091461
0.151398 0.374786 0.091461
0.180786 0.374786 0.091461
0.212830 0.374786 0.091461
0.247345 0.374786 0.091461
0.284271 0.374786 0.091461
0.323456 0.374786 0.091461
0.364594 0.374786 0.091461
0.407532 0.374786 0.091461
0.452057 0.374786 0.091461
0.497894 0.374786 0.091461
0.544800 0.374786 0.091461
0.592499 0.374786 0.091461
0.639954 0.374786 0.091461
0.685699 0.374786 0.091461
0.728424 0.374786 0.091461
0.767090 0.374786 0.091461
0.801697 0.374786 0.091461
0.832825 0.374786 0.091461
0.861115 0.374786 0.091461
0.887238 0.374786 0.091461
0.911652 0.374786 0.091461
0.934784 0.374786 0.091461
0.957031 0.374786 0.091461
0.978668 0.374786 0.091461
1.000000 0.374786 0.091461
0.000000 0.418732 0.091461
0.018616 0.418732 0.091461
0.037598 0.418732 0.091461
0.057220 0.418732 0.091461
0.077942 0.418732 0.091461
0.100189 0.418732 0.091461
0.124603 0.418732 0.091461
0.151398 0.418732 0.091461
0.180786 0.418732 0.091461
0.212830 0.418732 0.091461
0.247345 0.418732 0.091461
0.284271 0.418732 0.091461
0.323456 0.418732 0.091461
0.364594 0.418732 0.091461
0.407532 0.418732 0.091461
0.452057 0.418732 0.091461
0.497894 0.418732 0.091461
0.544800 0.418732 0.091461
0.592499 0.418732 0.091461
0.639954 0.418732 0.091461
0.685699 0.418732 0.091461
0.728424 0.418732 0.091461
0.767090 0.418732 0.091461
0.801697 0.418732 0.091461
0.832825 0.418732 0.091461
0.861115 0.418732 0.091461
0.887238 0.418732 0.091461
0.911652 0.418732 0.091461
0.934784 0.418732 0.091461
0.957031 0.418732 0.091461
0.978668 0.418732 0.091461
1.000000 0.418732 0.091461
0.000000 0.462189 0.091461
0.018616 0.462189 0.091461
0.037598 0.462189 0.091461
0.057220 0.462189 0.091461
0.077942 0.462189 0.091461
0.100189 0.462189 0.091461
0.124603 0.462189 0.091461
0.151398 0.462189 0.091461
0.180786 0.462189 0.091461
0.212830 0.462189 0.091461
0.247345 0.462189 0.091461
0.284271 0.462189 0.091461
0.323456 0.462189 0.091461
0.364594 0.462189 0.091461
0.407532 0.462189 0.091461
0.452057 0.462189 0.091461
0.497894 0.462189 0.091461
0.544800 0.462189 0.091461
0.592499 0.462189 0.091461
0.639954 0.462189 0.091461
0.685699 0.462189 0.091461
0.728424 0.462189 0.091461
0.767090 0.462189 0.091461
0.801697 0.462189 0.091461
0.832825 0.462189 0.091461
0.861115 0.462189 0.091461
0.887238 0.462189 0.091461
0.911652 0.462189 0.091461
0.934784 0.462189 0.091461
0.957031 0.462189 0.091461
0.978668 0.462189 0.091461
1.000000 0.462189 0.091461
0.000000 0.504578 0.091461
0.018616 0.504578 0.091461
0.037598 0.504578 0.091461
0.057220 0.504578 0.091461
0.077942 0.504578 0.091461
0.100189 0.504578 0.091461
0.124603 0.504578 0.091461
0.151398 0.504578 0.091461
0.180786 0.504578 0.091461
0.212830 0.504578 0.091461
0.247345 0.504578 0.091461
0.284271 0.504578 0.091461
0.323456 0.504578 0.091461
0.364594 0.504578 0.091461
0.407532 0.504578 0.091461
0.452057 0.504578 0.091461
0.497894 0.504578 0.091461
0.544800 0.504578 0.091461
0.592499 0.504578 0.091461
0.639954 0.504578 0.091461
0.685699 0.504578 0.091461
0.728424 0.504578 0.091461
0.767090 0.504578 0.091461
0.801697 0.504578 0.091461
0.832825 0.504578 0.091461
0.861115 0.504578 0.091461
0.887238 0.504578 0.091461
0.911652 0.504578 0.091461
0.934784 0.504578 0.091461
0.957031 0.504578 0.091461
0.978668 0.504578 0.091461
1.000000 0.504578 0.091461
0.000000 0.546021 0.091461
0.018616 0.546021 0.091461
0.037598 0.546021 0.091461
0.057220 0.546021 0.091461
0.077942 0.546021 0.091461
0.100189 0.546021 0.091461
0.124603 0.546021 0.091461
0.151398 0.546021 0.091461
0.180786 0.546021 0.091461
0.212830 0.546021 0.091461
0.247345 0.546021 0.091461
0.284271 0.546021 0.091461
0.323456 0.546021 0.091461
0.364594 0.546021 0.091461
0.407532 0.546021 0.091461
0.452057 0.546021 0.091461
0.497894 0.546021 0.091461
0.544800 0.546021 0.091461
0.592499 0.546021 0.091461
0.639954 0.546021 0.091461
0.685699 0.546021 0.091461
0.728424 0.546021 0.091461
0.767090 0.546021 0.091461
0.801697 0.546021 0.091461
0.832825 0.546021 0.091461
0.861115 0.546021 0.091461
0.887238 0.546021 0.091461
0.911652 0.546021 0.091461
0.934784 0.546021 0.091461
0.957031 0.546021 0.091461
0.978668 0.546021 0.091461
1.000000 0.546021 0.091461
0.000000 0.586945 0.091461
0.018616 0.586945 0.091461
0.037598 0.586945 0.091461
0.057220 0.586945 0.091461
0.077942 0.586945 0.091461
0.100189 0.586945 0.091461
0.124603 0.586945 0.091461
0.151398 0.586945 0.091461
0.180786 0.586945 0.091461
0.212830 0.586945 0.091461
0.247345 0.586945 0.091461
0.284271 0.586945 0.091461
0.323456 0.586945 0.091461
0.364594 0.586945 0.091461
0.407532 0.586945 0.091461
0.452057 0.586945 0.091461
0.497894 0.586945 0.091461
0.544800 0.586945 0.091461
0.592499 0.586945 0.091461
0.639954 0.586945 0.091461
0.685699 0.586945 0.091461
0.728424 0.586945 0.091461
0.767090 0.586945 0.091461
0.801697 0.586945 0.091461
0.832825 0.586945 0.091461
0.861115 0.586945 0.091461
0.887238 0.586945 0.091461
0.911652 0.586945 0.091461
0.934784 0.586945 0.091461
0.957031 0.586945 0.091461
0.978668 0.586945 0.091461
1.000000 0.586945 0.091461
0.000000 0.627655 0.091461
0.018616 0.627655 0.091461
0.037598 0.627655 0.091461
0.057220 0.627655 0.091461
0.077942 0.627655 0.091461
0.100189 0.627655 0.091461
0.124603 0.627655 0.091461
0.151398 0.627655 0.091461
0.180786 0.627655 0.091461
0.212830 0.627655 0.091461
0.247345 0.627655 0.091461
0.284271 0.627655 0.091461
0.323456 0.627655 0.091461
0.364594 0.627655 0.091461
0.407532 0.627655 0.091461
0.452057 0.627655 0.091461
0.497894 0.627655 0.091461
0.544800 0.627655 0.091461
0.592499 0.627655 0.091461
0.639954 0.627655 0.091461
0.685699 0.627655 0.091461
0.728424 0.627655 0.091461
0.767090 0.627655 0.091461
0.801697 0.627655 0.091461
0.832825 0.627655 0.091461
0.861115 0.627655 0.091461
0.887238 0.627655 0.091461
0.911652 0.627655 0.091461
0.934784 0.627655 0.091461
0.957031 0.627655 0.091461
0.978668 0.627655 0.091461
1.000000 0.627655 0.091461
0.000000 0.668579 0.091461
0.018616 0.668579 0.091461
0.037598 0.668579 0.091461
0.057220 0.668579 0.091461
0.077942 0.668579 0.091461
0.100189 0.668579 0.091461
0.124603 0.668579 0.091461
0.151398 0.668579 0.091461
0.180786 0.668579 0.091461
0.212830 0.668579 0.091461
0.247345 0.668579 0.091461
0.284271 0.668579 0.091461
0.323456 0.668579 0.091461
0.364594 0.668579 0.091461
0.407532 0.668579 0.091461
0.452057 0.668579 0.091461
0.497894 0.668579 0.091461
0.544800 0.668579 0.091461
0.592499 0.668579 0.091461
0.639954 0.668579 0.091461
0.685699 0.668579 0.091461
0.728424 0.668579 0.091461
0.767090 0.668579 0.091461
0.801697 0.668579 0.091461
0.832825 0.668579 0.091461
0.861115 0.668579 0.091461
0.887238 0.668579 0.091461
0.911652 0.668579 0.091461
0.934784 0.668579 0.091461
0.957031 0.668579 0.091461
0.978668 0.668579 0.091461
1.000000 0.668579 0.091461
0.000000 0.709412 0.091461
0.018616 0.709412 0.091461
0.037598 0.709412 0.091461
0.057220 0.709412 0.091461
0.077942 0.709412 0.091461
0.100189 0.709412 0.091461
0.124603 0.709412 0.091461
0.151398 0.709412 0.091461
0.180786 0.709412 0.091461
0.212830 0.709412 0.091461
0.247345 0.709412 0.091461
0.284271 0.709412 0.091461
0.323456 0.709412 0.091461
0.364594 0.709412 0.091461
0.407532 0.709412 0.091461
0.452057 0.709412 0.091461
0.497894 0.709412 0.091461
0.544800 0.709412 0.091461
0.592499 0.709412 0.091461
0.639954 0.709412 0.091461
0.685699 0.709412 0.091461
0.728424 0.709412 0.091461
0.767090 0.709412 0.091461
0.801697 0.709412 0.091461
0.832825 0.709412 0.091461
0.861115 0.709412 0.091461
0.887238 0.709412 0.091461
0.911652 0.709412 0.091461
0.934784 0.709412 0.091461
0.957031 0.709412 0.091461
0.978668 0.709412 0.091461
1.000000 0.709412 0.091461
0.000000 0.749329 0.091461
0.018616 0.749329 0.091461
0.037598 0.749329 0.091461
0.057220 0.749329 0.091461
0.077942 0.749329 0.091461
0.100189 0.749329 0.091461
0.124603 0.749329 0.091461
0.151398 0.749329 0.091461
0.180786 0.749329 0.091461
0.212830 0.749329 0.091461
0.247345 0.749329 0.091461
0.284271 0.749329 0.091461
0.323456 0.749329 0.091461
0.364594 0.749329 0.091461
0.407532 0.749329 0.091461
0.452057 0.749329 0.091461
0.497894 0.749329 0.091461
0.544800 0.749329 0.091461
0.592499 0.749329 0.091461
0.639954 0.749329 0.091461
0.685699 0.749329 0.091461
0.728424 0.749329 0.091461
0.767090 0.749329 0.091461
0.801697 0.749329 0.091461
0.832825 0.749329 0.091461
0.861115 0.749329 0.091461
0.887238 0.749329 0.091461
0.911652 0.749329 0.091461
0.934784 0.749329 0.091461
0.957031 0.749329 0.091461
0.978668 0.749329 0.091461
1.000000 0.749329 0.091461
0.000000 0.787384 0.091461
0.018616 0.787384 0.091461
0.037598 0.787384 0.091461
0.057220 0.787384 0.091461
0.077942 0.787384 0.091461
0.100189 0.787384 0.091461
0.124603 0.787384 0.091461
0.151398 0.787384 0.091461
0.180786 0.787384 0.091461
0.212830 0.787384 0.091461
0.247345 0.787384 0.091461
0.284271 0.787384 0.091461
0.323456 0.787384 0.091461
0.364594 0.787384 0.091461
0.407532 0.787384 0.091461
0.452057 0.787384 0.091461
0.497894 0.787384 0.091461
0.544800 0.787384 0.091461
0.592499 0.787384 0.091461
0.639954 0.787384 0.091461
0.685699 0.787384 0.091461
0.728424 0.787384 0.091461
0.767090 0.787384 0.091461
0.801697 0.787384 0.091461
0.832825 0.787384 0.091461
0.861115 0.787384 0.091461
0.887238 0.787384 0.091461
0.911652 0.787384 0.091461
0.934784 0.787384 0.091461
0.957031 0.787384 0.091461
0.978668 0.787384 0.091461
1.000000 0.787384 0.091461
0.000000 0.822815 0.091461
0.018616 0.822815 0.091461
0.037598 0.822815 0.091461
0.057220 0.822815 0.091461
0.077942 0.822815 0.091461
0.100189 0.822815 0.091461
0.124603 0.822815 0.091461
0.151398 0.822815 0.091461
0.180786 0.822815 0.091461
0.212830 0.822815 0.091461
0.247345 0.822815 0.091461
0.284271 0.822815 0.091461
0.323456 0.822815 0.091461
0.364594 0.822815 0.091461
0.407532 0.822815 0.091461
0.452057 0.822815 0.091461
0.497894 0.822815 0.091461
0.544800 0.822815 0.091461
0.592499 0.822815 0.091461
0.639954 0.822815 0.091461
0.685699 0.822815 0.091461
0.728424 0.822815 0.091461
0.767090 0.822815 0.091461
0.801697 0.822815 0.091461
0.832825 0.822815 0.091461
0.861115 0.822815 0.091461
0.887238 0.822815 0.091461
0.911652 0.822815 0.091461
0.934784 0.822815 0.091461
0.957031 0.822815 0.091461
0.978668 0.822815 0.091461
1.000000 0.822815 0.091461
0.000000 0.855103 0.091461
0.018616 0.855103 0.091461
0.037598 0.855103 0.091461
0.057220 0.855103 0.091461
0.077942 0.855103 0.091461
0.100189 0.855103 0.091461
0.124603 0.855103 0.091461
0.151398 0.855103 0.091461
0.180786 0.855103 0.091461
0.212830 0.855103 0.091461
0.247345 0.855103 0.091461
0.284271 0.855103 0.091461
0.323456 0.855103 0.091461
0.364594 0.855103 0.091461
0.407532 0.855103 0.091461
0.452057 0.855103 0.091461
0.497894 0.855103 0.091461
0.544800 0.855103 0.091461
0.592499 0.855103 0.091461
0.639954 0.855103 0.091461
0.685699 0.855103 0.091461
0.728424 0.855103 0.091461
0.767090 0.855103 0.091461
0.801697 0.855103 0.091461
0.832825 0.855103 0.091461
0.861115 0.855103 0.091461
0.887238 0.855103 0.091461
0.911652 0.855103 0.091461
0.934784 0.855103 0.091461
0.957031 0.855103 0.091461
0.978668 0.855103 0.091461
1.000000 0.855103 0.091461
0.000000 0.883972 0.091461
0.018616 0.883972 0.091461
0.037598 0.883972 0.091461
0.057220 0.883972 0.091461
0.077942 0.883972 0.091461
0.100189 0.883972 0.091461
0.124603 0.883972 0.091461
0.151398 0.883972 0.091461
0.180786 0.883972 0.091461
0.212830 0.883972 0.091461
0.247345 0.883972 0.091461
0.284271 0.883972 0.091461
0.323456 0.883972 0.091461
0.364594 0.883972 0.091461
0.407532 0.883972 0.091461
0.452057 0.883972 0.091461
0.497894 0.883972 0.091461
0.544800 0.883972 0.091461
0.592499 0.883972 0.091461
0.639954 0.883972 0.091461
0.685699 0.883972 0.091461
0.728424 0.883972 0.091461
0.767090 0.883972 0.091461
0.801697 0.883972 0.091461
0.832825 0.883972 0.091461
0.861115 0.883972 0.091461
0.887238 0.883972 0.091461
0.911652 0.883972 0.091461
0.934784 0.883972 0.091461
0.957031 0.883972 0.091461
0.978668 0.883972 0.091461
1.000000 0.883972 0.091461
0.000000 0.910126 0.091461
0.018616 0.910126 0.091461
0.037598 0.910126 0.091461
0.057220 0.910126 0.091461
0.077942 0.910126 0.091461
0.100189 0.910126 0.091461
0.124603 0.910126 0.091461
0.151398 0.910126 0.091461
0.180786 0.910126 0.091461
0.212830 0.910126 0.091461
0.247345 0.910126 0.091461
0.284271 0.910126 0.091461
0.323456 0.910126 0.091461
0.364594 0.910126 0.091461
0.407532 0.910126 0.091461
0.452057 0.910126 0.091461
0.497894 0.910126 0.091461
0.544800 0.910126 0.091461
