Project 5 - Parkour/Graphics/LUTS Instagram/X-Pro II.cube
#Created by: Adobe Photoshop Export Color Lookup Plugin
TITLE "X-Pro II"
#LUT size
LUT_3D_SIZE 5
#data domain
#LUT data points
DOMAIN_MIN 0.000000 0.000000 0.000000
DOMAIN_MAX 0.903226 0.903226 0.903226
0.000000 0.000000 0.091461
0.151398 0.000000 0.091461
0.407532 0.000000 0.091461
0.728424 0.000000 0.091461
0.934784 0.000000 0.091461
0.000000 0.148224 0.091461
0.151398 0.148224 0.091461
0.407532 0.148224 0.091461
0.728424 0.148224 0.091461
0.934784 0.148224 0.091461
0.000000 0.418732 0.091461
0.151398 0.418732 0.091461
0.407532 0.418732 0.091461
0.728424 0.418732 0.091461
0.934784 0.418732 0.091461
0.000000 0.709412 0.091461
0.151398 0.709412 0.091461
0.407532 0.709412 0.091461
0.728424 0.709412 0.091461
0.934784 0.709412 0.091461
0.000000 0.934204 0.091461
0.151398 0.934204 0.091461
0.407532 0.934204 0.091461
0.728424 0.934204 0.091461
0.934784 0.934204 0.091461
0.000000 0.000000 0.245270
0.151398 0.000000 0.245270
0.407532 0.000000 0.245270
0.728424 0.000000 0.245270
0.934784 0.000000 0.245270
0.000000 0.148224 0.245270
0.151398 0.148224 0.245270
0.407532 0.148224 0.245270
0.728424 0.148224 0.245270
0.934784 0.148224 0.245270
0.000000 0.418732 0.245270
0.151398 0.418732 0.245270
0.407532 0.418732 0.245270
0.728424 0.418732 0.245270
0.934784 0.418732 0.245270
0.000000 0.709412 0.245270
0.151398 0.709412 0.245270
0.407532 0.709412 0.245270
0.728424 0.709412 0.245270
0.934784 0.709412 0.245270
0.000000 0.934204 0.245270
0.151398 0.934204 0.245270
0.407532 0.934204 0.245270
0.728424 0.934204 0.245270
0.934784 0.934204 0.245270
0.000000 0.000000 0.419495
0.151398 0.000000 0.419495
0.407532 0.000000 0.419495
0.728424 0.000000 0.419495
0.934784 0.000000 0.419495
0.000000 0.148224 0.419495
0.151398 0.148224 0.419495
0.407532 0.148224 0.419495
0.728424 0.148224 0.419495
0.934784 0.148224 0.419495
0.000000 0.418732 0.419495
0.151398 0.418732 0.419495
0.407532 0.418732 0.419495
0.728424 0.418732 0.419495
0.934784 0.418732 0.419495
0.000000 0.709412 0.419495
0.151398 0.709412 0.419495
0.407532 0.709412 0.419495
0.728424 0.709412 0.419495
0.934784 0.709412 0.419495
0.000000 0.934204 0.419495
0.151398 0.934204 0.419495
0.407532 0.934204 0.419495
0.728424 0.934204 0.419495
0.934784 0.934204 0.419495
0.000000 0.000000 0.600281
0.151398 0.000000 0.600281
0.407532 0.000000 0.600281
0.728424 0.000000 0.600281
0.934784 0.000000 0.600281
0.000000 0.148224 0.600281
0.151398 0.148224 0.600281
0.407532 0.148224 0.600281
0.728424 0.148224 0.600281
0.934784 0.148224 0.600281
0.000000 0.418732 0.600281
0.151398 0.418732 0.600281
0.407532 0.418732 0.600281
0.728424 0.418732 0.600281
0.934784 0.418732 0.600281
0.000000 0.709412 0.600281
0.151398 0.709412 0.600281
0.407532 0.709412 0.600281
0.728424 0.709412 0.600281
0.934784 0.709412 0.600281
0.000000 0.934204 0.600281
0.151398 0.934204 0.600281
0.407532 0.934204 0.600281
0.728424 0.934204 0.600281
0.934784 0.934204 0.600281
0.000000 0.000000 0.796783
0.151398 0.000000 0.796783
0.407532 0.000000 0.796783
0.728424 0.000000 0.796783
0.934784 0.000000 0.796783
0.000000 0.148224 0.796783
0.151398 0.148224 0.796783
0.407532 0.148224 0.796783
0.728424 0.148224 0.796783
0.934784 0.148224 0.796783
0.000000 0.418732 0.796783
0.151398 0.418732 0.796783
0.407532 0.418732 0.796783
0.728424 0.418732 0.796783
0.934784 0.418732 0.796783
0.000000 0.709412 0.796783
0.151398 0.709412 0.796783
0.407532 0.709412 0.796783
0.728424 0.709412 0.796783
0.934784 0.709412 0.796783
0.000000 0.934204 0.796783
0.151398 0.934204 0.796783
0.407532 0.934204 0.796783
0.728424 0.934204 0.796783
0.934784 0.934204 0.796783
