Project 5 - Parkour/Graphics/LUTS Instagram/X-Pro II.cube
#Created by: Adobe Photoshop Export Color Lookup Plugin
TITLE "X-Pro II"
#LUT size
LUT_3D_SIZE 8
#data domain
#LUT data points
DOMAIN_MIN 0.000000 0.000000 0.000000
DOMAIN_MAX 0.903226 0.903226 0.903226
0.000000 0.000000 0.091461
0.077942 0.000000 0.091461
0.180786 0.000000 0.091461
0.323456 0.000000 0.091461
0.497894 0.000000 0.091461
0.685699 0.000000 0.091461
0.832825 0.000000 0.091461
0.934784 0.000000 0.091461
0.000000 0.074036 0.091461
0.077942 0.074036 0.091461
0.180786 0.074036 0.091461
0.323456 0.074036 0.091461
0.497894 0.074036 0.091461
0.685699 0.074036 0.091461
0.832825 0.074036 0.091461
0.934784 0.074036 0.091461
0.000000 0.179016 0.091461
0.077942 0.179016 0.091461
0.180786 0.179016 0.091461
0.323456 0.179016 0.091461
0.497894 0.179016 0.091461
0.685699 0.179016 0.091461
0.832825 0.179016 0.091461
0.934784 0.179016 0.091461
0.000000 0.331451 0.091461
0.077942 0.331451 0.091461
0.180786 0.331451 0.091461
0.323456 0.331451 0.091461
0.497894 0.331451 0.091461
0.685699 0.331451 0.091461
0.832825 0.331451 0.091461
0.934784 0.331451 0.091461
0.000000 0.504578 0.091461
0.077942 0.504578 0.091461
0.180786 0.504578 0.091461
0.323456 0.504578 0.091461
0.497894 0.504578 0.091461
0.685699 0.504578 0.091461
0.832825 0.504578 0.091461
0.934784 0.504578 0.091461
0.000000 0.668579 0.091461
0.077942 0.668579 0.091461
0.180786 0.668579 0.091461
0.323456 0.668579 0.091461
0.497894 0.668579 0.091461
0.685699 0.668579 0.091461
0.832825 0.668579 0.091461
0.934784 0.668579 0.091461
0.000000 0.822815 0.091461
0.077942 0.822815 0.091461
0.180786 0.822815 0.091461
0.323456 0.822815 0.091461
0.497894 0.822815 0.091461
0.685699 0.822815 0.091461
0.832825 0.822815 0.091461
0.934784 0.822815 0.091461
0.000000 0.934204 0.091461
0.077942 0.934204 0.091461
0.180786 0.934204 0.091461
0.323456 0.934204 0.091461
0.497894 0.934204 0.091461
0.685699 0.934204 0.091461
0.832825 0.934204 0.091461
0.934784 0.934204 0.091461
0.000000 0.000000 0.177338
0.077942 0.000000 0.177338
0.180786 0.000000 0.177338
0.323456 0.000000 0.177338
0.497894 0.000000 0.177338
0.685699 0.000000 0.177338
0.832825 0.000000 0.177338
0.934784 0.000000 0.177338
0.000000 0.074036 0.177338
0.077942 0.074036 0.177338
0.180786 0.074036 0.177338
0.323456 0.074036 0.177338
0.497894 0.074036 0.177338
0.685699 0.074036 0.177338
0.832825 0.074036 0.177338
0.934784 0.074036 0.177338
0.000000 0.179016 0.177338
0.077942 0.179016 0.177338
0.180786 0.179016 0.177338
0.323456 0.179016 0.177338
0.497894 0.179016 0.177338
0.685699 0.179016 0.177338
0.832825 0.179016 0.177338
0.934784 0.179016 0.177338
0.000000 0.331451 0.177338
0.077942 0.331451 0.177338
0.180786 0.331451 0.177338
0.323456 0.331451 0.177338
0.497894 0.331451 0.177338
0.685699 0.331451 0.177338
0.832825 0.331451 0.177338
0.934784 0.331451 0.177338
0.000000 0.504578 0.177338
0.077942 0.504578 0.177338
0.180786 0.504578 0.177338
0.323456 0.504578 0.177338
0.497894 0.504578 0.177338
0.685699 0.504578 0.177338
0.832825 0.504578 0.177338
0.934784 0.504578 0.177338
0.000000 0.668579 0.177338
0.077942 0.668579 0.177338
0.180786 0.668579 0.177338
0.323456 0.668579 0.177338
0.497894 0.668579 0.177338
0.685699 0.668579 0.177338
0.832825 0.668579 0.177338
0.934784 0.668579 0.177338
0.000000 0.822815 0.177338
0.077942 0.822815 0.177338
0.180786 0.822815 0.177338
0.323456 0.822815 0.177338
0.497894 0.822815 0.177338
0.685699 0.822815 0.177338
0.832825 0.822815 0.177338
0.934784 0.822815 0.177338
0.000000 0.934204 0.177338
0.077942 0.934204 0.177338
0.180786 0.934204 0.177338
0.323456 0.934204 0.177338
0.497894 0.934204 0.177338
0.685699 0.934204 0.177338
0.832825 0.934204 0.177338
0.934784 0.934204 0.177338
0.000000 0.000000 0.268860
0.077942 0.000000 0.268860
0.180786 0.000000 0.268860
0.323456 0.000000 0.268860
0.497894 0.000000 0.268860
0.685699 0.000000 0.268860
0.832825 0.000000 0.268860
0.934784 0.000000 0.268860
0.000000 0.074036 0.268860
0.077942 0.074036 0.268860
0.180786 0.074036 0.268860
0.323456 0.074036 0.268860
0.497894 0.074036 0.268860
0.685699 0.074036 0.268860
0.832825 0.074036 0.268860
0.934784 0.074036 0.268860
0.000000 0.179016 0.268860
0.077942 0.179016 0.268860
0.180786 0.179016 0.268860
0.323456 0.179016 0.268860
0.497894 0.179016 0.268860
0.685699 0.179016 0.268860
0.832825 0.179016 0.268860
0.934784 0.179016 0.268860
0.000000 0.331451 0.268860
0.077942 0.331451 0.268860
0.180786 0.331451 0.268860
0.323456 0.331451 0.268860
0.497894 0.331451 0.268860
0.685699 0.331451 0.268860
0.832825 0.331451 0.268860
0.934784 0.331451 0.268860
0.000000 0.504578 0.268860
0.077942 0.504578 0.268860
0.180786 0.504578 0.268860
0.323456 0.504578 0.268860
0.497894 0.504578 0.268860
0.685699 0.504578 0.268860
0.832825 0.504578 0.268860
0.934784 0.504578 0.268860
0.000000 0.668579 0.268860
0.077942 0.668579 0.268860
0.180786 0.668579 0.268860
0.323456 0.668579 0.268860
0.497894 0.668579 0.268860
0.685699 0.668579 0.268860
0.832825 0.668579 0.268860
0.934784 0.668579 0.268860
0.000000 0.822815 0.268860
0.077942 0.822815 0.268860
0.180786 0.822815 0.268860
0.323456 0.822815 0.268860
0.497894 0.822815 0.268860
0.685699 0.822815 0.268860
0.832825 0.822815 0.268860
0.934784 0.822815 0.268860
0.000000 0.934204 0.268860
0.077942 0.934204 0.268860
0.180786 0.934204 0.268860
0.323456 0.934204 0.268860
0.497894 0.934204 0.268860
0.685699 0.934204 0.268860
0.832825 0.934204 0.268860
0.934784 0.934204 0.268860
0.000000 0.000000 0.368011
0.077942 0.000000 0.368011
0.180786 0.000000 0.368011
0.323456 0.000000 0.368011
0.497894 0.000000 0.368011
0.685699 0.000000 0.368011
0.832825 0.000000 0.368011
0.934784 0.000000 0.368011
0.000000 0.074036 0.368011
0.077942 0.074036 0.368011
0.180786 0.074036 0.368011
0.323456 0.074036 0.368011
0.497894 0.074036 0.368011
0.685699 0.074036 0.368011
0.832825 0.074036 0.368011
0.934784 0.074036 0.368011
0.000000 0.179016 0.368011
0.077942 0.179016 0.368011
0.180786 0.179016 0.368011
0.323456 0.179016 0.368011
0.497894 0.179016 0.368011
0.685699 0.179016 0.368011
0.832825 0.179016 0.368011
0.934784 0.179016 0.368011
0.000000 0.331451 0.368011
0.077942 0.331451 0.368011
0.180786 0.331451 0.368011
0.323456 0.331451 0.368011
0.497894 0.331451 0.368011
0.685699 0.331451 0.368011
0.832825 0.331451 0.368011
0.934784 0.331451 0.368011
0.000000 0.504578 0.368011
0.077942 0.504578 0.368011
0.180786 0.504578 0.368011
0.323456 0.504578 0.368011
0.497894 0.504578 0.368011
0.685699 0.504578 0.368011
0.832825 0.504578 0.368011
0.934784 0.504578 0.368011
0.000000 0.668579 0.368011
0.077942 0.668579 0.368011
0.180786 0.668579 0.368011
0.323456 0.668579 0.368011
0.497894 0.668579 0.368011
0.685699 0.668579 0.368011
0.832825 0.668579 0.368011
0.934784 0.668579 0.368011
0.000000 0.822815 0.368011
0.077942 0.822815 0.368011
0.180786 0.822815 0.368011
0.323456 0.822815 0.368011
0.497894 0.822815 0.368011
0.685699 0.822815 0.368011
0.832825 0.822815 0.368011
0.934784 0.822815 0.368011
0.000000 0.934204 0.368011
0.077942 0.934204 0.368011
0.180786 0.934204 0.368011
0.323456 0.934204 0.368011
0.497894 0.934204 0.368011
0.685699 0.934204 0.368011
0.832825 0.934204 0.368011
0.934784 0.934204 0.368011
0.000000 0.000000 0.470703
0.077942 0.000000 0.470703
0.180786 0.000000 0.470703
0.323456 0.000000 0.470703
0.497894 0.000000 0.470703
0.685699 0.000000 0.470703
0.832825 0.000000 0.470703
0.934784 0.000000 0.470703
0.000000 0.074036 0.470703
0.077942 0.074036 0.470703
0.180786 0.074036 0.470703
0.323456 0.074036 0.470703
0.497894 0.074036 0.470703
0.685699 0.074036 0.470703
0.832825 0.074036 0.470703
0.934784 0.074036 0.470703
0.000000 0.179016 0.470703
0.077942 0.179016 0.470703
0.180786 0.179016 0.470703
0.323456 0.179016 0.470703
0.497894 0.179016 0.470703
0.685699 0.179016 0.470703
0.832825 0.179016 0.470703
0.934784 0.179016 0.470703
0.000000 0.331451 0.470703
0.077942 0.331451 0.470703
0.180786 0.331451 0.470703
0.323456 0.331451 0.470703
0.497894 0.331451 0.470703
0.685699 0.331451 0.470703
0.832825 0.331451 0.470703
0.934784 0.331451 0.470703
0.000000 0.504578 0.470703
0.077942 0.504578 0.470703
0.180786 0.504578 0.470703
0.323456 0.504578 0.470703
0.497894 0.504578 0.470703
0.685699 0.504578 0.470703
0.832825 0.504578 0.470703
0.934784 0.504578 0.470703
0.000000 0.668579 0.470703
0.077942 0.668579 0.470703
0.180786 0.668579 0.470703
0.323456 0.668579 0.470703
0.497894 0.668579 0.470703
0.685699 0.668579 0.470703
0.832825 0.668579 0.470703
0.934784 0.668579 0.470703
0.000000 0.822815 0.470703
0.077942 0.822815 0.470703
0.180786 0.822815 0.470703
0.323456 0.822815 0.470703
0.497894 0.822815 0.470703
0.685699 0.822815 0.470703
0.832825 0.822815 0.470703
0.934784 0.822815 0.470703
0.000000 0.934204 0.470703
0.077942 0.934204 0.470703
0.180786 0.934204 0.470703
0.323456 0.934204 0.470703
0.497894 0.934204 0.470703
0.685699 0.934204 0.470703
0.832825 0.934204 0.470703
0.934784 0.934204 0.470703
0.000000 0.000000 0.573578
0.077942 0.000000 0.573578
0.180786 0.000000 0.573578
0.323456 0.000000 0.573578
0.497894 0.000000 0.573578
0.685699 0.000000 0.573578
0.832825 0.000000 0.573578
0.934784 0.000000 0.573578
0.000000 0.074036 0.573578
0.077942 0.074036 0.573578
0.180786 0.074036 0.573578
0.323456 0.074036 0.573578
0.497894 0.074036 0.573578
0.685699 0.074036 0.573578
0.832825 0.074036 0.573578
0.934784 0.074036 0.573578
0.000000 0.179016 0.573578
0.077942 0.179016 0.573578
0.180786 0.179016 0.573578
0.323456 0.179016 0.573578
0.497894 0.179016 0.573578
0.685699 0.179016 0.573578
0.832825 0.179016 0.573578
0.934784 0.179016 0.573578
0.000000 0.331451 0.573578
0.077942 0.331451 0.573578
0.180786 0.331451 0.573578
0.323456 0.331451 0.573578
0.497894 0.331451 0.573578
0.685699 0.331451 0.573578
0.832825 0.331451 0.573578
0.934784 0.331451 0.573578
0.000000 0.504578 0.573578
0.077942 0.504578 0.573578
0.180786 0.504578 0.573578
0.323456 0.504578 0.573578
0.497894 0.504578 0.573578
0.685699 0.504578 0.573578
0.832825 0.504578 0.573578
0.934784 0.504578 0.573578
0.000000 0.668579 0.573578
0.077942 0.668579 0.573578
0.180786 0.668579 0.573578
0.323456 0.668579 0.573578
0.497894 0.668579 0.573578
0.685699 0.668579 0.573578
0.832825 0.668579 0.573578
0.934784 0.668579 0.573578
0.000000 0.822815 0.573578
0.077942 0.822815 0.573578
0.180786 0.822815 0.573578
0.323456 0.822815 0.573578
0.497894 0.822815 0.573578
0.685699 0.822815 0.573578
0.832825 0.822815 0.573578
0.934784 0.822815 0.573578
0.000000 0.934204 0.573578
0.077942 0.934204 0.573578
0.180786 0.934204 0.573578
0.323456 0.934204 0.573578
0.497894 0.934204 0.573578
0.685699 0.934204 0.573578
0.832825 0.934204 0.573578
0.934784 0.934204 0.573578
0.000000 0.000000 0.684204
0.077942 0.000000 0.684204
0.180786 0.000000 0.684204
0.323456 0.000000 0.684204
0.497894 0.000000 0.684204
0.685699 0.000000 0.684204
0.832825 0.000000 0.684204
0.934784 0.000000 0.684204
0.000000 0.074036 0.684204
0.077942 0.074036 0.684204
0.180786 0.074036 0.684204
0.323456 0.074036 0.684204
0.497894 0.074036 0.684204
0.685699 0.074036 0.684204
0.832825 0.074036 0.684204
0.934784 0.074036 0.684204
0.000000 0.179016 0.684204
0.077942 0.179016 0.684204
0.180786 0.179016 0.684204
0.323456 0.179016 0.684204
0.497894 0.179016 0.684204
0.685699 0.179016 0.684204
0.832825 0.179016 0.684204
0.934784 0.179016 0.684204
0.000000 0.331451 0.684204
0.077942 0.331451 0.684204
0.180786 0.331451 0.684204
0.323456 0.331451 0.684204
0.497894 0.331451 0.684204
0.685699 0.331451 0.684204
0.832825 0.331451 0.684204
0.934784 0.331451 0.684204
0.000000 0.504578 0.684204
0.077942 0.504578 0.684204
0.180786 0.504578 0.684204
0.323456 0.504578 0.684204
0.497894 0.504578 0.684204
0.685699 0.504578 0.684204
0.832825 0.504578 0.684204
0.934784 0.504578 0.684204
0.000000 0.668579 0.684204
0.077942 0.668579 0.684204
0.180786 0.668579 0.684204
0.323456 0.668579 0.684204
0.497894 0.668579 0.684204
0.685699 0.668579 0.684204
0.832825 0.668579 0.684204
0.934784 0.668579 0.684204
0.000000 0.822815 0.684204
0.077942 0.822815 0.684204
0.180786 0.822815 0.684204
0.323456 0.822815 0.684204
0.497894 0.822815 0.684204
0.685699 0.822815 0.684204
0.832825 0.822815 0.684204
0.934784 0.822815 0.684204
0.000000 0.934204 0.684204
0.077942 0.934204 0.684204
0.180786 0.934204 0.684204
0.323456 0.934204 0.684204
0.497894 0.934204 0.684204
0.685699 0.934204 0.684204
0.832825 0.934204 0.684204
0.934784 0.934204 0.684204
0.000000 0.000000 0.796783
0.077942 0.000000 0.796783
0.180786 0.000000 0.796783
0.323456 0.000000 0.796783
0.497894 0.000000 0.796783
0.685699 0.000000 0.796783
0.832825 0.000000 0.796783
0.934784 0.000000 0.796783
0.000000 0.074036 0.796783
0.077942 0.074036 0.796783
0.180786 0.074036 0.796783
0.323456 0.074036 0.796783
0.497894 0.074036 0.796783
0.685699 0.074036 0.796783
0.832825 0.074036 0.796783
0.934784 0.074036 0.796783
0.000000 0.179016 0.796783
0.077942 0.179016 0.796783
0.180786 0.179016 0.796783
0.323456 0.179016 0.796783
0.497894 0.179016 0.796783
0.685699 0.179016 0.796783
0.832825 0.179016 0.796783
0.934784 0.179016 0.796783
0.000000 0.331451 0.796783
0.077942 0.331451 0.796783
0.180786 0.331451 0.796783
0.323456 0.331451 0.796783
0.497894 0.331451 0.796783
0.685699 0.331451 0.796783
0.832825 0.331451 0.796783
0.934784 0.331451 0.796783
0.000000 0.504578 0.796783
0.077942 0.504578 0.796783
0.180786 0.504578 0.796783
0.323456 0.504578 0.796783
0.497894 0.504578 0.796783
0.685699 0.504578 0.796783
0.832825 0.504578 0.796783
0.934784 0.504578 0.796783
0.000000 0.668579 0.796783
0.077942 0.668579 0.796783
0.180786 0.668579 0.796783
0.323456 0.668579 0.796783
0.497894 0.668579 0.796783
0.685699 0.668579 0.796783
0.832825 0.668579 0.796783
0.934784 0.668579 0.796783
0.000000 0.822815 0.796783
0.077942 0.822815 0.796783
0.180786 0.822815 0.796783
0.323456 0.822815 0.796783
0.497894 0.822815 0.796783
0.685699 0.822815 0.796783
0.832825 0.822815 0.796783
0.934784 0.822815 0.796783
0.000000 0.934204 0.796783
0.077942 0.934204 0.796783
0.180786 0.934204 0.796783
0.323456 0.934204 0.796783
0.497894 0.934204 0.796783
0.685699 0.934204 0.796783
0.832825 0.934204 0.796783
0.934784 0.934204 0.796783
